; generated by Slic3r 1.37.1-prusa3d-win64 on 2017-11-11 at 15:58:09

; 

; external perimeters extrusion width = 0.45mm
; perimeters extrusion width = 0.45mm
; infill extrusion width = 0.45mm
; solid infill extrusion width = 0.45mm
; top infill extrusion width = 0.40mm
; first layer extrusion width = 0.42mm

M107
M115 U3.0.12 ; tell printer latest fw version
M83  ; extruder relative mode
M104 S215 ; set extruder temp
M140 S55 ; set bed temp
M190 S55 ; wait for bed temp
M109 S215 ; wait for extruder temp
G28 W ; home all without mesh bed level
G80 ; mesh bed leveling
G1 Y-3.0 F1000.0 ; go outside pritn area
G1 X60.0 E9.0  F1000.0 ; intro line
G1 X100.0 E12.5  F1000.0 ; intro line
; Filament gcode

G21 ; set units to millimeters
G90 ; use absolute coordinates
M83 ; use relative distances for extrusion
G1 E-0.80000 F2100.00000
G1 Z0.200 F7200.000
G1 X60.016 Y63.043 F7200.000
G1 E0.80000 F2100.00000
M204 S1000
G1 F2100
G1 X60.899 Y61.916 E0.04489
G1 X82.004 Y40.812 E0.93580
G1 X83.064 Y39.979 E0.04228
G1 X84.312 Y39.376 E0.04347
G1 X85.684 Y39.054 E0.04418
G1 X86.895 Y39.033 E0.03799
G1 X163.090 Y39.045 E2.38904
G1 X164.537 Y39.115 E0.04542
G1 X165.690 Y39.408 E0.03729
G1 X166.768 Y39.929 E0.03753
G1 X168.020 Y40.896 E0.04962
G1 X189.110 Y62.104 E0.93779
G1 X190.004 Y63.234 E0.04516
G1 X190.626 Y64.548 E0.04560
G1 X190.940 Y66.130 E0.05055
G1 X190.861 Y143.972 E2.44069
G1 X190.807 Y144.475 E0.01585
G1 X190.529 Y145.628 E0.03720
G1 X190.026 Y146.706 E0.03728
G1 X189.069 Y147.979 E0.04995
G1 X167.918 Y169.132 E0.93793
G1 X166.783 Y170.031 E0.04537
G1 X165.468 Y170.652 E0.04562
G1 X163.880 Y170.967 E0.05077
G1 X85.899 Y170.673 E2.44503
G1 X85.404 Y170.619 E0.01562
G1 X84.250 Y170.340 E0.03723
G1 X83.173 Y169.838 E0.03727
G1 X81.899 Y168.881 E0.04996
G1 X60.894 Y147.878 E0.93134
G1 X59.996 Y146.743 E0.04536
G1 X59.374 Y145.429 E0.04560
G1 X59.060 Y143.843 E0.05067
G1 X59.093 Y65.930 E2.44291
G1 X59.364 Y64.489 E0.04599
G1 X59.991 Y63.098 E0.04785
G1 F5760
G1 X60.899 Y61.916 E-0.51608
G1 F5760
G1 X61.397 Y61.418 E-0.24392
G1 E-0.04000 F2100.00000
G1 X84.928 Y161.836 F7200.000
G1 E0.80000 F2100.00000
G1 F840
G1 X85.357 Y161.780 E0.01358
G1 X85.803 Y161.835 E0.01408
G1 X86.213 Y162.005 E0.01392
G1 X86.564 Y162.274 E0.01386
G1 X86.833 Y162.625 E0.01386
G1 X87.002 Y163.033 E0.01386
G1 X87.060 Y163.472 E0.01386
G1 X87.002 Y163.910 E0.01386
G1 X86.833 Y164.318 E0.01386
G1 X86.564 Y164.669 E0.01386
G1 X86.213 Y164.938 E0.01386
G1 X85.805 Y165.107 E0.01386
G1 X85.366 Y165.165 E0.01386
G1 X84.928 Y165.107 E0.01386
G1 X84.528 Y164.942 E0.01357
G1 X84.170 Y164.671 E0.01408
G1 X83.900 Y164.318 E0.01392
G1 X83.731 Y163.910 E0.01386
G1 X83.673 Y163.472 E0.01386
G1 X83.731 Y163.033 E0.01386
G1 X83.900 Y162.625 E0.01386
G1 X84.169 Y162.274 E0.01386
G1 X84.520 Y162.005 E0.01386
G1 X84.873 Y161.859 E0.01198
G1 X85.017 Y162.207 F7200.000
G1 F840
G1 X85.359 Y162.160 E0.01081
G1 X85.706 Y162.203 E0.01096
G1 X86.023 Y162.335 E0.01077
G1 X86.295 Y162.543 E0.01075
G1 X86.503 Y162.815 E0.01075
G1 X86.635 Y163.132 E0.01075
G1 X86.679 Y163.472 E0.01075
G1 X86.635 Y163.812 E0.01075
G1 X86.503 Y164.128 E0.01075
G1 X86.295 Y164.400 E0.01075
G1 X86.023 Y164.609 E0.01075
G1 X85.706 Y164.740 E0.01075
G1 X85.366 Y164.785 E0.01075
G1 X85.027 Y164.740 E0.01075
G1 X84.717 Y164.612 E0.01050
G1 X84.438 Y164.401 E0.01096
G1 X84.229 Y164.128 E0.01077
G1 X84.098 Y163.812 E0.01075
G1 X84.053 Y163.472 E0.01075
G1 X84.098 Y163.132 E0.01075
G1 X84.229 Y162.815 E0.01075
G1 X84.438 Y162.543 E0.01075
G1 X84.710 Y162.335 E0.01075
G1 X84.962 Y162.230 E0.00854
G1 X85.104 Y161.874 F7200.000
G1 F5760
G1 X85.359 Y162.160 E-0.13967
G1 F5760
G1 X85.706 Y162.203 E-0.12112
G1 F5760
G1 X86.023 Y162.335 E-0.11895
G1 F5760
G1 X86.295 Y162.543 E-0.11871
G1 F5760
G1 X86.503 Y162.815 E-0.11871
G1 F5760
G1 X86.635 Y163.132 E-0.11871
G1 F5760
G1 X86.644 Y163.201 E-0.02413
G1 E-0.04000 F2100.00000
G1 X89.594 Y158.643 F7200.000
G1 E0.80000 F2100.00000
G1 F840
G1 X89.430 Y158.247 E0.01344
G1 X89.374 Y157.822 E0.01344
G1 X89.430 Y157.397 E0.01344
G1 X89.591 Y157.009 E0.01317
G1 X89.854 Y156.662 E0.01365
G1 X90.195 Y156.400 E0.01350
G1 X90.591 Y156.236 E0.01344
G1 X91.008 Y156.181 E0.01317
G1 X91.440 Y156.235 E0.01365
G1 X91.837 Y156.400 E0.01350
G1 X92.178 Y156.661 E0.01344
G1 X92.438 Y157.001 E0.01344
G1 X92.603 Y157.397 E0.01344
G1 X92.658 Y157.822 E0.01344
G1 X92.603 Y158.247 E0.01344
G1 X92.442 Y158.635 E0.01317
G1 X92.179 Y158.982 E0.01365
G1 X91.837 Y159.244 E0.01350
G1 X91.441 Y159.408 E0.01344
G1 X91.016 Y159.464 E0.01344
G1 X90.591 Y159.408 E0.01344
G1 X90.203 Y159.247 E0.01317
G1 X89.856 Y158.984 E0.01365
G1 X89.631 Y158.690 E0.01162
G1 X89.930 Y158.461 F7200.000
G1 F840
G1 X89.798 Y158.148 E0.01064
G1 X89.755 Y157.822 E0.01033
G1 X89.798 Y157.495 E0.01033
G1 X89.921 Y157.198 E0.01009
G1 X90.124 Y156.930 E0.01054
G1 X90.385 Y156.729 E0.01035
G1 X90.690 Y156.603 E0.01033
G1 X91.009 Y156.561 E0.01009
G1 X91.342 Y156.603 E0.01054
G1 X91.647 Y156.729 E0.01035
G1 X91.909 Y156.930 E0.01033
G1 X92.109 Y157.191 E0.01033
G1 X92.235 Y157.495 E0.01033
G1 X92.278 Y157.822 E0.01033
G1 X92.235 Y158.148 E0.01033
G1 X92.112 Y158.446 E0.01009
G1 X91.909 Y158.714 E0.01054
G1 X91.647 Y158.915 E0.01035
G1 X91.343 Y159.041 E0.01033
G1 X91.016 Y159.084 E0.01033
G1 X90.690 Y159.041 E0.01033
G1 X90.392 Y158.917 E0.01009
G1 X90.125 Y158.715 E0.01054
G1 X89.966 Y158.508 E0.00814
G1 X89.590 Y158.463 F7200.000
G1 F5760
G1 X89.798 Y158.148 E-0.13777
G1 F5760
G1 X89.755 Y157.822 E-0.11409
G1 F5760
G1 X89.798 Y157.495 E-0.11409
G1 F5760
G1 X89.921 Y157.198 E-0.11148
G1 F5760
G1 X90.124 Y156.930 E-0.11638
G1 F5760
G1 X90.385 Y156.729 E-0.11432
G1 F5760
G1 X90.524 Y156.672 E-0.05186
G1 E-0.04000 F2100.00000
G1 X90.868 Y151.861 F7200.000
G1 E0.80000 F2100.00000
G1 F840
G1 X90.429 Y151.803 E0.01388
G1 X90.022 Y151.634 E0.01382
G1 X89.672 Y151.366 E0.01382
G1 X89.404 Y151.016 E0.01382
G1 X89.235 Y150.609 E0.01382
G1 X89.178 Y150.172 E0.01382
G1 X89.235 Y149.735 E0.01382
G1 X89.400 Y149.336 E0.01354
G1 X89.671 Y148.979 E0.01404
G1 X90.022 Y148.709 E0.01388
G1 X90.429 Y148.541 E0.01382
G1 X90.857 Y148.484 E0.01354
G1 X91.302 Y148.540 E0.01404
G1 X91.711 Y148.709 E0.01388
G1 X92.060 Y148.978 E0.01382
G1 X92.329 Y149.327 E0.01382
G1 X92.498 Y149.735 E0.01382
G1 X92.555 Y150.172 E0.01382
G1 X92.498 Y150.609 E0.01382
G1 X92.329 Y151.016 E0.01382
G1 X92.060 Y151.366 E0.01382
G1 X91.711 Y151.634 E0.01382
G1 X91.312 Y151.799 E0.01354
G1 X90.928 Y151.853 E0.01216
G1 X90.876 Y151.479 F7200.000
G1 F840
G1 X90.528 Y151.436 E0.01101
G1 X90.212 Y151.305 E0.01071
G1 X89.941 Y151.097 E0.01071
G1 X89.733 Y150.826 E0.01071
G1 X89.603 Y150.510 E0.01071
G1 X89.558 Y150.172 E0.01071
G1 X89.603 Y149.833 E0.01071
G1 X89.730 Y149.525 E0.01046
G1 X89.941 Y149.247 E0.01093
G1 X90.212 Y149.039 E0.01073
G1 X90.528 Y148.908 E0.01071
G1 X90.859 Y148.864 E0.01046
G1 X91.204 Y148.908 E0.01093
G1 X91.521 Y149.039 E0.01073
G1 X91.792 Y149.247 E0.01071
G1 X91.999 Y149.518 E0.01071
G1 X92.130 Y149.833 E0.01071
G1 X92.175 Y150.172 E0.01071
G1 X92.130 Y150.510 E0.01071
G1 X91.999 Y150.826 E0.01071
G1 X91.792 Y151.097 E0.01071
G1 X91.521 Y151.305 E0.01071
G1 X91.212 Y151.433 E0.01046
G1 X90.935 Y151.471 E0.00876
G1 X90.702 Y151.784 F7200.000
G1 F5760
G1 X90.528 Y151.436 E-0.14177
G1 F5760
G1 X90.212 Y151.305 E-0.11830
G1 F5760
G1 X89.941 Y151.097 E-0.11830
G1 F5760
G1 X89.733 Y150.826 E-0.11830
G1 F5760
G1 X89.603 Y150.510 E-0.11830
G1 F5760
G1 X89.558 Y150.172 E-0.11830
G1 F5760
G1 X89.568 Y150.095 E-0.02672
G1 E-0.04000 F2100.00000
G1 X97.484 Y146.573 F7200.000
G1 E0.80000 F2100.00000
G1 F840
G1 X97.267 Y146.050 E0.01774
G1 X97.193 Y145.489 E0.01774
G1 X97.267 Y144.928 E0.01774
G1 X97.484 Y144.406 E0.01774
G1 X97.828 Y143.957 E0.01774
G1 X98.277 Y143.612 E0.01774
G1 X98.800 Y143.396 E0.01774
G1 X99.348 Y143.324 E0.01736
G1 X99.920 Y143.395 E0.01805
G1 X100.444 Y143.612 E0.01780
G1 X100.893 Y143.957 E0.01774
G1 X101.237 Y144.406 E0.01774
G1 X101.449 Y144.917 E0.01736
G1 X101.528 Y145.487 E0.01805
G1 X101.454 Y146.050 E0.01780
G1 X101.237 Y146.573 E0.01774
G1 X100.893 Y147.021 E0.01774
G1 X100.444 Y147.366 E0.01774
G1 X99.921 Y147.582 E0.01774
G1 X99.361 Y147.656 E0.01774
G1 X98.800 Y147.582 E0.01774
G1 X98.288 Y147.371 E0.01736
G1 X97.829 Y147.023 E0.01805
G1 X97.520 Y146.620 E0.01592
G1 X97.819 Y146.391 F7200.000
G1 F840
G1 X97.635 Y145.952 E0.01494
G1 X97.574 Y145.489 E0.01462
G1 X97.635 Y145.027 E0.01462
G1 X97.813 Y144.596 E0.01463
G1 X98.097 Y144.226 E0.01462
G1 X98.467 Y143.942 E0.01462
G1 X98.898 Y143.763 E0.01462
G1 X99.350 Y143.704 E0.01428
G1 X99.822 Y143.763 E0.01494
G1 X100.254 Y143.942 E0.01465
G1 X100.624 Y144.226 E0.01462
G1 X100.908 Y144.596 E0.01462
G1 X101.082 Y145.017 E0.01428
G1 X101.147 Y145.488 E0.01494
G1 X101.086 Y145.952 E0.01465
G1 X100.908 Y146.382 E0.01463
G1 X100.624 Y146.753 E0.01462
G1 X100.254 Y147.036 E0.01463
G1 X99.823 Y147.215 E0.01462
G1 X99.361 Y147.276 E0.01463
G1 X98.898 Y147.215 E0.01462
G1 X98.477 Y147.041 E0.01428
G1 X98.098 Y146.753 E0.01494
G1 X97.856 Y146.438 E0.01244
G1 X97.419 Y146.393 F7200.000
G1 F5760
G1 X97.635 Y145.952 E-0.18520
G1 F5760
G1 X97.574 Y145.489 E-0.16155
G1 F5760
G1 X97.635 Y145.027 E-0.16155
G1 F5760
G1 X97.813 Y144.596 E-0.16156
G1 F5760
G1 X97.972 Y144.389 E-0.09014
G1 E-0.04000 F2100.00000
G1 X88.623 Y133.014 F7200.000
G1 E0.80000 F2100.00000
G1 F840
G1 X96.792 Y141.182 E0.36219
G1 X92.041 Y145.933 E0.21065
G1 X83.873 Y137.764 E0.36219
G1 X88.581 Y133.056 E0.20877
G1 X88.623 Y133.547 F7200.000
G1 F840
G1 X96.258 Y141.182 E0.33855
G1 X92.041 Y145.399 E0.18700
G1 X84.406 Y137.764 E0.33855
G1 X88.581 Y133.589 E0.18512
G1 X88.790 Y133.183 F7200.000
G1 F5760
G1 X90.141 Y135.132 E-0.76000
G1 E-0.04000 F2100.00000
G1 X81.033 Y138.125 F7200.000
G1 E0.80000 F2100.00000
G1 F840
G1 X81.202 Y138.533 E0.01386
G1 X81.260 Y138.972 E0.01386
G1 X81.202 Y139.410 E0.01386
G1 X81.033 Y139.818 E0.01386
G1 X80.764 Y140.169 E0.01386
G1 X80.413 Y140.438 E0.01386
G1 X80.005 Y140.607 E0.01386
G1 X79.566 Y140.665 E0.01386
G1 X79.128 Y140.607 E0.01386
G1 X78.720 Y140.438 E0.01386
G1 X78.369 Y140.169 E0.01386
G1 X78.100 Y139.818 E0.01386
G1 X77.931 Y139.410 E0.01386
G1 X77.873 Y138.972 E0.01386
G1 X77.931 Y138.533 E0.01386
G1 X78.100 Y138.125 E0.01386
G1 X78.369 Y137.774 E0.01386
G1 X78.720 Y137.505 E0.01386
G1 X79.128 Y137.336 E0.01386
G1 X79.557 Y137.280 E0.01358
G1 X80.003 Y137.335 E0.01408
G1 X80.413 Y137.505 E0.01392
G1 X80.764 Y137.774 E0.01386
G1 X80.996 Y138.078 E0.01198
G1 X80.697 Y138.307 F7200.000
G1 F840
G1 X80.835 Y138.632 E0.01106
G1 X80.879 Y138.972 E0.01075
G1 X80.835 Y139.312 E0.01075
G1 X80.703 Y139.628 E0.01075
G1 X80.495 Y139.900 E0.01075
G1 X80.223 Y140.109 E0.01075
G1 X79.906 Y140.240 E0.01075
G1 X79.566 Y140.285 E0.01075
G1 X79.227 Y140.240 E0.01075
G1 X78.910 Y140.109 E0.01075
G1 X78.638 Y139.900 E0.01075
G1 X78.429 Y139.628 E0.01075
G1 X78.298 Y139.312 E0.01075
G1 X78.253 Y138.972 E0.01075
G1 X78.298 Y138.632 E0.01075
G1 X78.429 Y138.315 E0.01075
G1 X78.638 Y138.043 E0.01075
G1 X78.910 Y137.835 E0.01075
G1 X79.227 Y137.704 E0.01075
G1 X79.559 Y137.660 E0.01050
G1 X79.906 Y137.703 E0.01096
G1 X80.223 Y137.835 E0.01077
G1 X80.495 Y138.043 E0.01075
G1 X80.661 Y138.259 E0.00854
G1 X81.050 Y138.305 F7200.000
G1 F5760
G1 X80.835 Y138.632 E-0.14239
G1 F5760
G1 X80.879 Y138.972 E-0.11871
G1 F5760
G1 X80.835 Y139.312 E-0.11871
G1 F5760
G1 X80.703 Y139.628 E-0.11871
G1 F5760
G1 X80.495 Y139.900 E-0.11871
G1 F5760
G1 X80.223 Y140.109 E-0.11871
G1 F5760
G1 X80.159 Y140.135 E-0.02405
G1 E-0.04000 F2100.00000
G1 X73.769 Y138.772 F7200.000
G1 E0.80000 F2100.00000
G1 F840
G1 X73.713 Y139.200 E0.01353
G1 X73.548 Y139.598 E0.01353
G1 X73.285 Y139.940 E0.01353
G1 X72.943 Y140.203 E0.01353
G1 X72.544 Y140.368 E0.01353
G1 X72.116 Y140.425 E0.01353
G1 X71.689 Y140.368 E0.01353
G1 X71.290 Y140.203 E0.01353
G1 X70.948 Y139.940 E0.01353
G1 X70.685 Y139.598 E0.01353
G1 X70.520 Y139.200 E0.01353
G1 X70.464 Y138.772 E0.01353
G1 X70.520 Y138.344 E0.01353
G1 X70.685 Y137.945 E0.01353
G1 X70.948 Y137.603 E0.01353
G1 X71.290 Y137.340 E0.01353
G1 X71.689 Y137.175 E0.01353
G1 X72.108 Y137.120 E0.01325
G1 X72.542 Y137.175 E0.01374
G1 X72.943 Y137.340 E0.01359
G1 X73.285 Y137.603 E0.01353
G1 X73.548 Y137.945 E0.01353
G1 X73.713 Y138.344 E0.01353
G1 X73.761 Y138.712 E0.01165
G1 X73.387 Y138.761 F7200.000
G1 F840
G1 X73.345 Y139.101 E0.01073
G1 X73.218 Y139.408 E0.01042
G1 X73.016 Y139.672 E0.01041
G1 X72.753 Y139.874 E0.01042
G1 X72.446 Y140.001 E0.01042
G1 X72.116 Y140.044 E0.01042
G1 X71.787 Y140.001 E0.01042
G1 X71.480 Y139.874 E0.01042
G1 X71.217 Y139.672 E0.01042
G1 X71.014 Y139.408 E0.01042
G1 X70.887 Y139.101 E0.01042
G1 X70.844 Y138.772 E0.01042
G1 X70.887 Y138.442 E0.01042
G1 X71.014 Y138.136 E0.01042
G1 X71.217 Y137.872 E0.01042
G1 X71.480 Y137.670 E0.01042
G1 X71.787 Y137.543 E0.01042
G1 X72.109 Y137.500 E0.01018
G1 X72.445 Y137.542 E0.01063
G1 X72.753 Y137.670 E0.01044
G1 X73.016 Y137.872 E0.01042
G1 X73.218 Y138.136 E0.01042
G1 X73.345 Y138.442 E0.01042
G1 X73.380 Y138.702 E0.00821
G1 X73.685 Y138.931 F7200.000
G1 F5760
G1 X73.345 Y139.101 E-0.13874
G1 F5760
G1 X73.218 Y139.408 E-0.11505
G1 F5760
G1 X73.016 Y139.672 E-0.11505
G1 F5760
G1 X72.753 Y139.874 E-0.11505
G1 F5760
G1 X72.446 Y140.001 E-0.11505
G1 F5760
G1 X72.116 Y140.044 E-0.11505
G1 F5760
G1 X71.985 Y140.027 E-0.04600
G1 E-0.04000 F2100.00000
G1 X67.560 Y143.278 F7200.000
G1 E0.80000 F2100.00000
G1 F840
G1 X67.818 Y143.613 E0.01324
G1 X67.979 Y144.003 E0.01324
G1 X68.034 Y144.422 E0.01324
G1 X67.979 Y144.841 E0.01324
G1 X67.818 Y145.231 E0.01324
G1 X67.560 Y145.566 E0.01324
G1 X67.225 Y145.823 E0.01324
G1 X66.835 Y145.985 E0.01324
G1 X66.416 Y146.040 E0.01324
G1 X65.998 Y145.985 E0.01324
G1 X65.607 Y145.823 E0.01324
G1 X65.272 Y145.566 E0.01324
G1 X65.015 Y145.231 E0.01324
G1 X64.853 Y144.841 E0.01324
G1 X64.798 Y144.422 E0.01324
G1 X64.853 Y144.003 E0.01324
G1 X65.015 Y143.613 E0.01324
G1 X65.272 Y143.278 E0.01324
G1 X65.607 Y143.020 E0.01324
G1 X65.998 Y142.859 E0.01324
G1 X66.416 Y142.804 E0.01324
G1 X66.835 Y142.859 E0.01325
G1 X67.225 Y143.020 E0.01325
G1 X67.513 Y143.241 E0.01136
G1 X67.283 Y143.540 F7200.000
G1 F840
G1 X67.488 Y143.803 E0.01044
G1 X67.612 Y144.101 E0.01013
G1 X67.654 Y144.422 E0.01013
G1 X67.612 Y144.742 E0.01013
G1 X67.488 Y145.041 E0.01013
G1 X67.292 Y145.297 E0.01013
G1 X67.035 Y145.494 E0.01013
G1 X66.737 Y145.617 E0.01013
G1 X66.416 Y145.659 E0.01013
G1 X66.096 Y145.617 E0.01013
G1 X65.797 Y145.494 E0.01013
G1 X65.541 Y145.297 E0.01013
G1 X65.344 Y145.041 E0.01013
G1 X65.221 Y144.742 E0.01013
G1 X65.179 Y144.422 E0.01013
G1 X65.221 Y144.101 E0.01013
G1 X65.344 Y143.803 E0.01013
G1 X65.541 Y143.547 E0.01013
G1 X65.797 Y143.350 E0.01013
G1 X66.096 Y143.226 E0.01013
G1 X66.416 Y143.184 E0.01013
G1 X66.737 Y143.226 E0.01014
G1 X67.035 Y143.350 E0.01013
G1 X67.236 Y143.504 E0.00792
G1 X67.605 Y143.452 F7200.000
G1 F5760
G1 X67.488 Y143.803 E-0.13559
G1 F5760
G1 X67.612 Y144.101 E-0.11192
G1 F5760
G1 X67.654 Y144.422 E-0.11191
G1 F5760
G1 X67.612 Y144.742 E-0.11191
G1 F5760
G1 X67.488 Y145.041 E-0.11192
G1 F5760
G1 X67.292 Y145.297 E-0.11191
G1 F5760
G1 X67.143 Y145.411 E-0.06485
G1 E-0.04000 F2100.00000
G1 X82.446 Y131.689 F7200.000
G1 E0.80000 F2100.00000
G1 F840
G1 X82.229 Y131.166 E0.01774
G1 X82.155 Y130.605 E0.01774
G1 X82.229 Y130.044 E0.01774
G1 X82.446 Y129.521 E0.01774
G1 X82.790 Y129.073 E0.01774
G1 X83.239 Y128.728 E0.01774
G1 X83.762 Y128.512 E0.01774
G1 X84.310 Y128.440 E0.01736
G1 X84.882 Y128.511 E0.01805
G1 X85.406 Y128.728 E0.01780
G1 X85.855 Y129.073 E0.01774
G1 X86.199 Y129.521 E0.01774
G1 X86.416 Y130.044 E0.01774
G1 X86.490 Y130.605 E0.01774
G1 X86.416 Y131.166 E0.01774
G1 X86.204 Y131.677 E0.01736
G1 X85.856 Y132.136 E0.01805
G1 X85.406 Y132.482 E0.01780
G1 X84.883 Y132.698 E0.01774
G1 X84.323 Y132.772 E0.01774
G1 X83.762 Y132.698 E0.01774
G1 X83.239 Y132.482 E0.01774
G1 X82.790 Y132.137 E0.01774
G1 X82.482 Y131.736 E0.01586
G1 X82.781 Y131.507 F7200.000
G1 F840
