; generated by Slic3r 1.35.5-prusa3d-win64 on 2017-07-09 at 23:47:00

; 

; external perimeters extrusion width = 0.45mm
; perimeters extrusion width = 0.45mm
; infill extrusion width = 0.45mm
; solid infill extrusion width = 0.45mm
; top infill extrusion width = 0.40mm
; first layer extrusion width = 0.42mm

M107
M115 U3.0.11 ; tell printer latest fw version
M83  ; extruder relative mode
M104 S200 ; set extruder temp
M140 S55 ; set bed temp
M190 S55 ; wait for bed temp
M109 S200 ; wait for extruder temp
G28 W ; home all without mesh bed level
G80 ; mesh bed leveling
G1 Y-3.0 F1000.0 ; go outside pritn area
G1 X60.0 E9.0  F1000.0 ; intro line
G1 X100.0 E12.5  F1000.0 ; intro line
; Filament gcode

G21 ; set units to millimeters
G90 ; use absolute coordinates
M83 ; use relative distances for extrusion
G1 E-0.80000 F2100.00000
G1 Z0.200 F7200.000
G1 X83.256 Y95.286 F7200.000
G1 E0.80000 F2100.00000
M204 S1000
G1 F2100
G1 X83.480 Y94.653 E0.02107
G1 X83.873 Y94.107 E0.02107
G1 X95.274 Y82.793 E0.50362
G1 X95.889 Y82.505 E0.02130
G1 X96.564 Y82.401 E0.02142
G1 X153.497 Y82.401 E1.78510
G1 X154.389 Y82.576 E0.02849
G1 X155.152 Y83.076 E0.02860
G1 X166.138 Y94.137 E0.48880
G1 X166.520 Y94.672 E0.02060
G1 X166.741 Y95.290 E0.02060
G1 X166.774 Y115.908 E0.64646
G1 X163.778 Y126.003 E0.33015
G1 X163.409 Y126.682 E0.02426
G1 X162.841 Y127.207 E0.02426
G1 X162.222 Y127.497 E0.02142
G1 X161.546 Y127.599 E0.02142
G1 X88.429 Y127.599 E2.29255
G1 X87.852 Y127.523 E0.01823
G1 X87.312 Y127.310 E0.01823
G1 X86.839 Y126.971 E0.01823
G1 X86.462 Y126.529 E0.01823
G1 X86.174 Y125.913 E0.02130
G1 X83.221 Y115.882 E0.32787
G1 X83.256 Y95.346 E0.64388
G1 F5760
G1 X83.480 Y94.653 E-0.25242
G1 F5760
G1 X83.873 Y94.107 E-0.23273
G1 F5760
G1 X84.436 Y93.548 E-0.27485
G1 E-0.04000 F2100.00000
G1 X104.766 Y97.244 F7200.000
G1 E0.80000 F2100.00000
G1 F1680
G1 X115.427 Y107.769 E0.46973
G1 X115.427 Y121.643 E0.43502
G1 X104.766 Y111.199 E0.46794
G1 X104.766 Y97.304 E0.43569
G1 X105.143 Y98.146 F7200.000
G1 F1680
G1 X115.050 Y107.927 E0.43650
G1 X115.050 Y120.746 E0.40194
G1 X105.143 Y111.041 E0.43484
G1 X105.143 Y98.206 E0.40243
G1 X105.520 Y99.048 F7200.000
G1 F1260
G1 X114.673 Y108.084 E0.40328
G1 X114.673 Y119.849 E0.36887
G1 X105.520 Y110.882 E0.40174
G1 X105.520 Y99.108 E0.36918
G1 X105.669 Y98.677 F7200.000
G1 F5760
G1 X107.087 Y100.644 E-0.76000
G1 E-0.04000 F2100.00000
G1 X102.917 Y97.256 F7200.000
G1 E0.80000 F2100.00000
G1 F1680
G1 X102.917 Y111.201 E0.43725
G1 X92.189 Y121.631 E0.46913
G1 X92.189 Y107.767 E0.43470
G1 X102.874 Y97.298 E0.46902
G1 X102.540 Y98.153 F7200.000
G1 F1680
G1 X102.540 Y111.042 E0.40412
G1 X92.566 Y120.739 E0.43615
G1 X92.566 Y107.925 E0.40175
G1 X102.497 Y98.195 E0.43592
G1 X102.163 Y99.051 F7200.000
G1 F1260
G1 X102.163 Y110.883 E0.37099
G1 X92.943 Y119.846 E0.40317
G1 X92.943 Y108.084 E0.36880
G1 X102.120 Y99.093 E0.40282
G1 X102.534 Y98.901 F7200.000
G1 F5760
G1 X102.128 Y101.287 E-0.76000
G1 E-0.04000 F2100.00000
G1 X95.474 Y98.957 F7200.000
G1 E0.80000 F2100.00000
G1 F840
G1 X95.419 Y99.474 E0.01631
G1 X95.259 Y99.969 E0.01631
G1 X94.999 Y100.420 E0.01631
G1 X94.651 Y100.806 E0.01631
G1 X94.230 Y101.112 E0.01631
G1 X93.755 Y101.323 E0.01631
G1 X93.246 Y101.432 E0.01631
G1 X92.726 Y101.432 E0.01631
G1 X92.217 Y101.323 E0.01631
G1 X91.742 Y101.112 E0.01631
G1 X91.321 Y100.806 E0.01631
G1 X90.973 Y100.420 E0.01631
G1 X90.713 Y99.969 E0.01631
G1 X90.552 Y99.474 E0.01631
G1 X90.498 Y98.957 E0.01631
G1 X90.552 Y98.440 E0.01631
G1 X90.713 Y97.945 E0.01631
G1 X90.973 Y97.495 E0.01631
G1 X91.321 Y97.108 E0.01631
G1 X91.742 Y96.802 E0.01631
G1 X92.217 Y96.591 E0.01631
G1 X92.726 Y96.483 E0.01631
G1 X93.246 Y96.483 E0.01631
G1 X93.755 Y96.591 E0.01631
G1 X94.230 Y96.802 E0.01631
G1 X94.651 Y97.108 E0.01631
G1 X94.999 Y97.495 E0.01631
G1 X95.259 Y97.945 E0.01631
G1 X95.419 Y98.440 E0.01631
G1 X95.468 Y98.898 E0.01443
G1 X95.092 Y98.937 F7200.000
G1 F840
G1 X95.049 Y99.396 E0.01445
G1 X94.912 Y99.815 E0.01382
G1 X94.692 Y100.197 E0.01382
G1 X94.397 Y100.524 E0.01382
G1 X94.040 Y100.784 E0.01382
G1 X93.637 Y100.963 E0.01382
G1 X93.206 Y101.054 E0.01382
G1 X92.765 Y101.054 E0.01383
G1 X92.334 Y100.963 E0.01382
G1 X91.931 Y100.783 E0.01382
G1 X91.575 Y100.524 E0.01382
G1 X91.280 Y100.197 E0.01382
G1 X91.059 Y99.815 E0.01382
G1 X90.923 Y99.396 E0.01382
G1 X90.877 Y98.957 E0.01382
G1 X90.923 Y98.519 E0.01383
G1 X91.059 Y98.099 E0.01382
G1 X91.280 Y97.717 E0.01382
G1 X91.575 Y97.390 E0.01382
G1 X91.931 Y97.131 E0.01382
G1 X92.334 Y96.951 E0.01382
G1 X92.765 Y96.860 E0.01382
G1 X93.206 Y96.860 E0.01383
G1 X93.637 Y96.951 E0.01382
G1 X94.040 Y97.131 E0.01382
G1 X94.397 Y97.390 E0.01382
G1 X94.692 Y97.718 E0.01382
G1 X94.912 Y98.099 E0.01382
G1 X95.049 Y98.519 E0.01382
G1 X95.086 Y98.877 E0.01130
G1 X94.715 Y98.957 F7200.000
G1 F840
G1 X94.678 Y99.317 E0.01134
G1 X94.566 Y99.661 E0.01134
G1 X94.385 Y99.974 E0.01134
G1 X94.143 Y100.243 E0.01134
G1 X93.851 Y100.455 E0.01134
G1 X93.520 Y100.602 E0.01134
G1 X93.167 Y100.677 E0.01134
G1 X92.805 Y100.677 E0.01134
G1 X92.451 Y100.602 E0.01134
G1 X92.121 Y100.455 E0.01134
G1 X91.828 Y100.243 E0.01134
G1 X91.586 Y99.974 E0.01134
G1 X91.406 Y99.661 E0.01134
G1 X91.294 Y99.317 E0.01134
G1 X91.256 Y98.957 E0.01134
G1 X91.294 Y98.597 E0.01134
G1 X91.406 Y98.254 E0.01134
G1 X91.586 Y97.940 E0.01134
G1 X91.828 Y97.672 E0.01134
G1 X92.121 Y97.459 E0.01134
G1 X92.451 Y97.312 E0.01134
G1 X92.805 Y97.237 E0.01134
G1 X93.167 Y97.237 E0.01134
G1 X93.520 Y97.312 E0.01134
G1 X93.851 Y97.459 E0.01134
G1 X94.143 Y97.672 E0.01134
G1 X94.385 Y97.940 E0.01134
G1 X94.566 Y98.254 E0.01134
G1 X94.678 Y98.598 E0.01134
G1 X94.709 Y98.898 E0.00946
G1 X95.029 Y99.138 F7200.000
G1 F5760
G1 X94.678 Y99.317 E-0.14564
G1 F5760
G1 X94.566 Y99.661 E-0.12524
G1 F5760
G1 X94.385 Y99.974 E-0.12525
G1 F5760
G1 X94.143 Y100.243 E-0.12525
G1 F5760
G1 X93.851 Y100.455 E-0.12525
G1 F5760
G1 X93.552 Y100.588 E-0.11338
G1 E-0.04000 F2100.00000
G1 X96.828 Y94.929 F7200.000
G1 E0.80000 F2100.00000
G1 F840
G1 X96.386 Y94.629 E0.01675
G1 X96.018 Y94.242 E0.01675
G1 X95.743 Y93.784 E0.01675
G1 X95.573 Y93.278 E0.01675
G1 X95.515 Y92.747 E0.01675
G1 X95.573 Y92.216 E0.01675
G1 X95.743 Y91.710 E0.01675
G1 X96.018 Y91.252 E0.01675
G1 X96.386 Y90.865 E0.01675
G1 X96.828 Y90.565 E0.01675
G1 X97.324 Y90.367 E0.01675
G1 X97.842 Y90.282 E0.01645
G1 X98.382 Y90.309 E0.01697
G1 X98.899 Y90.453 E0.01682
G1 X99.371 Y90.703 E0.01675
G1 X99.778 Y91.048 E0.01675
G1 X100.101 Y91.474 E0.01675
G1 X100.325 Y91.958 E0.01675
G1 X100.440 Y92.480 E0.01675
G1 X100.440 Y93.014 E0.01675
G1 X100.325 Y93.536 E0.01675
G1 X100.101 Y94.020 E0.01675
G1 X99.778 Y94.445 E0.01675
G1 X99.371 Y94.791 E0.01675
G1 X98.899 Y95.041 E0.01675
G1 X98.384 Y95.184 E0.01675
G1 X97.851 Y95.213 E0.01675
G1 X97.324 Y95.127 E0.01675
G1 X96.883 Y94.951 E0.01486
G1 X97.023 Y94.601 F7200.000
G1 F840
G1 X96.631 Y94.340 E0.01476
G1 X96.320 Y94.012 E0.01417
G1 X96.087 Y93.625 E0.01417
G1 X95.943 Y93.196 E0.01417
G1 X95.894 Y92.747 E0.01417
G1 X95.943 Y92.298 E0.01417
G1 X96.087 Y91.869 E0.01417
G1 X96.320 Y91.482 E0.01417
G1 X96.631 Y91.154 E0.01417
G1 X97.005 Y90.900 E0.01417
G1 X97.425 Y90.733 E0.01417
G1 X97.863 Y90.661 E0.01390
G1 X98.321 Y90.684 E0.01439
G1 X98.758 Y90.805 E0.01422
G1 X99.158 Y91.017 E0.01417
G1 X99.502 Y91.309 E0.01417
G1 X99.776 Y91.669 E0.01417
G1 X99.966 Y92.079 E0.01417
G1 X100.063 Y92.521 E0.01417
G1 X100.063 Y92.973 E0.01417
G1 X99.966 Y93.414 E0.01417
G1 X99.776 Y93.825 E0.01417
G1 X99.502 Y94.185 E0.01417
G1 X99.158 Y94.477 E0.01417
G1 X98.758 Y94.689 E0.01417
G1 X98.323 Y94.810 E0.01417
G1 X97.871 Y94.834 E0.01417
G1 X97.425 Y94.761 E0.01417
G1 X97.079 Y94.623 E0.01170
G1 X97.183 Y94.259 F7200.000
G1 F840
G1 X96.877 Y94.051 E0.01160
G1 X96.622 Y93.783 E0.01160
G1 X96.432 Y93.465 E0.01160
G1 X96.313 Y93.115 E0.01160
G1 X96.273 Y92.747 E0.01160
G1 X96.313 Y92.379 E0.01160
G1 X96.432 Y92.028 E0.01160
G1 X96.622 Y91.711 E0.01160
G1 X96.877 Y91.443 E0.01160
G1 X97.183 Y91.235 E0.01160
G1 X97.527 Y91.098 E0.01160
G1 X97.884 Y91.039 E0.01136
G1 X98.261 Y91.058 E0.01182
G1 X98.618 Y91.157 E0.01162
G1 X98.945 Y91.331 E0.01160
G1 X99.227 Y91.570 E0.01160
G1 X99.451 Y91.865 E0.01160
G1 X99.606 Y92.201 E0.01160
G1 X99.686 Y92.562 E0.01160
G1 X99.686 Y92.932 E0.01160
G1 X99.606 Y93.293 E0.01160
G1 X99.451 Y93.629 E0.01160
G1 X99.227 Y93.924 E0.01160
G1 X98.945 Y94.163 E0.01160
G1 X98.618 Y94.337 E0.01160
G1 X98.261 Y94.436 E0.01160
G1 X97.892 Y94.456 E0.01160
G1 X97.527 Y94.396 E0.01160
G1 X97.239 Y94.281 E0.00972
G1 X96.869 Y94.455 F7200.000
G1 F5760
G1 X96.877 Y94.051 E-0.14852
G1 F5760
G1 X96.622 Y93.783 E-0.12816
G1 F5760
G1 X96.432 Y93.465 E-0.12816
G1 F5760
G1 X96.313 Y93.115 E-0.12816
G1 F5760
G1 X96.273 Y92.747 E-0.12816
G1 F5760
G1 X96.304 Y92.463 E-0.09882
G1 E-0.04000 F2100.00000
G1 X107.243 Y93.230 F7200.000
G1 E0.80000 F2100.00000
G1 F840
G1 X107.192 Y92.747 E0.01522
G1 X107.247 Y92.229 E0.01632
G1 X107.408 Y91.734 E0.01632
G1 X107.668 Y91.284 E0.01632
G1 X108.017 Y90.897 E0.01632
G1 X108.438 Y90.591 E0.01632
G1 X108.914 Y90.380 E0.01632
G1 X109.423 Y90.272 E0.01632
G1 X109.943 Y90.273 E0.01632
G1 X110.452 Y90.382 E0.01632
G1 X110.927 Y90.594 E0.01629
G1 X111.341 Y90.895 E0.01605
G1 X111.695 Y91.287 E0.01657
G1 X111.955 Y91.740 E0.01637
G1 X112.115 Y92.235 E0.01632
G1 X112.168 Y92.752 E0.01628
G1 X112.114 Y93.260 E0.01602
G1 X111.955 Y93.754 E0.01628
G1 X111.696 Y94.205 E0.01632
G1 X111.348 Y94.593 E0.01632
G1 X110.928 Y94.900 E0.01632
G1 X110.452 Y95.112 E0.01632
G1 X109.943 Y95.221 E0.01632
G1 X109.423 Y95.222 E0.01632
G1 X108.914 Y95.114 E0.01632
G1 X108.438 Y94.903 E0.01632
G1 X108.017 Y94.597 E0.01632
G1 X107.668 Y94.210 E0.01632
G1 X107.406 Y93.758 E0.01639
G1 X107.256 Y93.288 E0.01547
G1 X107.616 Y93.177 F7200.000
G1 F840
G1 X107.571 Y92.747 E0.01356
G1 X107.617 Y92.308 E0.01383
G1 X107.754 Y91.889 E0.01383
G1 X107.975 Y91.507 E0.01383
G1 X108.270 Y91.179 E0.01383
G1 X108.627 Y90.920 E0.01383
G1 X109.030 Y90.741 E0.01383
G1 X109.462 Y90.649 E0.01383
G1 X109.903 Y90.650 E0.01383
G1 X110.335 Y90.742 E0.01383
G1 X110.737 Y90.922 E0.01382
G1 X111.087 Y91.177 E0.01358
G1 X111.388 Y91.510 E0.01408
G1 X111.608 Y91.893 E0.01386
G1 X111.744 Y92.313 E0.01383
G1 X111.789 Y92.751 E0.01381
G1 X111.744 Y93.181 E0.01356
G1 X111.608 Y93.601 E0.01381
G1 X111.389 Y93.983 E0.01383
G1 X111.094 Y94.312 E0.01383
G1 X110.738 Y94.572 E0.01383
G1 X110.335 Y94.752 E0.01383
G1 X109.903 Y94.844 E0.01383
G1 X109.462 Y94.844 E0.01383
G1 X109.030 Y94.753 E0.01383
G1 X108.627 Y94.574 E0.01383
G1 X108.270 Y94.315 E0.01383
G1 X107.975 Y93.987 E0.01383
G1 X107.753 Y93.604 E0.01388
G1 X107.635 Y93.234 E0.01218
G1 X107.994 Y93.119 F7200.000
G1 F840
G1 X107.950 Y92.747 E0.01175
G1 X107.988 Y92.387 E0.01135
G1 X108.100 Y92.043 E0.01135
G1 X108.281 Y91.730 E0.01135
G1 X108.524 Y91.461 E0.01135
G1 X108.817 Y91.248 E0.01135
G1 X109.147 Y91.101 E0.01135
G1 X109.501 Y91.027 E0.01135
G1 X109.863 Y91.027 E0.01135
G1 X110.217 Y91.103 E0.01135
G1 X110.547 Y91.250 E0.01134
G1 X110.834 Y91.459 E0.01111
G1 X111.081 Y91.733 E0.01158
G1 X111.262 Y92.047 E0.01136
G1 X111.373 Y92.391 E0.01135
G1 X111.410 Y92.751 E0.01134
G1 X111.373 Y93.103 E0.01110
G1 X111.262 Y93.447 E0.01134
G1 X111.081 Y93.761 E0.01135
G1 X110.840 Y94.030 E0.01135
G1 X110.547 Y94.243 E0.01135
G1 X110.217 Y94.391 E0.01135
G1 X109.863 Y94.467 E0.01135
G1 X109.501 Y94.467 E0.01135
G1 X109.147 Y94.392 E0.01135
G1 X108.817 Y94.246 E0.01135
G1 X108.524 Y94.033 E0.01135
G1 X108.281 Y93.764 E0.01135
G1 X108.100 Y93.451 E0.01136
G1 X108.012 Y93.176 E0.00903
G1 X107.636 Y93.006 F7200.000
G1 F5760
G1 X107.950 Y92.747 E-0.15029
G1 F5760
G1 X107.988 Y92.387 E-0.12534
G1 F5760
G1 X108.100 Y92.043 E-0.12534
G1 F5760
G1 X108.281 Y91.730 E-0.12534
G1 F5760
G1 X108.524 Y91.461 E-0.12534
G1 F5760
G1 X108.777 Y91.277 E-0.10835
G1 E-0.04000 F2100.00000
G1 X112.567 Y97.478 F7200.000
G1 E0.80000 F2100.00000
G1 F840
G1 X112.919 Y97.087 E0.01650
G1 X113.345 Y96.777 E0.01650
G1 X113.826 Y96.563 E0.01650
G1 X114.340 Y96.454 E0.01650
G1 X114.866 Y96.454 E0.01650
G1 X115.381 Y96.563 E0.01650
G1 X115.862 Y96.777 E0.01650
G1 X116.288 Y97.087 E0.01650
G1 X116.640 Y97.478 E0.01650
G1 X116.903 Y97.933 E0.01650
G1 X117.065 Y98.434 E0.01650
G1 X117.120 Y98.957 E0.01650
G1 X117.065 Y99.480 E0.01650
G1 X116.903 Y99.981 E0.01650
G1 X116.640 Y100.437 E0.01650
G1 X116.288 Y100.828 E0.01650
G1 X115.862 Y101.137 E0.01650
G1 X115.381 Y101.351 E0.01650
G1 X114.866 Y101.460 E0.01650
G1 X114.340 Y101.460 E0.01650
G1 X113.826 Y101.351 E0.01650
G1 X113.345 Y101.137 E0.01650
G1 X112.919 Y100.828 E0.01650
G1 X112.567 Y100.437 E0.01650
G1 X112.304 Y99.981 E0.01650
G1 X112.141 Y99.480 E0.01650
G1 X112.086 Y98.957 E0.01650
G1 X112.141 Y98.434 E0.01650
G1 X112.304 Y97.933 E0.01650
G1 X112.537 Y97.530 E0.01461
G1 X112.864 Y97.718 F7200.000
G1 F840
G1 X113.173 Y97.368 E0.01464
G1 X113.534 Y97.106 E0.01401
G1 X113.943 Y96.924 E0.01401
G1 X114.380 Y96.831 E0.01401
G1 X114.827 Y96.831 E0.01401
G1 X115.264 Y96.924 E0.01401
G1 X115.672 Y97.106 E0.01401
G1 X116.034 Y97.368 E0.01401
G1 X116.333 Y97.701 E0.01401
G1 X116.556 Y98.088 E0.01401
G1 X116.695 Y98.513 E0.01401
G1 X116.741 Y98.957 E0.01401
G1 X116.695 Y99.402 E0.01401
G1 X116.556 Y99.827 E0.01401
G1 X116.333 Y100.214 E0.01401
G1 X116.034 Y100.546 E0.01401
G1 X115.672 Y100.809 E0.01401
G1 X115.264 Y100.990 E0.01401
G1 X114.827 Y101.083 E0.01401
G1 X114.380 Y101.083 E0.01401
G1 X113.943 Y100.990 E0.01401
G1 X113.534 Y100.809 E0.01401
G1 X113.173 Y100.546 E0.01401
G1 X112.874 Y100.214 E0.01401
G1 X112.650 Y99.827 E0.01401
G1 X112.512 Y99.402 E0.01401
G1 X112.465 Y98.957 E0.01401
G1 X112.512 Y98.513 E0.01401
G1 X112.650 Y98.088 E0.01401
G1 X112.834 Y97.770 E0.01149
G1 X113.180 Y97.924 F7200.000
G1 F840
G1 X113.427 Y97.650 E0.01153
G1 X113.724 Y97.434 E0.01153
G1 X114.060 Y97.284 E0.01153
G1 X114.420 Y97.208 E0.01153
G1 X114.787 Y97.208 E0.01153
G1 X115.147 Y97.284 E0.01153
G1 X115.483 Y97.434 E0.01153
G1 X115.780 Y97.650 E0.01153
G1 X116.026 Y97.923 E0.01153
G1 X116.210 Y98.242 E0.01153
G1 X116.324 Y98.591 E0.01153
G1 X116.362 Y98.957 E0.01153
G1 X116.324 Y99.323 E0.01153
G1 X116.210 Y99.672 E0.01153
G1 X116.026 Y99.991 E0.01153
G1 X115.780 Y100.264 E0.01153
G1 X115.483 Y100.480 E0.01153
G1 X115.147 Y100.630 E0.01153
G1 X114.787 Y100.706 E0.01153
G1 X114.420 Y100.706 E0.01153
G1 X114.060 Y100.630 E0.01153
G1 X113.724 Y100.480 E0.01153
G1 X113.427 Y100.264 E0.01153
G1 X113.181 Y99.991 E0.01153
G1 X112.997 Y99.672 E0.01153
G1 X112.883 Y99.323 E0.01153
G1 X112.845 Y98.957 E0.01153
G1 X112.883 Y98.591 E0.01153
G1 X112.997 Y98.242 E0.01153
G1 X113.150 Y97.975 E0.00964
G1 X113.031 Y97.588 F7200.000
G1 F5760
G1 X113.427 Y97.650 E-0.14778
G1 F5760
G1 X113.724 Y97.434 E-0.12735
G1 F5760
G1 X114.060 Y97.284 E-0.12734
G1 F5760
G1 X114.420 Y97.208 E-0.12735
G1 F5760
G1 X114.787 Y97.208 E-0.12735
G1 F5760
G1 X115.078 Y97.270 E-0.10283
G1 E-0.04000 F2100.00000
G1 X118.155 Y94.810 F7200.000
G1 E0.80000 F2100.00000
G1 F1680
G1 X118.155 Y107.000 E0.38220
G1 X121.036 Y107.000 E0.09032
G1 X121.036 Y114.655 E0.24003
G1 X118.155 Y114.655 E0.09032
G1 X118.155 Y124.258 E0.30108
G1 X113.909 Y124.258 E0.13314
G1 X106.126 Y116.574 E0.34291
G1 X101.355 Y116.574 E0.14961
G1 X93.769 Y124.258 E0.33855
G1 X89.412 Y124.258 E0.13660
G1 X89.412 Y114.674 E0.30049
G1 X86.550 Y114.674 E0.08973
G1 X86.550 Y106.962 E0.24180
G1 X89.412 Y106.962 E0.08973
G1 X89.412 Y94.791 E0.38161
G1 X87.916 Y94.791 E0.04689
G1 X96.502 Y86.220 E0.38039
G1 X96.502 Y87.173 E0.02990
G1 X111.140 Y87.173 E0.45895
G1 X111.140 Y86.207 E0.03029
G1 X119.684 Y94.810 E0.38015
G1 X118.215 Y94.810 E0.04604
G1 X118.532 Y95.187 F7200.000
G1 F1680
G1 X118.532 Y106.623 E0.35856
G1 X121.413 Y106.623 E0.09032
G1 X121.413 Y115.032 E0.26367
G1 X118.532 Y115.032 E0.09032
G1 X118.532 Y124.635 E0.30108
G1 X113.754 Y124.635 E0.14981
G1 X105.971 Y116.951 E0.34291
G1 X101.512 Y116.951 E0.13982
G1 X93.926 Y124.635 E0.33855
G1 X89.035 Y124.635 E0.15337
G1 X89.035 Y115.051 E0.30049
