; generated by Slic3r 1.35.5-prusa3d-win64 on 2017-07-11 at 04:34:17

; 

; external perimeters extrusion width = 0.45mm
; perimeters extrusion width = 0.45mm
; infill extrusion width = 0.45mm
; solid infill extrusion width = 0.45mm
; top infill extrusion width = 0.40mm
; first layer extrusion width = 0.42mm

M107
M115 U3.0.11 ; tell printer latest fw version
M83  ; extruder relative mode
M104 S200 ; set extruder temp
M140 S55 ; set bed temp
M190 S55 ; wait for bed temp
M109 S200 ; wait for extruder temp
G28 W ; home all without mesh bed level
G80 ; mesh bed leveling
G1 Y-3.0 F1000.0 ; go outside pritn area
G1 X60.0 E9.0  F1000.0 ; intro line
G1 X100.0 E12.5  F1000.0 ; intro line
; Filament gcode

G21 ; set units to millimeters
G90 ; use absolute coordinates
M83 ; use relative distances for extrusion
G1 E-0.80000 F2100.00000
G1 Z0.200 F7200.000
G1 X59.108 Y63.973 F7200.000
G1 E0.80000 F2100.00000
M204 S1000
G1 F2100
G1 X59.480 Y63.483 E0.01929
G1 X83.738 Y39.340 E1.07307
G1 X84.307 Y38.962 E0.02142
G1 X84.964 Y38.761 E0.02154
G1 X87.721 Y38.734 E0.08645
G1 X164.844 Y38.824 E2.41813
G1 X165.406 Y38.892 E0.01775
G1 X166.000 Y39.126 E0.02000
G1 X166.513 Y39.511 E0.02012
G1 X190.493 Y63.602 E1.06578
G1 X190.851 Y64.064 E0.01835
G1 X191.097 Y64.641 E0.01965
G1 X191.183 Y65.265 E0.01977
G1 X191.205 Y144.902 E2.49694
G1 X191.144 Y145.438 E0.01692
G1 X190.910 Y146.048 E0.02048
G1 X190.520 Y146.571 E0.02048
G1 X166.521 Y170.462 E1.06174
G1 X166.058 Y170.819 E0.01835
G1 X165.481 Y171.065 E0.01965
G1 X164.857 Y171.151 E0.01977
G1 X85.132 Y171.265 E2.49972
G1 X84.645 Y171.205 E0.01538
G1 X84.035 Y170.973 E0.02048
G1 X83.511 Y170.583 E0.02048
G1 X64.273 Y151.415 E0.85150
G1 X59.486 Y146.558 E0.21381
G1 X59.152 Y146.120 E0.01728
G1 X58.904 Y145.540 E0.01977
G1 X58.818 Y144.916 E0.01977
G1 X58.795 Y65.152 E2.50092
G1 X58.875 Y64.542 E0.01929
G1 X59.086 Y64.029 E0.01741
G1 F5760
G1 X59.480 Y63.483 E-0.23327
G1 F5760
G1 X60.558 Y62.410 E-0.52673
G1 E-0.04000 F2100.00000
G1 X163.296 Y162.316 F7200.000
G1 E0.80000 F2100.00000
G1 F840
G1 X163.634 Y162.056 E0.01337
G1 X164.028 Y161.893 E0.01337
G1 X164.450 Y161.838 E0.01336
G1 X164.873 Y161.893 E0.01338
G1 X165.267 Y162.056 E0.01337
G1 X165.606 Y162.316 E0.01337
G1 X165.865 Y162.654 E0.01337
G1 X166.028 Y163.048 E0.01337
G1 X166.084 Y163.471 E0.01337
G1 X166.028 Y163.894 E0.01337
G1 X165.865 Y164.288 E0.01337
G1 X165.606 Y164.626 E0.01337
G1 X165.267 Y164.886 E0.01337
G1 X164.873 Y165.049 E0.01337
G1 X164.451 Y165.104 E0.01337
G1 X164.028 Y165.049 E0.01337
G1 X163.634 Y164.886 E0.01337
G1 X163.296 Y164.626 E0.01337
G1 X163.036 Y164.288 E0.01337
G1 X162.873 Y163.894 E0.01337
G1 X162.817 Y163.471 E0.01337
G1 X162.873 Y163.048 E0.01337
G1 X163.036 Y162.654 E0.01337
G1 X163.259 Y162.364 E0.01149
G1 X163.558 Y162.593 F7200.000
G1 F840
G1 X163.824 Y162.386 E0.01057
G1 X164.126 Y162.261 E0.01026
G1 X164.450 Y162.218 E0.01025
G1 X164.775 Y162.261 E0.01026
G1 X165.077 Y162.386 E0.01026
G1 X165.337 Y162.585 E0.01026
G1 X165.536 Y162.844 E0.01026
G1 X165.661 Y163.147 E0.01026
G1 X165.704 Y163.471 E0.01026
G1 X165.661 Y163.795 E0.01026
G1 X165.536 Y164.098 E0.01026
G1 X165.337 Y164.357 E0.01026
G1 X165.077 Y164.556 E0.01026
G1 X164.775 Y164.681 E0.01026
G1 X164.451 Y164.724 E0.01026
G1 X164.126 Y164.681 E0.01026
G1 X163.824 Y164.556 E0.01026
G1 X163.564 Y164.357 E0.01026
G1 X163.365 Y164.098 E0.01026
G1 X163.240 Y163.795 E0.01026
G1 X163.197 Y163.471 E0.01026
G1 X163.240 Y163.147 E0.01026
G1 X163.365 Y162.844 E0.01026
G1 X163.522 Y162.641 E0.00805
G1 X163.469 Y162.268 F7200.000
G1 F5760
G1 X163.824 Y162.386 E-0.13698
G1 F5760
G1 X164.126 Y162.261 E-0.11330
G1 F5760
G1 X164.450 Y162.218 E-0.11321
G1 F5760
G1 X164.775 Y162.261 E-0.11338
G1 F5760
G1 X165.077 Y162.386 E-0.11332
G1 F5760
G1 X165.337 Y162.585 E-0.11330
G1 F5760
G1 X165.436 Y162.714 E-0.05651
G1 E-0.04000 F2100.00000
G1 X159.980 Y159.000 F7200.000
G1 E0.80000 F2100.00000
G1 F840
G1 X159.641 Y159.260 E0.01337
G1 X159.247 Y159.423 E0.01337
G1 X158.825 Y159.478 E0.01337
G1 X158.402 Y159.423 E0.01337
G1 X158.008 Y159.260 E0.01337
G1 X157.670 Y159.000 E0.01337
G1 X157.410 Y158.662 E0.01337
G1 X157.247 Y158.268 E0.01337
G1 X157.191 Y157.845 E0.01337
G1 X157.247 Y157.422 E0.01337
G1 X157.410 Y157.028 E0.01337
G1 X157.670 Y156.690 E0.01337
G1 X158.008 Y156.430 E0.01337
G1 X158.402 Y156.267 E0.01337
G1 X158.824 Y156.212 E0.01336
G1 X159.247 Y156.267 E0.01338
G1 X159.641 Y156.430 E0.01337
G1 X159.980 Y156.690 E0.01337
G1 X160.239 Y157.028 E0.01337
G1 X160.402 Y157.422 E0.01337
G1 X160.458 Y157.845 E0.01337
G1 X160.402 Y158.268 E0.01337
G1 X160.239 Y158.662 E0.01337
G1 X160.016 Y158.952 E0.01149
G1 X159.717 Y158.723 F7200.000
G1 F840
G1 X159.451 Y158.930 E0.01057
G1 X159.149 Y159.055 E0.01026
G1 X158.825 Y159.098 E0.01026
G1 X158.500 Y159.055 E0.01026
G1 X158.198 Y158.930 E0.01026
G1 X157.938 Y158.731 E0.01026
G1 X157.739 Y158.472 E0.01026
G1 X157.614 Y158.169 E0.01026
G1 X157.571 Y157.845 E0.01026
G1 X157.614 Y157.521 E0.01026
G1 X157.739 Y157.218 E0.01026
G1 X157.938 Y156.959 E0.01026
G1 X158.198 Y156.760 E0.01026
G1 X158.500 Y156.635 E0.01026
G1 X158.824 Y156.592 E0.01025
G1 X159.149 Y156.635 E0.01026
G1 X159.451 Y156.760 E0.01026
G1 X159.711 Y156.959 E0.01026
G1 X159.910 Y157.218 E0.01026
G1 X160.035 Y157.521 E0.01026
G1 X160.078 Y157.845 E0.01026
G1 X160.035 Y158.169 E0.01026
G1 X159.910 Y158.472 E0.01026
G1 X159.753 Y158.675 E0.00805
G1 X159.806 Y159.048 F7200.000
G1 F5760
G1 X159.451 Y158.930 E-0.13698
G1 F5760
G1 X159.149 Y159.055 E-0.11330
G1 F5760
G1 X158.825 Y159.098 E-0.11330
G1 F5760
G1 X158.500 Y159.055 E-0.11330
G1 F5760
G1 X158.198 Y158.930 E-0.11330
G1 F5760
G1 X157.938 Y158.731 E-0.11330
G1 F5760
G1 X157.839 Y158.602 E-0.05651
G1 E-0.04000 F2100.00000
G1 X127.518 Y163.127 F7200.000
G1 E0.80000 F2100.00000
G1 F840
G1 X127.433 Y163.775 E0.02048
G1 X127.183 Y164.378 E0.02048
G1 X126.786 Y164.896 E0.02048
G1 X126.267 Y165.294 E0.02048
G1 X125.664 Y165.543 E0.02048
G1 X125.017 Y165.629 E0.02048
G1 X124.369 Y165.543 E0.02048
G1 X123.766 Y165.294 E0.02048
G1 X123.248 Y164.896 E0.02048
G1 X122.850 Y164.378 E0.02048
G1 X122.605 Y163.787 E0.02007
G1 X122.515 Y163.130 E0.02078
G1 X122.600 Y162.480 E0.02057
G1 X122.850 Y161.876 E0.02048
G1 X123.248 Y161.358 E0.02048
G1 X123.766 Y160.961 E0.02048
G1 X124.369 Y160.711 E0.02048
G1 X125.004 Y160.627 E0.02007
G1 X125.661 Y160.709 E0.02078
G1 X126.267 Y160.961 E0.02057
G1 X126.786 Y161.358 E0.02048
G1 X127.183 Y161.876 E0.02048
G1 X127.433 Y162.480 E0.02048
G1 X127.510 Y163.068 E0.01860
G1 X127.137 Y163.117 F7200.000
G1 F840
G1 X127.066 Y163.676 E0.01768
G1 X126.854 Y164.188 E0.01736
G1 X126.517 Y164.627 E0.01736
G1 X126.077 Y164.964 E0.01736
G1 X125.566 Y165.176 E0.01736
G1 X125.017 Y165.248 E0.01736
G1 X124.468 Y165.176 E0.01736
G1 X123.956 Y164.964 E0.01736
G1 X123.517 Y164.627 E0.01736
G1 X123.180 Y164.188 E0.01736
G1 X122.972 Y163.687 E0.01699
G1 X122.895 Y163.129 E0.01767
G1 X122.968 Y162.578 E0.01742
G1 X123.180 Y162.066 E0.01736
G1 X123.517 Y161.627 E0.01736
G1 X123.956 Y161.290 E0.01736
G1 X124.468 Y161.078 E0.01736
G1 X125.005 Y161.007 E0.01699
G1 X125.564 Y161.077 E0.01767
G1 X126.077 Y161.290 E0.01742
G1 X126.517 Y161.627 E0.01736
G1 X126.854 Y162.066 E0.01736
G1 X127.066 Y162.578 E0.01736
G1 X127.129 Y163.057 E0.01516
G1 X126.755 Y163.107 F7200.000
G1 F840
G1 X126.698 Y163.578 E0.01488
G1 X126.524 Y163.998 E0.01425
G1 X126.248 Y164.358 E0.01425
G1 X125.887 Y164.635 E0.01425
G1 X125.467 Y164.809 E0.01425
G1 X125.017 Y164.868 E0.01425
G1 X124.566 Y164.809 E0.01425
G1 X124.146 Y164.635 E0.01425
G1 X123.786 Y164.358 E0.01425
G1 X123.509 Y163.998 E0.01425
G1 X123.339 Y163.588 E0.01392
G1 X123.276 Y163.128 E0.01455
G1 X123.335 Y162.676 E0.01427
G1 X123.509 Y162.257 E0.01425
G1 X123.786 Y161.896 E0.01425
G1 X124.146 Y161.619 E0.01425
G1 X124.566 Y161.445 E0.01425
G1 X125.006 Y161.387 E0.01392
G1 X125.467 Y161.445 E0.01455
G1 X125.887 Y161.619 E0.01427
G1 X126.248 Y161.896 E0.01425
G1 X126.524 Y162.257 E0.01425
G1 X126.698 Y162.676 E0.01425
G1 X126.747 Y163.047 E0.01172
G1 X127.103 Y163.304 F7200.000
G1 F5760
G1 X126.698 Y163.578 E-0.18456
G1 F5760
G1 X126.524 Y163.998 E-0.15741
G1 F5760
G1 X126.248 Y164.358 E-0.15742
G1 F5760
G1 X125.887 Y164.635 E-0.15742
G1 F5760
G1 X125.612 Y164.749 E-0.10320
G1 E-0.04000 F2100.00000
G1 X148.439 Y146.843 F7200.000
G1 E0.80000 F2100.00000
G1 F840
G1 X148.195 Y146.251 E0.02007
G1 X148.104 Y145.595 E0.02078
G1 X148.190 Y144.944 E0.02057
G1 X148.439 Y144.341 E0.02048
G1 X148.837 Y143.823 E0.02048
G1 X149.355 Y143.425 E0.02048
G1 X149.959 Y143.175 E0.02048
G1 X150.593 Y143.092 E0.02007
G1 X151.251 Y143.174 E0.02078
G1 X151.857 Y143.425 E0.02057
G1 X152.375 Y143.823 E0.02048
G1 X152.772 Y144.341 E0.02048
G1 X153.017 Y144.932 E0.02007
G1 X153.108 Y145.589 E0.02078
G1 X153.022 Y146.239 E0.02057
G1 X152.772 Y146.843 E0.02048
G1 X152.375 Y147.361 E0.02048
G1 X151.857 Y147.758 E0.02048
G1 X151.266 Y148.003 E0.02007
G1 X150.609 Y148.094 E0.02078
G1 X149.958 Y148.008 E0.02057
G1 X149.355 Y147.758 E0.02048
G1 X148.837 Y147.361 E0.02048
G1 X148.476 Y146.890 E0.01859
G1 X148.775 Y146.661 F7200.000
G1 F840
G1 X148.561 Y146.152 E0.01731
G1 X148.484 Y145.594 E0.01767
G1 X148.557 Y145.043 E0.01742
G1 X148.769 Y144.531 E0.01736
G1 X149.106 Y144.092 E0.01736
G1 X149.545 Y143.755 E0.01736
G1 X150.057 Y143.543 E0.01736
G1 X150.594 Y143.472 E0.01699
G1 X151.153 Y143.542 E0.01767
G1 X151.667 Y143.755 E0.01742
G1 X152.106 Y144.092 E0.01736
G1 X152.443 Y144.531 E0.01736
G1 X152.650 Y145.032 E0.01699
G1 X152.728 Y145.590 E0.01767
G1 X152.655 Y146.141 E0.01742
G1 X152.443 Y146.652 E0.01736
G1 X152.106 Y147.092 E0.01736
G1 X151.667 Y147.429 E0.01736
G1 X151.166 Y147.636 E0.01699
G1 X150.608 Y147.713 E0.01767
G1 X150.057 Y147.641 E0.01742
G1 X149.545 Y147.429 E0.01736
G1 X149.106 Y147.092 E0.01736
G1 X148.812 Y146.708 E0.01516
G1 X149.111 Y146.479 F7200.000
G1 F840
G1 X148.928 Y146.052 E0.01454
G1 X148.865 Y145.592 E0.01455
G1 X148.924 Y145.141 E0.01427
G1 X149.098 Y144.721 E0.01425
G1 X149.375 Y144.361 E0.01425
G1 X149.735 Y144.084 E0.01425
G1 X150.155 Y143.910 E0.01425
G1 X150.595 Y143.852 E0.01392
G1 X151.056 Y143.910 E0.01455
G1 X151.476 Y144.084 E0.01427
G1 X151.837 Y144.361 E0.01425
G1 X152.114 Y144.721 E0.01425
G1 X152.284 Y145.131 E0.01392
G1 X152.347 Y145.591 E0.01455
G1 X152.288 Y146.042 E0.01427
G1 X152.114 Y146.462 E0.01425
G1 X151.837 Y146.823 E0.01425
G1 X151.476 Y147.100 E0.01425
G1 X151.066 Y147.269 E0.01392
G1 X150.607 Y147.333 E0.01455
G1 X150.155 Y147.273 E0.01427
G1 X149.735 Y147.100 E0.01425
G1 X149.375 Y146.823 E0.01425
G1 X149.147 Y146.526 E0.01172
G1 X148.711 Y146.482 F7200.000
G1 F5760
G1 X148.928 Y146.052 E-0.18087
G1 F5760
G1 X148.865 Y145.592 E-0.16076
G1 F5760
G1 X148.924 Y145.141 E-0.15765
G1 F5760
G1 X149.098 Y144.721 E-0.15742
G1 F5760
G1 X149.280 Y144.485 E-0.10330
G1 E-0.04000 F2100.00000
G1 X157.075 Y149.757 F7200.000
G1 E0.80000 F2100.00000
G1 F840
G1 X157.276 Y149.271 E0.01648
G1 X157.596 Y148.854 E0.01648
G1 X158.013 Y148.534 E0.01648
G1 X158.499 Y148.333 E0.01648
G1 X159.020 Y148.265 E0.01647
G1 X159.541 Y148.333 E0.01649
G1 X160.027 Y148.534 E0.01649
G1 X160.444 Y148.854 E0.01648
G1 X160.764 Y149.271 E0.01648
G1 X160.965 Y149.757 E0.01648
G1 X161.034 Y150.278 E0.01648
G1 X160.965 Y150.800 E0.01648
G1 X160.764 Y151.285 E0.01648
G1 X160.444 Y151.702 E0.01648
G1 X160.027 Y152.022 E0.01648
G1 X159.541 Y152.224 E0.01648
G1 X159.020 Y152.292 E0.01648
G1 X158.499 Y152.224 E0.01648
G1 X158.013 Y152.022 E0.01648
G1 X157.596 Y151.702 E0.01648
G1 X157.276 Y151.285 E0.01648
G1 X157.075 Y150.800 E0.01648
G1 X157.006 Y150.278 E0.01648
G1 X157.067 Y149.817 E0.01460
G1 X157.441 Y149.866 F7200.000
G1 F840
G1 X157.606 Y149.462 E0.01368
G1 X157.865 Y149.123 E0.01337
G1 X158.203 Y148.864 E0.01337
G1 X158.597 Y148.701 E0.01337
G1 X159.020 Y148.645 E0.01336
G1 X159.443 Y148.701 E0.01338
G1 X159.837 Y148.864 E0.01337
G1 X160.175 Y149.123 E0.01337
G1 X160.435 Y149.462 E0.01337
G1 X160.598 Y149.856 E0.01337
G1 X160.654 Y150.278 E0.01337
G1 X160.598 Y150.701 E0.01337
G1 X160.435 Y151.095 E0.01337
G1 X160.175 Y151.433 E0.01337
G1 X159.837 Y151.693 E0.01337
G1 X159.443 Y151.856 E0.01337
G1 X159.020 Y151.912 E0.01337
G1 X158.597 Y151.856 E0.01337
G1 X158.203 Y151.693 E0.01337
G1 X157.865 Y151.433 E0.01337
G1 X157.606 Y151.095 E0.01337
G1 X157.442 Y150.701 E0.01337
G1 X157.387 Y150.278 E0.01337
G1 X157.433 Y149.925 E0.01116
G1 X157.810 Y149.954 F7200.000
G1 F840
G1 X157.935 Y149.652 E0.01026
G1 X158.134 Y149.392 E0.01026
G1 X158.394 Y149.193 E0.01026
G1 X158.696 Y149.068 E0.01026
G1 X159.020 Y149.025 E0.01025
G1 X159.344 Y149.068 E0.01026
G1 X159.647 Y149.193 E0.01026
G1 X159.906 Y149.392 E0.01026
G1 X160.105 Y149.652 E0.01026
G1 X160.231 Y149.954 E0.01026
G1 X160.273 Y150.278 E0.01026
G1 X160.231 Y150.603 E0.01026
G1 X160.105 Y150.905 E0.01026
G1 X159.906 Y151.164 E0.01026
G1 X159.647 Y151.364 E0.01026
G1 X159.345 Y151.489 E0.01026
G1 X159.020 Y151.531 E0.01026
G1 X158.696 Y151.489 E0.01026
G1 X158.394 Y151.364 E0.01026
G1 X158.134 Y151.164 E0.01026
G1 X157.935 Y150.905 E0.01026
G1 X157.810 Y150.603 E0.01026
G1 X157.767 Y150.278 E0.01026
G1 X157.802 Y150.014 E0.00838
G1 X157.578 Y149.723 F7200.000
G1 F5760
G1 X157.935 Y149.652 E-0.13348
G1 F5760
G1 X158.134 Y149.392 E-0.11330
G1 F5760
G1 X158.394 Y149.193 E-0.11330
G1 F5760
G1 X158.696 Y149.068 E-0.11330
G1 F5760
G1 X159.020 Y149.025 E-0.11321
G1 F5760
G1 X159.344 Y149.068 E-0.11337
G1 F5760
G1 X159.505 Y149.134 E-0.06003
G1 E-0.04000 F2100.00000
G1 X168.848 Y140.467 F7200.000
G1 E0.80000 F2100.00000
G1 F840
G1 X168.528 Y140.049 E0.01648
G1 X168.327 Y139.564 E0.01648
G1 X168.259 Y139.043 E0.01648
G1 X168.327 Y138.521 E0.01648
G1 X168.528 Y138.036 E0.01648
G1 X168.848 Y137.619 E0.01648
G1 X169.265 Y137.299 E0.01648
G1 X169.751 Y137.097 E0.01648
G1 X170.272 Y137.029 E0.01647
G1 X170.793 Y137.097 E0.01649
G1 X171.279 Y137.299 E0.01649
G1 X171.696 Y137.619 E0.01648
G1 X172.016 Y138.036 E0.01648
G1 X172.217 Y138.521 E0.01648
G1 X172.286 Y139.043 E0.01648
G1 X172.217 Y139.564 E0.01648
G1 X172.016 Y140.049 E0.01648
G1 X171.696 Y140.467 E0.01648
G1 X171.279 Y140.787 E0.01648
G1 X170.793 Y140.988 E0.01648
G1 X170.272 Y141.056 E0.01648
G1 X169.751 Y140.988 E0.01648
G1 X169.265 Y140.787 E0.01648
G1 X168.896 Y140.503 E0.01460
G1 X169.126 Y140.204 F7200.000
G1 F840
G1 X168.858 Y139.859 E0.01368
G1 X168.695 Y139.465 E0.01337
G1 X168.639 Y139.043 E0.01337
G1 X168.695 Y138.620 E0.01337
G1 X168.858 Y138.226 E0.01337
G1 X169.117 Y137.888 E0.01337
G1 X169.456 Y137.628 E0.01337
G1 X169.850 Y137.465 E0.01337
G1 X170.272 Y137.409 E0.01336
G1 X170.695 Y137.465 E0.01338
G1 X171.089 Y137.628 E0.01337
G1 X171.427 Y137.888 E0.01337
G1 X171.687 Y138.226 E0.01337
G1 X171.850 Y138.620 E0.01337
G1 X171.906 Y139.043 E0.01337
G1 X171.850 Y139.465 E0.01337
G1 X171.687 Y139.859 E0.01337
G1 X171.427 Y140.198 E0.01337
G1 X171.089 Y140.457 E0.01337
G1 X170.695 Y140.620 E0.01337
G1 X170.272 Y140.676 E0.01337
G1 X169.850 Y140.620 E0.01337
G1 X169.456 Y140.457 E0.01337
G1 X169.173 Y140.240 E0.01116
G1 X169.386 Y139.929 F7200.000
G1 F840
G1 X169.187 Y139.669 E0.01026
G1 X169.062 Y139.367 E0.01026
G1 X169.019 Y139.043 E0.01026
G1 X169.062 Y138.718 E0.01026
G1 X169.187 Y138.416 E0.01026
G1 X169.386 Y138.157 E0.01026
G1 X169.646 Y137.957 E0.01026
G1 X169.948 Y137.832 E0.01026
G1 X170.272 Y137.790 E0.01025
G1 X170.597 Y137.832 E0.01026
G1 X170.899 Y137.957 E0.01026
G1 X171.158 Y138.157 E0.01026
G1 X171.357 Y138.416 E0.01026
G1 X171.483 Y138.718 E0.01026
G1 X171.525 Y139.043 E0.01026
G1 X171.483 Y139.367 E0.01026
G1 X171.357 Y139.669 E0.01026
G1 X171.158 Y139.929 E0.01026
G1 X170.899 Y140.128 E0.01026
G1 X170.597 Y140.253 E0.01026
G1 X170.272 Y140.296 E0.01026
G1 X169.948 Y140.253 E0.01026
G1 X169.646 Y140.128 E0.01026
G1 X169.434 Y139.965 E0.00838
G1 X169.070 Y140.013 F7200.000
G1 F5760
G1 X169.187 Y139.669 E-0.13348
G1 F5760
G1 X169.062 Y139.367 E-0.11330
G1 F5760
G1 X169.019 Y139.043 E-0.11330
G1 F5760
G1 X169.062 Y138.718 E-0.11330
G1 F5760
