; generated by Slic3r 1.35.5-prusa3d-win64 on 2017-07-10 at 01:48:50

; 

; external perimeters extrusion width = 0.45mm
; perimeters extrusion width = 0.45mm
; infill extrusion width = 0.45mm
; solid infill extrusion width = 0.45mm
; top infill extrusion width = 0.40mm
; first layer extrusion width = 0.42mm

M107
M115 U3.0.11 ; tell printer latest fw version
M83  ; extruder relative mode
M104 S200 ; set extruder temp
M140 S55 ; set bed temp
M190 S55 ; wait for bed temp
M109 S200 ; wait for extruder temp
G28 W ; home all without mesh bed level
G80 ; mesh bed leveling
G1 Y-3.0 F1000.0 ; go outside pritn area
G1 X60.0 E9.0  F1000.0 ; intro line
G1 X100.0 E12.5  F1000.0 ; intro line
; Filament gcode

G21 ; set units to millimeters
G90 ; use absolute coordinates
M83 ; use relative distances for extrusion
G1 E-0.80000 F2100.00000
G1 Z0.200 F7200.000
G1 X116.825 Y82.606 F7200.000
G1 E0.80000 F2100.00000
M204 S1000
G1 F2100
G1 X117.756 Y82.401 E0.02989
G1 X132.290 Y82.401 E0.45572
G1 X133.178 Y82.575 E0.02837
G1 X133.940 Y83.070 E0.02849
G1 X144.928 Y94.135 E0.48892
G1 X145.299 Y94.645 E0.01977
G1 X145.523 Y95.238 E0.01989
G1 X145.584 Y95.766 E0.01668
G1 X145.572 Y115.855 E0.62986
G1 X142.429 Y126.331 E0.34293
G1 X142.066 Y126.842 E0.01965
G1 X141.585 Y127.238 E0.01953
G1 X141.015 Y127.497 E0.01965
G1 X140.396 Y127.598 E0.01965
G1 X109.636 Y127.599 E0.96447
G1 X109.071 Y127.526 E0.01787
G1 X108.542 Y127.322 E0.01775
G1 X107.860 Y126.780 E0.02731
G1 X107.419 Y126.029 E0.02731
G1 X104.432 Y115.916 E0.33064
G1 X104.416 Y95.725 E0.63308
G1 X104.489 Y95.171 E0.01752
G1 X104.691 Y94.646 E0.01763
G1 X105.101 Y94.086 E0.02178
G1 X116.115 Y83.091 E0.48795
G1 X116.775 Y82.639 E0.02508
G1 F5760
G1 X117.756 Y82.401 E-0.34956
G1 F5760
G1 X118.941 Y82.401 E-0.41044
G1 E-0.04000 F2100.00000
G1 X125.973 Y97.244 F7200.000
G1 E0.80000 F2100.00000
G1 F1680
G1 X136.634 Y107.769 E0.46973
G1 X136.634 Y121.643 E0.43502
G1 X125.973 Y111.199 E0.46794
G1 X125.973 Y97.304 E0.43569
G1 X126.350 Y98.146 F7200.000
G1 F1680
G1 X136.257 Y107.927 E0.43650
G1 X136.257 Y120.746 E0.40194
G1 X126.350 Y111.041 E0.43484
G1 X126.350 Y98.206 E0.40243
G1 X126.727 Y99.048 F7200.000
G1 F1260
G1 X135.880 Y108.084 E0.40328
G1 X135.880 Y119.849 E0.36887
G1 X126.727 Y110.882 E0.40174
G1 X126.727 Y99.108 E0.36918
G1 X126.876 Y98.677 F7200.000
G1 F5760
G1 X128.294 Y100.644 E-0.76000
G1 E-0.04000 F2100.00000
G1 X124.124 Y97.256 F7200.000
G1 E0.80000 F2100.00000
G1 F1680
G1 X124.124 Y111.201 E0.43725
G1 X113.396 Y121.631 E0.46913
G1 X113.396 Y107.767 E0.43470
G1 X124.081 Y97.298 E0.46902
G1 X123.747 Y98.153 F7200.000
G1 F1680
G1 X123.747 Y111.042 E0.40412
G1 X113.773 Y120.739 E0.43615
G1 X113.773 Y107.925 E0.40175
G1 X123.704 Y98.195 E0.43592
G1 X123.370 Y99.051 F7200.000
G1 F1260
G1 X123.370 Y110.883 E0.37099
G1 X114.151 Y119.846 E0.40317
G1 X114.151 Y108.084 E0.36880
G1 X123.327 Y99.093 E0.40282
G1 X123.741 Y98.901 F7200.000
G1 F5760
G1 X123.335 Y101.287 E-0.76000
G1 E-0.04000 F2100.00000
G1 X116.681 Y98.957 F7200.000
G1 E0.80000 F2100.00000
G1 F840
G1 X116.626 Y99.474 E0.01631
G1 X116.466 Y99.969 E0.01631
G1 X116.206 Y100.420 E0.01631
G1 X115.858 Y100.806 E0.01631
G1 X115.437 Y101.112 E0.01631
G1 X114.962 Y101.323 E0.01631
G1 X114.453 Y101.432 E0.01631
G1 X113.933 Y101.432 E0.01631
G1 X113.424 Y101.323 E0.01631
G1 X112.949 Y101.112 E0.01631
G1 X112.528 Y100.806 E0.01631
G1 X112.180 Y100.420 E0.01631
G1 X111.920 Y99.969 E0.01631
G1 X111.759 Y99.474 E0.01631
G1 X111.705 Y98.957 E0.01631
G1 X111.759 Y98.440 E0.01631
G1 X111.920 Y97.945 E0.01631
G1 X112.180 Y97.495 E0.01631
G1 X112.528 Y97.108 E0.01631
G1 X112.949 Y96.802 E0.01631
G1 X113.424 Y96.591 E0.01631
G1 X113.933 Y96.483 E0.01631
G1 X114.453 Y96.483 E0.01631
G1 X114.962 Y96.591 E0.01631
G1 X115.437 Y96.802 E0.01631
G1 X115.858 Y97.108 E0.01631
G1 X116.206 Y97.495 E0.01631
G1 X116.466 Y97.945 E0.01631
G1 X116.626 Y98.440 E0.01631
G1 X116.675 Y98.898 E0.01443
G1 X116.300 Y98.937 F7200.000
G1 F840
G1 X116.256 Y99.396 E0.01445
G1 X116.119 Y99.815 E0.01382
G1 X115.899 Y100.197 E0.01382
G1 X115.604 Y100.524 E0.01382
G1 X115.247 Y100.784 E0.01382
G1 X114.844 Y100.963 E0.01382
G1 X114.413 Y101.054 E0.01382
G1 X113.972 Y101.054 E0.01383
G1 X113.541 Y100.963 E0.01382
G1 X113.138 Y100.783 E0.01382
G1 X112.782 Y100.524 E0.01382
G1 X112.487 Y100.197 E0.01382
G1 X112.266 Y99.815 E0.01382
G1 X112.130 Y99.396 E0.01382
G1 X112.084 Y98.957 E0.01382
G1 X112.130 Y98.519 E0.01383
G1 X112.266 Y98.099 E0.01382
G1 X112.487 Y97.717 E0.01382
G1 X112.782 Y97.390 E0.01382
G1 X113.138 Y97.131 E0.01382
G1 X113.541 Y96.951 E0.01382
G1 X113.972 Y96.860 E0.01382
G1 X114.413 Y96.860 E0.01383
G1 X114.845 Y96.951 E0.01382
G1 X115.247 Y97.131 E0.01382
G1 X115.604 Y97.390 E0.01382
G1 X115.899 Y97.718 E0.01382
G1 X116.119 Y98.099 E0.01382
G1 X116.256 Y98.519 E0.01382
G1 X116.293 Y98.877 E0.01130
G1 X115.922 Y98.957 F7200.000
G1 F840
G1 X115.885 Y99.317 E0.01134
G1 X115.773 Y99.661 E0.01134
G1 X115.592 Y99.974 E0.01134
G1 X115.350 Y100.243 E0.01134
G1 X115.058 Y100.455 E0.01134
G1 X114.727 Y100.602 E0.01134
G1 X114.374 Y100.677 E0.01134
G1 X114.012 Y100.677 E0.01134
G1 X113.658 Y100.602 E0.01134
G1 X113.328 Y100.455 E0.01134
G1 X113.035 Y100.243 E0.01134
G1 X112.793 Y99.974 E0.01134
G1 X112.613 Y99.661 E0.01134
G1 X112.501 Y99.317 E0.01134
G1 X112.463 Y98.957 E0.01134
G1 X112.501 Y98.597 E0.01134
G1 X112.613 Y98.254 E0.01134
G1 X112.793 Y97.940 E0.01134
G1 X113.035 Y97.672 E0.01134
G1 X113.328 Y97.459 E0.01134
G1 X113.658 Y97.312 E0.01134
G1 X114.012 Y97.237 E0.01134
G1 X114.374 Y97.237 E0.01134
G1 X114.727 Y97.312 E0.01134
G1 X115.058 Y97.459 E0.01134
G1 X115.350 Y97.672 E0.01134
G1 X115.592 Y97.940 E0.01134
G1 X115.773 Y98.254 E0.01134
G1 X115.885 Y98.598 E0.01134
G1 X115.916 Y98.898 E0.00946
G1 X116.236 Y99.138 F7200.000
G1 F5760
G1 X115.885 Y99.317 E-0.14564
G1 F5760
G1 X115.773 Y99.661 E-0.12524
G1 F5760
G1 X115.592 Y99.974 E-0.12525
G1 F5760
G1 X115.350 Y100.243 E-0.12525
G1 F5760
G1 X115.058 Y100.455 E-0.12525
G1 F5760
G1 X114.759 Y100.588 E-0.11338
G1 E-0.04000 F2100.00000
G1 X118.035 Y94.929 F7200.000
G1 E0.80000 F2100.00000
G1 F840
G1 X117.593 Y94.629 E0.01675
G1 X117.225 Y94.242 E0.01675
G1 X116.950 Y93.784 E0.01675
G1 X116.780 Y93.278 E0.01675
G1 X116.722 Y92.747 E0.01675
G1 X116.780 Y92.216 E0.01675
G1 X116.950 Y91.710 E0.01675
G1 X117.225 Y91.252 E0.01675
G1 X117.593 Y90.865 E0.01675
G1 X118.035 Y90.565 E0.01675
G1 X118.531 Y90.367 E0.01675
G1 X119.049 Y90.282 E0.01645
G1 X119.589 Y90.309 E0.01697
G1 X120.106 Y90.453 E0.01682
G1 X120.578 Y90.703 E0.01675
G1 X120.985 Y91.048 E0.01675
G1 X121.308 Y91.474 E0.01675
G1 X121.532 Y91.958 E0.01675
G1 X121.647 Y92.480 E0.01675
G1 X121.647 Y93.014 E0.01675
G1 X121.532 Y93.536 E0.01675
G1 X121.308 Y94.020 E0.01675
G1 X120.985 Y94.445 E0.01675
G1 X120.578 Y94.791 E0.01675
G1 X120.106 Y95.041 E0.01675
G1 X119.591 Y95.184 E0.01675
G1 X119.058 Y95.213 E0.01675
G1 X118.531 Y95.127 E0.01675
G1 X118.090 Y94.951 E0.01486
G1 X118.230 Y94.601 F7200.000
G1 F840
G1 X117.838 Y94.340 E0.01476
G1 X117.527 Y94.012 E0.01417
G1 X117.294 Y93.625 E0.01417
G1 X117.150 Y93.196 E0.01417
G1 X117.101 Y92.747 E0.01417
G1 X117.150 Y92.298 E0.01417
G1 X117.294 Y91.869 E0.01417
G1 X117.527 Y91.482 E0.01417
G1 X117.838 Y91.154 E0.01417
G1 X118.212 Y90.900 E0.01417
G1 X118.632 Y90.733 E0.01417
G1 X119.070 Y90.661 E0.01390
G1 X119.529 Y90.684 E0.01439
G1 X119.965 Y90.805 E0.01422
G1 X120.365 Y91.017 E0.01417
G1 X120.709 Y91.309 E0.01417
G1 X120.983 Y91.669 E0.01417
G1 X121.173 Y92.079 E0.01417
G1 X121.270 Y92.521 E0.01417
G1 X121.270 Y92.973 E0.01417
G1 X121.173 Y93.414 E0.01417
G1 X120.983 Y93.825 E0.01417
G1 X120.709 Y94.185 E0.01417
G1 X120.365 Y94.477 E0.01417
G1 X119.965 Y94.689 E0.01417
G1 X119.530 Y94.810 E0.01417
G1 X119.078 Y94.834 E0.01417
G1 X118.632 Y94.761 E0.01417
G1 X118.286 Y94.623 E0.01170
G1 X118.390 Y94.259 F7200.000
G1 F840
G1 X118.084 Y94.051 E0.01160
G1 X117.829 Y93.783 E0.01160
G1 X117.639 Y93.465 E0.01160
G1 X117.520 Y93.115 E0.01160
G1 X117.480 Y92.747 E0.01160
G1 X117.520 Y92.379 E0.01160
G1 X117.639 Y92.028 E0.01160
G1 X117.829 Y91.711 E0.01160
G1 X118.084 Y91.443 E0.01160
G1 X118.390 Y91.235 E0.01160
G1 X118.734 Y91.098 E0.01160
G1 X119.091 Y91.039 E0.01136
G1 X119.468 Y91.058 E0.01182
G1 X119.825 Y91.157 E0.01162
G1 X120.152 Y91.331 E0.01160
G1 X120.434 Y91.570 E0.01160
G1 X120.658 Y91.865 E0.01160
G1 X120.813 Y92.201 E0.01160
G1 X120.893 Y92.562 E0.01160
G1 X120.893 Y92.932 E0.01160
G1 X120.813 Y93.293 E0.01160
G1 X120.658 Y93.629 E0.01160
G1 X120.434 Y93.924 E0.01160
G1 X120.152 Y94.163 E0.01160
G1 X119.825 Y94.337 E0.01160
G1 X119.468 Y94.436 E0.01160
G1 X119.099 Y94.456 E0.01160
G1 X118.734 Y94.396 E0.01160
G1 X118.446 Y94.281 E0.00972
G1 X118.077 Y94.455 F7200.000
G1 F5760
G1 X118.084 Y94.051 E-0.14852
G1 F5760
G1 X117.829 Y93.783 E-0.12816
G1 F5760
G1 X117.639 Y93.465 E-0.12816
G1 F5760
G1 X117.520 Y93.115 E-0.12816
G1 F5760
G1 X117.480 Y92.747 E-0.12816
G1 F5760
G1 X117.511 Y92.463 E-0.09882
G1 E-0.04000 F2100.00000
G1 X128.450 Y93.230 F7200.000
G1 E0.80000 F2100.00000
G1 F840
G1 X128.399 Y92.747 E0.01522
G1 X128.454 Y92.229 E0.01632
G1 X128.615 Y91.734 E0.01632
G1 X128.875 Y91.284 E0.01632
G1 X129.224 Y90.897 E0.01632
G1 X129.645 Y90.591 E0.01632
G1 X130.121 Y90.380 E0.01632
G1 X130.630 Y90.272 E0.01632
G1 X131.150 Y90.273 E0.01632
G1 X131.659 Y90.382 E0.01632
G1 X132.134 Y90.594 E0.01629
G1 X132.548 Y90.895 E0.01605
G1 X132.902 Y91.287 E0.01657
G1 X133.162 Y91.740 E0.01637
G1 X133.322 Y92.235 E0.01632
G1 X133.375 Y92.752 E0.01628
G1 X133.321 Y93.260 E0.01602
G1 X133.162 Y93.754 E0.01628
G1 X132.903 Y94.205 E0.01632
G1 X132.555 Y94.593 E0.01632
G1 X132.135 Y94.900 E0.01632
G1 X131.659 Y95.112 E0.01632
G1 X131.150 Y95.221 E0.01632
G1 X130.630 Y95.222 E0.01632
G1 X130.121 Y95.114 E0.01632
G1 X129.645 Y94.903 E0.01632
G1 X129.224 Y94.597 E0.01632
G1 X128.875 Y94.210 E0.01632
G1 X128.613 Y93.758 E0.01639
G1 X128.463 Y93.288 E0.01547
G1 X128.824 Y93.177 F7200.000
G1 F840
G1 X128.778 Y92.747 E0.01356
G1 X128.824 Y92.308 E0.01383
G1 X128.961 Y91.889 E0.01383
G1 X129.182 Y91.507 E0.01383
G1 X129.477 Y91.179 E0.01383
G1 X129.834 Y90.920 E0.01383
G1 X130.237 Y90.741 E0.01383
G1 X130.669 Y90.649 E0.01383
G1 X131.110 Y90.650 E0.01383
G1 X131.542 Y90.742 E0.01383
G1 X131.944 Y90.922 E0.01382
G1 X132.294 Y91.177 E0.01358
G1 X132.595 Y91.510 E0.01408
G1 X132.815 Y91.893 E0.01386
G1 X132.951 Y92.313 E0.01383
G1 X132.996 Y92.751 E0.01381
G1 X132.951 Y93.181 E0.01356
G1 X132.815 Y93.601 E0.01381
G1 X132.596 Y93.983 E0.01383
G1 X132.301 Y94.312 E0.01383
G1 X131.945 Y94.572 E0.01383
G1 X131.542 Y94.752 E0.01383
G1 X131.110 Y94.844 E0.01383
G1 X130.669 Y94.844 E0.01383
G1 X130.237 Y94.753 E0.01383
G1 X129.834 Y94.574 E0.01383
G1 X129.477 Y94.315 E0.01383
G1 X129.182 Y93.987 E0.01383
G1 X128.960 Y93.604 E0.01388
G1 X128.842 Y93.234 E0.01218
G1 X129.201 Y93.119 F7200.000
G1 F840
G1 X129.157 Y92.747 E0.01175
G1 X129.195 Y92.387 E0.01135
G1 X129.307 Y92.043 E0.01135
G1 X129.488 Y91.730 E0.01135
G1 X129.731 Y91.461 E0.01135
G1 X130.024 Y91.248 E0.01135
G1 X130.354 Y91.101 E0.01135
G1 X130.708 Y91.027 E0.01135
G1 X131.070 Y91.027 E0.01135
G1 X131.424 Y91.103 E0.01135
G1 X131.754 Y91.250 E0.01134
G1 X132.041 Y91.459 E0.01111
G1 X132.288 Y91.733 E0.01158
G1 X132.469 Y92.047 E0.01136
G1 X132.580 Y92.391 E0.01135
G1 X132.617 Y92.751 E0.01134
G1 X132.580 Y93.103 E0.01110
G1 X132.469 Y93.447 E0.01134
G1 X132.288 Y93.761 E0.01135
G1 X132.047 Y94.030 E0.01135
G1 X131.754 Y94.243 E0.01135
G1 X131.424 Y94.391 E0.01135
G1 X131.070 Y94.467 E0.01135
G1 X130.708 Y94.467 E0.01135
G1 X130.354 Y94.392 E0.01135
G1 X130.024 Y94.246 E0.01135
G1 X129.731 Y94.033 E0.01135
G1 X129.488 Y93.764 E0.01135
G1 X129.307 Y93.451 E0.01136
G1 X129.219 Y93.176 E0.00903
G1 X128.844 Y93.006 F7200.000
G1 F5760
G1 X129.157 Y92.747 E-0.15029
G1 F5760
G1 X129.195 Y92.387 E-0.12534
G1 F5760
G1 X129.307 Y92.043 E-0.12534
G1 F5760
G1 X129.488 Y91.730 E-0.12534
G1 F5760
G1 X129.731 Y91.461 E-0.12534
G1 F5760
G1 X129.984 Y91.277 E-0.10835
G1 E-0.04000 F2100.00000
G1 X133.774 Y97.478 F7200.000
G1 E0.80000 F2100.00000
G1 F840
G1 X134.126 Y97.087 E0.01650
G1 X134.552 Y96.777 E0.01650
G1 X135.033 Y96.563 E0.01650
G1 X135.547 Y96.454 E0.01650
G1 X136.073 Y96.454 E0.01650
G1 X136.588 Y96.563 E0.01650
G1 X137.069 Y96.777 E0.01650
G1 X137.495 Y97.087 E0.01650
G1 X137.847 Y97.478 E0.01650
G1 X138.110 Y97.933 E0.01650
G1 X138.272 Y98.434 E0.01650
G1 X138.327 Y98.957 E0.01650
G1 X138.272 Y99.480 E0.01650
G1 X138.110 Y99.981 E0.01650
G1 X137.847 Y100.437 E0.01650
G1 X137.495 Y100.828 E0.01650
G1 X137.069 Y101.137 E0.01650
G1 X136.588 Y101.351 E0.01650
G1 X136.073 Y101.460 E0.01650
G1 X135.547 Y101.460 E0.01650
G1 X135.033 Y101.351 E0.01650
G1 X134.552 Y101.137 E0.01650
G1 X134.126 Y100.828 E0.01650
G1 X133.774 Y100.437 E0.01650
G1 X133.511 Y99.981 E0.01650
G1 X133.348 Y99.480 E0.01650
G1 X133.293 Y98.957 E0.01650
G1 X133.348 Y98.434 E0.01650
G1 X133.511 Y97.933 E0.01650
G1 X133.744 Y97.530 E0.01461
G1 X134.071 Y97.718 F7200.000
G1 F840
G1 X134.380 Y97.368 E0.01464
G1 X134.741 Y97.106 E0.01401
G1 X135.150 Y96.924 E0.01401
G1 X135.587 Y96.831 E0.01401
G1 X136.034 Y96.831 E0.01401
G1 X136.471 Y96.924 E0.01401
G1 X136.879 Y97.106 E0.01401
G1 X137.241 Y97.368 E0.01401
G1 X137.540 Y97.701 E0.01401
G1 X137.763 Y98.088 E0.01401
G1 X137.902 Y98.513 E0.01401
G1 X137.948 Y98.957 E0.01401
G1 X137.902 Y99.402 E0.01401
G1 X137.763 Y99.827 E0.01401
G1 X137.540 Y100.214 E0.01401
G1 X137.241 Y100.546 E0.01401
G1 X136.879 Y100.809 E0.01401
G1 X136.471 Y100.990 E0.01401
G1 X136.034 Y101.083 E0.01401
G1 X135.587 Y101.083 E0.01401
G1 X135.150 Y100.990 E0.01401
G1 X134.741 Y100.809 E0.01401
G1 X134.380 Y100.546 E0.01401
G1 X134.081 Y100.214 E0.01401
G1 X133.857 Y99.827 E0.01401
G1 X133.719 Y99.402 E0.01401
G1 X133.673 Y98.957 E0.01401
G1 X133.719 Y98.513 E0.01401
G1 X133.857 Y98.088 E0.01401
G1 X134.041 Y97.770 E0.01149
G1 X134.387 Y97.924 F7200.000
G1 F840
G1 X134.634 Y97.650 E0.01153
G1 X134.931 Y97.434 E0.01153
G1 X135.267 Y97.284 E0.01153
G1 X135.627 Y97.208 E0.01153
G1 X135.994 Y97.208 E0.01153
G1 X136.354 Y97.284 E0.01153
G1 X136.690 Y97.434 E0.01153
G1 X136.987 Y97.650 E0.01153
G1 X137.233 Y97.923 E0.01153
G1 X137.417 Y98.242 E0.01153
G1 X137.531 Y98.591 E0.01153
G1 X137.569 Y98.957 E0.01153
G1 X137.531 Y99.323 E0.01153
G1 X137.417 Y99.672 E0.01153
G1 X137.233 Y99.991 E0.01153
G1 X136.987 Y100.264 E0.01153
G1 X136.690 Y100.480 E0.01153
G1 X136.354 Y100.630 E0.01153
G1 X135.994 Y100.706 E0.01153
G1 X135.627 Y100.706 E0.01153
G1 X135.267 Y100.630 E0.01153
G1 X134.931 Y100.480 E0.01153
G1 X134.634 Y100.264 E0.01153
G1 X134.388 Y99.991 E0.01153
G1 X134.204 Y99.672 E0.01153
G1 X134.090 Y99.323 E0.01153
G1 X134.052 Y98.957 E0.01153
G1 X134.090 Y98.591 E0.01153
G1 X134.204 Y98.242 E0.01153
G1 X134.357 Y97.975 E0.00964
G1 X134.238 Y97.588 F7200.000
G1 F5760
G1 X134.634 Y97.650 E-0.14778
G1 F5760
G1 X134.931 Y97.434 E-0.12735
G1 F5760
G1 X135.267 Y97.284 E-0.12734
G1 F5760
G1 X135.627 Y97.208 E-0.12735
G1 F5760
G1 X135.994 Y97.208 E-0.12735
G1 F5760
G1 X136.285 Y97.270 E-0.10283
G1 E-0.04000 F2100.00000
G1 X139.362 Y94.810 F7200.000
G1 E0.80000 F2100.00000
G1 F1680
G1 X139.362 Y107.000 E0.38220
G1 X142.243 Y107.000 E0.09032
G1 X142.243 Y114.655 E0.24003
G1 X139.362 Y114.655 E0.09032
G1 X139.362 Y124.258 E0.30108
G1 X135.116 Y124.258 E0.13314
G1 X127.333 Y116.574 E0.34291
G1 X122.562 Y116.574 E0.14961
G1 X114.976 Y124.258 E0.33855
G1 X110.619 Y124.258 E0.13660
G1 X110.619 Y114.674 E0.30049
G1 X107.757 Y114.674 E0.08973
G1 X107.757 Y106.962 E0.24180
G1 X110.619 Y106.962 E0.08973
G1 X110.619 Y94.791 E0.38161
G1 X109.123 Y94.791 E0.04689
G1 X117.710 Y86.220 E0.38039
G1 X117.710 Y87.173 E0.02990
G1 X132.347 Y87.173 E0.45895
G1 X132.347 Y86.207 E0.03029
G1 X140.891 Y94.810 E0.38015
G1 X139.422 Y94.810 E0.04604
G1 X139.739 Y95.187 F7200.000
G1 F1680
G1 X139.739 Y106.623 E0.35856
G1 X142.620 Y106.623 E0.09032
G1 X142.620 Y115.032 E0.26367
G1 X139.739 Y115.032 E0.09032
