; generated by Slic3r 1.35.5-prusa3d-win64 on 2017-07-05 at 14:18:21

; 

; external perimeters extrusion width = 0.45mm
; perimeters extrusion width = 0.45mm
; infill extrusion width = 0.45mm
; solid infill extrusion width = 0.45mm
; top infill extrusion width = 0.40mm
; first layer extrusion width = 0.42mm

M107
M115 U3.0.11 ; tell printer latest fw version
M83  ; extruder relative mode
M104 S200 ; set extruder temp
M140 S60 ; set bed temp
M190 S60 ; wait for bed temp
M109 S200 ; wait for extruder temp
G28 W ; home all without mesh bed level
G80 ; mesh bed leveling
G1 Y-3.0 F1000.0 ; go outside pritn area
G1 X60.0 E9.0  F1000.0 ; intro line
G1 X100.0 E12.5  F1000.0 ; intro line
; Filament gcode

G21 ; set units to millimeters
G90 ; use absolute coordinates
M83 ; use relative distances for extrusion
G1 E-0.80000 F2100.00000
G1 Z0.200 F7200.000
G1 X58.958 Y64.390 F7200.000
G1 E0.80000 F2100.00000
M204 S1000
G1 F2100
G1 X59.190 Y63.824 E0.01917
G1 X59.558 Y63.336 E0.01917
G1 X83.679 Y39.221 E1.06941
G1 X84.258 Y38.839 E0.02178
G1 X84.920 Y38.641 E0.02166
G1 X87.825 Y38.617 E0.09109
G1 X164.967 Y38.659 E2.41873
G1 X165.529 Y38.727 E0.01775
G1 X166.126 Y38.962 E0.02012
G1 X166.639 Y39.348 E0.02012
G1 X190.452 Y63.334 E1.05976
G1 X190.809 Y63.798 E0.01835
G1 X191.055 Y64.378 E0.01977
G1 X191.140 Y64.999 E0.01965
G1 X191.140 Y145.006 E2.50857
G1 X191.078 Y145.543 E0.01692
G1 X190.847 Y146.149 E0.02036
G1 X190.457 Y146.673 E0.02048
G1 X166.441 Y170.690 E1.06493
G1 X165.972 Y171.053 E0.01858
G1 X165.490 Y171.269 E0.01657
G1 X164.972 Y171.374 E0.01657
G1 X162.259 Y171.383 E0.08508
G1 X85.131 Y171.029 E2.41830
G1 X84.599 Y170.967 E0.01680
G1 X83.993 Y170.733 E0.02036
G1 X83.476 Y170.347 E0.02024
G1 X59.554 Y146.426 E1.06073
G1 X59.191 Y145.957 E0.01858
G1 X58.946 Y145.380 E0.01965
G1 X58.860 Y144.756 E0.01977
G1 X58.878 Y65.000 E2.50068
G1 X58.950 Y64.450 E0.01741
G1 F5760
G1 X59.190 Y63.824 E-0.23196
G1 F5760
G1 X59.558 Y63.336 E-0.21181
G1 F5760
G1 X60.204 Y62.691 E-0.31622
G1 E-0.04000 F2100.00000
G1 X168.827 Y70.820 F7200.000
G1 E0.80000 F2100.00000
G1 F840
G1 X168.885 Y70.382 E0.01386
G1 X169.050 Y69.982 E0.01358
G1 X169.322 Y69.624 E0.01408
G1 X169.674 Y69.354 E0.01392
G1 X170.082 Y69.185 E0.01386
G1 X170.511 Y69.128 E0.01357
G1 X170.957 Y69.184 E0.01408
G1 X171.367 Y69.354 E0.01392
G1 X171.718 Y69.623 E0.01386
G1 X171.987 Y69.974 E0.01386
G1 X172.156 Y70.382 E0.01386
G1 X172.214 Y70.820 E0.01386
G1 X172.156 Y71.259 E0.01386
G1 X171.990 Y71.659 E0.01357
G1 X171.719 Y72.017 E0.01408
G1 X171.367 Y72.287 E0.01392
G1 X170.959 Y72.456 E0.01386
G1 X170.520 Y72.514 E0.01386
G1 X170.082 Y72.456 E0.01386
G1 X169.674 Y72.287 E0.01386
G1 X169.323 Y72.018 E0.01386
G1 X169.054 Y71.667 E0.01386
G1 X168.885 Y71.259 E0.01386
G1 X168.835 Y70.880 E0.01198
G1 X169.209 Y70.831 F7200.000
G1 F840
G1 X169.252 Y70.481 E0.01106
G1 X169.380 Y70.171 E0.01050
G1 X169.591 Y69.892 E0.01096
G1 X169.864 Y69.683 E0.01077
G1 X170.181 Y69.552 E0.01075
G1 X170.513 Y69.508 E0.01050
G1 X170.860 Y69.552 E0.01096
G1 X171.177 Y69.683 E0.01077
G1 X171.449 Y69.892 E0.01075
G1 X171.657 Y70.164 E0.01075
G1 X171.789 Y70.481 E0.01075
G1 X171.833 Y70.820 E0.01075
G1 X171.789 Y71.160 E0.01075
G1 X171.660 Y71.470 E0.01050
G1 X171.449 Y71.748 E0.01096
G1 X171.177 Y71.957 E0.01077
G1 X170.860 Y72.089 E0.01075
G1 X170.520 Y72.133 E0.01075
G1 X170.181 Y72.089 E0.01075
G1 X169.864 Y71.957 E0.01075
G1 X169.592 Y71.749 E0.01075
G1 X169.383 Y71.477 E0.01075
G1 X169.252 Y71.160 E0.01075
G1 X169.217 Y70.890 E0.00854
G1 X168.902 Y70.656 F7200.000
G1 F5760
G1 X169.252 Y70.481 E-0.14239
G1 F5760
G1 X169.380 Y70.171 E-0.11599
G1 F5760
G1 X169.591 Y69.892 E-0.12112
G1 F5760
G1 X169.864 Y69.683 E-0.11895
G1 F5760
G1 X170.181 Y69.552 E-0.11871
G1 F5760
G1 X170.513 Y69.508 E-0.11599
G1 F5760
G1 X170.589 Y69.518 E-0.02686
G1 E-0.04000 F2100.00000
G1 X126.393 Y160.820 F7200.000
G1 E0.80000 F2100.00000
G1 F840
G1 X126.920 Y161.225 E0.02085
G1 X127.325 Y161.753 E0.02085
G1 X127.579 Y162.367 E0.02085
G1 X127.666 Y163.027 E0.02085
G1 X127.579 Y163.686 E0.02085
G1 X127.325 Y164.300 E0.02085
G1 X126.920 Y164.828 E0.02085
G1 X126.393 Y165.233 E0.02085
G1 X125.778 Y165.487 E0.02085
G1 X125.119 Y165.574 E0.02085
G1 X124.460 Y165.487 E0.02085
G1 X123.857 Y165.238 E0.02043
G1 X123.319 Y164.830 E0.02116
G1 X122.913 Y164.300 E0.02095
G1 X122.663 Y163.698 E0.02043
G1 X122.571 Y163.030 E0.02116
G1 X122.658 Y162.367 E0.02095
G1 X122.913 Y161.753 E0.02085
G1 X123.318 Y161.225 E0.02085
G1 X123.845 Y160.820 E0.02085
G1 X124.460 Y160.566 E0.02085
G1 X125.106 Y160.481 E0.02043
G1 X125.775 Y160.565 E0.02116
G1 X126.337 Y160.797 E0.01907
G1 X126.193 Y161.146 F7200.000
G1 F840
G1 X126.651 Y161.494 E0.01805
G1 X126.996 Y161.943 E0.01774
G1 X127.212 Y162.466 E0.01774
G1 X127.286 Y163.027 E0.01774
G1 X127.212 Y163.587 E0.01774
G1 X126.996 Y164.110 E0.01774
G1 X126.651 Y164.559 E0.01774
G1 X126.202 Y164.903 E0.01774
G1 X125.680 Y165.120 E0.01774
G1 X125.119 Y165.194 E0.01774
G1 X124.558 Y165.120 E0.01774
G1 X124.047 Y164.908 E0.01736
G1 X123.588 Y164.560 E0.01805
G1 X123.242 Y164.110 E0.01780
G1 X123.030 Y163.599 E0.01736
G1 X122.951 Y163.028 E0.01805
G1 X123.026 Y162.466 E0.01780
G1 X123.242 Y161.943 E0.01774
G1 X123.586 Y161.494 E0.01774
G1 X124.035 Y161.150 E0.01774
G1 X124.558 Y160.933 E0.01774
G1 X125.107 Y160.861 E0.01736
G1 X125.678 Y160.933 E0.01805
G1 X126.137 Y161.123 E0.01559
G1 X125.993 Y161.471 F7200.000
G1 F840
G1 X126.382 Y161.763 E0.01525
G1 X126.666 Y162.133 E0.01462
G1 X126.845 Y162.564 E0.01462
G1 X126.906 Y163.027 E0.01463
G1 X126.845 Y163.489 E0.01462
G1 X126.666 Y163.920 E0.01462
G1 X126.382 Y164.290 E0.01463
G1 X126.012 Y164.574 E0.01462
G1 X125.581 Y164.752 E0.01462
G1 X125.119 Y164.813 E0.01463
G1 X124.656 Y164.752 E0.01462
G1 X124.236 Y164.578 E0.01428
G1 X123.856 Y164.291 E0.01494
G1 X123.571 Y163.920 E0.01465
G1 X123.397 Y163.499 E0.01428
G1 X123.332 Y163.027 E0.01494
G1 X123.393 Y162.564 E0.01465
G1 X123.571 Y162.133 E0.01463
G1 X123.855 Y161.763 E0.01462
G1 X124.225 Y161.479 E0.01462
G1 X124.656 Y161.301 E0.01462
G1 X125.108 Y161.241 E0.01428
G1 X125.581 Y161.300 E0.01494
G1 X125.938 Y161.448 E0.01212
G1 X126.338 Y161.268 F7200.000
G1 F5760
G1 X126.382 Y161.763 E-0.18870
G1 F5760
G1 X126.666 Y162.133 E-0.16155
G1 F5760
G1 X126.845 Y162.564 E-0.16155
G1 F5760
G1 X126.906 Y163.027 E-0.16156
G1 F5760
G1 X126.873 Y163.275 E-0.08664
G1 E-0.04000 F2100.00000
G1 X148.438 Y146.732 F7200.000
G1 E0.80000 F2100.00000
G1 F840
G1 X148.183 Y146.118 E0.02085
G1 X148.096 Y145.459 E0.02085
G1 X148.183 Y144.799 E0.02085
G1 X148.438 Y144.185 E0.02085
G1 X148.842 Y143.657 E0.02085
G1 X149.370 Y143.253 E0.02085
G1 X149.984 Y142.998 E0.02085
G1 X150.630 Y142.913 E0.02043
G1 X151.300 Y142.997 E0.02116
G1 X151.917 Y143.252 E0.02095
G1 X152.445 Y143.657 E0.02085
G1 X152.850 Y144.185 E0.02085
G1 X153.104 Y144.799 E0.02085
G1 X153.191 Y145.459 E0.02085
G1 X153.104 Y146.118 E0.02085
G1 X152.855 Y146.720 E0.02043
G1 X152.447 Y147.258 E0.02116
G1 X151.917 Y147.665 E0.02095
G1 X151.303 Y147.919 E0.02085
G1 X150.644 Y148.006 E0.02085
G1 X149.984 Y147.919 E0.02085
G1 X149.382 Y147.670 E0.02043
G1 X148.844 Y147.262 E0.02116
G1 X148.474 Y146.780 E0.01907
G1 X148.773 Y146.550 F7200.000
G1 F840
G1 X148.550 Y146.020 E0.01805
G1 X148.477 Y145.459 E0.01774
G1 X148.550 Y144.898 E0.01774
G1 X148.767 Y144.375 E0.01774
G1 X149.111 Y143.926 E0.01774
G1 X149.560 Y143.582 E0.01774
G1 X150.083 Y143.365 E0.01774
G1 X150.632 Y143.293 E0.01736
G1 X151.203 Y143.365 E0.01805
G1 X151.727 Y143.582 E0.01780
G1 X152.176 Y143.926 E0.01774
G1 X152.520 Y144.375 E0.01774
G1 X152.737 Y144.898 E0.01774
G1 X152.811 Y145.459 E0.01774
G1 X152.737 Y146.020 E0.01774
G1 X152.525 Y146.531 E0.01736
G1 X152.178 Y146.990 E0.01805
G1 X151.727 Y147.335 E0.01780
G1 X151.205 Y147.552 E0.01774
G1 X150.644 Y147.626 E0.01774
G1 X150.083 Y147.552 E0.01774
G1 X149.571 Y147.340 E0.01736
G1 X149.112 Y146.993 E0.01805
G1 X148.810 Y146.598 E0.01559
G1 X149.109 Y146.368 F7200.000
G1 F840
G1 X148.918 Y145.921 E0.01525
G1 X148.857 Y145.459 E0.01463
G1 X148.918 Y144.996 E0.01463
G1 X149.096 Y144.565 E0.01463
G1 X149.380 Y144.195 E0.01462
G1 X149.750 Y143.911 E0.01463
G1 X150.181 Y143.733 E0.01462
G1 X150.633 Y143.673 E0.01428
G1 X151.105 Y143.733 E0.01494
G1 X151.537 Y143.911 E0.01465
G1 X151.907 Y144.195 E0.01463
G1 X152.191 Y144.565 E0.01462
G1 X152.370 Y144.996 E0.01462
G1 X152.430 Y145.459 E0.01462
G1 X152.370 Y145.921 E0.01462
G1 X152.195 Y146.342 E0.01428
G1 X151.908 Y146.722 E0.01494
G1 X151.537 Y147.006 E0.01465
G1 X151.106 Y147.185 E0.01462
G1 X150.644 Y147.245 E0.01463
G1 X150.181 Y147.185 E0.01462
G1 X149.760 Y147.010 E0.01428
G1 X149.381 Y146.723 E0.01494
G1 X149.145 Y146.416 E0.01211
G1 X148.709 Y146.372 F7200.000
G1 F5760
G1 X148.918 Y145.921 E-0.18870
G1 F5760
G1 X148.857 Y145.459 E-0.16156
G1 F5760
G1 X148.918 Y144.996 E-0.16156
G1 F5760
G1 X149.096 Y144.565 E-0.16155
G1 F5760
G1 X149.249 Y144.367 E-0.08663
G1 E-0.04000 F2100.00000
G1 X161.359 Y132.395 F7200.000
G1 E0.80000 F2100.00000
G1 F840
G1 X166.580 Y137.739 E0.23426
G1 X157.747 Y146.370 E0.38724
G1 X152.525 Y141.026 E0.23426
G1 X161.316 Y132.437 E0.38535
G1 X161.353 Y132.928 F7200.000
G1 F840
G1 X166.047 Y137.732 E0.21061
G1 X157.753 Y145.837 E0.36359
G1 X153.058 Y141.032 E0.21061
G1 X161.310 Y132.970 E0.36171
G1 X161.346 Y133.461 F7200.000
G1 F840
G1 X165.514 Y137.726 E0.18697
G1 X157.759 Y145.303 E0.33994
G1 X153.592 Y141.038 E0.18697
G1 X161.304 Y133.503 E0.33806
G1 X161.582 Y133.138 F7200.000
G1 F5760
G1 X162.853 Y135.057 E-0.76000
G1 E-0.04000 F2100.00000
G1 X159.492 Y148.178 F7200.000
G1 E0.80000 F2100.00000
G1 F840
G1 X159.995 Y148.386 E0.01707
G1 X160.425 Y148.716 E0.01697
G1 X160.754 Y149.145 E0.01697
G1 X160.961 Y149.645 E0.01697
G1 X161.032 Y150.182 E0.01697
G1 X160.961 Y150.719 E0.01697
G1 X160.758 Y151.209 E0.01665
G1 X160.427 Y151.646 E0.01719
G1 X159.995 Y151.978 E0.01707
G1 X159.495 Y152.185 E0.01697
G1 X158.958 Y152.256 E0.01697
G1 X158.422 Y152.185 E0.01697
G1 X157.922 Y151.978 E0.01697
G1 X157.492 Y151.648 E0.01697
G1 X157.163 Y151.219 E0.01697
G1 X156.955 Y150.719 E0.01697
G1 X156.885 Y150.182 E0.01697
G1 X156.955 Y149.645 E0.01697
G1 X157.159 Y149.155 E0.01665
G1 X157.490 Y148.718 E0.01719
G1 X157.922 Y148.386 E0.01707
G1 X158.422 Y148.179 E0.01697
G1 X158.948 Y148.110 E0.01665
G1 X159.433 Y148.170 E0.01531
G1 X159.386 Y148.545 F7200.000
G1 F840
G1 X159.805 Y148.716 E0.01420
G1 X160.156 Y148.985 E0.01386
G1 X160.425 Y149.335 E0.01386
G1 X160.594 Y149.744 E0.01386
G1 X160.652 Y150.182 E0.01386
G1 X160.594 Y150.620 E0.01386
G1 X160.428 Y151.020 E0.01358
G1 X160.157 Y151.378 E0.01408
G1 X159.805 Y151.648 E0.01392
G1 X159.397 Y151.818 E0.01386
G1 X158.958 Y151.875 E0.01386
G1 X158.520 Y151.818 E0.01386
G1 X158.112 Y151.648 E0.01386
G1 X157.761 Y151.379 E0.01386
G1 X157.492 Y151.029 E0.01386
G1 X157.323 Y150.620 E0.01386
G1 X157.265 Y150.182 E0.01386
G1 X157.323 Y149.744 E0.01386
G1 X157.488 Y149.344 E0.01358
G1 X157.760 Y148.986 E0.01408
G1 X158.112 Y148.716 E0.01392
G1 X158.520 Y148.546 E0.01386
G1 X158.949 Y148.490 E0.01358
G1 X159.326 Y148.537 E0.01191
G1 X159.298 Y148.913 F7200.000
G1 F840
G1 X159.615 Y149.045 E0.01077
G1 X159.887 Y149.254 E0.01075
G1 X160.095 Y149.525 E0.01075
G1 X160.227 Y149.842 E0.01075
G1 X160.271 Y150.182 E0.01075
G1 X160.227 Y150.522 E0.01075
G1 X160.098 Y150.831 E0.01050
G1 X159.887 Y151.110 E0.01097
G1 X159.615 Y151.319 E0.01077
G1 X159.298 Y151.450 E0.01075
G1 X158.958 Y151.495 E0.01075
G1 X158.619 Y151.450 E0.01075
G1 X158.302 Y151.319 E0.01075
G1 X158.030 Y151.110 E0.01075
G1 X157.821 Y150.838 E0.01075
G1 X157.690 Y150.522 E0.01075
G1 X157.645 Y150.182 E0.01075
G1 X157.690 Y149.842 E0.01075
G1 X157.818 Y149.533 E0.01050
G1 X158.029 Y149.254 E0.01096
G1 X158.302 Y149.045 E0.01077
G1 X158.619 Y148.914 E0.01075
G1 X158.951 Y148.870 E0.01050
G1 X159.238 Y148.906 E0.00908
G1 X159.540 Y148.671 F7200.000
G1 F5760
G1 X159.615 Y149.045 E-0.13910
G1 F5760
G1 X159.887 Y149.254 E-0.11871
G1 F5760
G1 X160.095 Y149.525 E-0.11872
G1 F5760
G1 X160.227 Y149.842 E-0.11871
G1 F5760
G1 X160.271 Y150.182 E-0.11871
G1 F5760
G1 X160.227 Y150.522 E-0.11871
G1 F5760
G1 X160.196 Y150.595 E-0.02734
G1 E-0.04000 F2100.00000
G1 X158.748 Y155.600 F7200.000
G1 E0.80000 F2100.00000
G1 F840
G1 X159.282 Y155.667 E0.01685
G1 X159.775 Y155.871 E0.01674
G1 X160.196 Y156.194 E0.01664
G1 X160.519 Y156.615 E0.01664
G1 X160.722 Y157.106 E0.01664
G1 X160.791 Y157.632 E0.01664
G1 X160.722 Y158.158 E0.01664
G1 X160.519 Y158.648 E0.01664
G1 X160.196 Y159.070 E0.01664
G1 X159.775 Y159.393 E0.01664
G1 X159.285 Y159.596 E0.01664
G1 X158.758 Y159.665 E0.01664
G1 X158.232 Y159.596 E0.01664
G1 X157.742 Y159.393 E0.01664
G1 X157.321 Y159.070 E0.01664
G1 X156.998 Y158.649 E0.01664
G1 X156.794 Y158.158 E0.01664
G1 X156.725 Y157.632 E0.01664
G1 X156.794 Y157.106 E0.01664
G1 X156.994 Y156.625 E0.01633
G1 X157.318 Y156.196 E0.01685
G1 X157.742 Y155.871 E0.01674
G1 X158.232 Y155.668 E0.01664
G1 X158.689 Y155.608 E0.01445
G1 X158.738 Y155.982 F7200.000
G1 F840
G1 X159.184 Y156.035 E0.01409
G1 X159.585 Y156.201 E0.01359
G1 X159.927 Y156.463 E0.01353
G1 X160.190 Y156.806 E0.01353
G1 X160.355 Y157.204 E0.01353
G1 X160.411 Y157.632 E0.01353
G1 X160.355 Y158.060 E0.01353
G1 X160.190 Y158.458 E0.01353
G1 X159.927 Y158.801 E0.01353
G1 X159.585 Y159.063 E0.01353
G1 X159.186 Y159.228 E0.01353
G1 X158.758 Y159.285 E0.01353
G1 X158.331 Y159.228 E0.01353
G1 X157.932 Y159.063 E0.01353
G1 X157.590 Y158.801 E0.01353
G1 X157.327 Y158.458 E0.01353
G1 X157.162 Y158.060 E0.01353
G1 X157.106 Y157.632 E0.01353
G1 X157.162 Y157.204 E0.01353
G1 X157.324 Y156.814 E0.01325
G1 X157.588 Y156.464 E0.01374
G1 X157.932 Y156.201 E0.01359
G1 X158.331 Y156.035 E0.01353
G1 X158.679 Y155.990 E0.01101
G1 X158.751 Y156.360 F7200.000
G1 F840
G1 X159.087 Y156.403 E0.01062
G1 X159.395 Y156.530 E0.01044
G1 X159.658 Y156.732 E0.01042
G1 X159.860 Y156.996 E0.01042
G1 X159.987 Y157.303 E0.01042
G1 X160.031 Y157.632 E0.01042
G1 X159.987 Y157.961 E0.01042
G1 X159.860 Y158.268 E0.01042
G1 X159.658 Y158.532 E0.01042
G1 X159.395 Y158.734 E0.01042
G1 X159.088 Y158.861 E0.01041
G1 X158.758 Y158.904 E0.01041
G1 X158.429 Y158.861 E0.01042
G1 X158.122 Y158.734 E0.01042
G1 X157.859 Y158.532 E0.01042
G1 X157.656 Y158.268 E0.01042
G1 X157.529 Y157.961 E0.01042
G1 X157.486 Y157.632 E0.01042
G1 X157.529 Y157.303 E0.01042
G1 X157.653 Y157.003 E0.01018
G1 X157.858 Y156.733 E0.01063
G1 X158.122 Y156.530 E0.01044
G1 X158.429 Y156.403 E0.01042
G1 X158.691 Y156.368 E0.00830
G1 X158.919 Y156.066 F7200.000
G1 F5760
G1 X159.087 Y156.403 E-0.13757
G1 F5760
G1 X159.395 Y156.530 E-0.11528
G1 F5760
G1 X159.658 Y156.732 E-0.11506
G1 F5760
G1 X159.860 Y156.996 E-0.11505
G1 F5760
G1 X159.987 Y157.303 E-0.11505
G1 F5760
G1 X160.031 Y157.632 E-0.11505
G1 F5760
G1 X160.013 Y157.766 E-0.04693
G1 E-0.04000 F2100.00000
G1 X162.995 Y161.919 F7200.000
G1 E0.80000 F2100.00000
G1 F840
G1 X163.409 Y161.601 E0.01636
G1 X163.891 Y161.402 E0.01636
G1 X164.408 Y161.334 E0.01635
G1 X164.926 Y161.402 E0.01636
G1 X165.408 Y161.601 E0.01636
G1 X165.821 Y161.919 E0.01636
G1 X166.139 Y162.333 E0.01636
G1 X166.339 Y162.815 E0.01636
G1 X166.407 Y163.332 E0.01636
G1 X166.339 Y163.849 E0.01636
G1 X166.139 Y164.331 E0.01636
G1 X165.821 Y164.745 E0.01636
G1 X165.408 Y165.063 E0.01636
G1 X164.926 Y165.262 E0.01636
G1 X164.408 Y165.330 E0.01636
G1 X163.891 Y165.262 E0.01636
G1 X163.409 Y165.063 E0.01636
G1 X162.995 Y164.745 E0.01636
G1 X162.678 Y164.331 E0.01636
G1 X162.478 Y163.849 E0.01636
G1 X162.410 Y163.332 E0.01636
G1 X162.478 Y162.815 E0.01636
G1 X162.678 Y162.333 E0.01636
G1 X162.959 Y161.966 E0.01448
G1 X163.258 Y162.196 F7200.000
G1 F840
G1 X163.599 Y161.931 E0.01356
G1 X163.990 Y161.769 E0.01324
G1 X164.408 Y161.714 E0.01324
G1 X164.827 Y161.769 E0.01325
G1 X165.217 Y161.931 E0.01325
G1 X165.552 Y162.188 E0.01324
G1 X165.810 Y162.523 E0.01324
G1 X165.971 Y162.913 E0.01324
G1 X166.026 Y163.332 E0.01324
G1 X165.971 Y163.751 E0.01324
G1 X165.810 Y164.141 E0.01324
