; generated by Slic3r 1.37.1-prusa3d-win64 on 2017-10-27 at 04:50:48

; 

; external perimeters extrusion width = 0.45mm
; perimeters extrusion width = 0.45mm
; infill extrusion width = 0.45mm
; solid infill extrusion width = 0.45mm
; top infill extrusion width = 0.40mm
; first layer extrusion width = 0.42mm

M107
M115 U3.0.12 ; tell printer latest fw version
M83  ; extruder relative mode
M104 S215 ; set extruder temp
M140 S55 ; set bed temp
M190 S55 ; wait for bed temp
M109 S215 ; wait for extruder temp
G28 W ; home all without mesh bed level
G80 ; mesh bed leveling
G1 Y-3.0 F1000.0 ; go outside pritn area
G1 X60.0 E9.0  F1000.0 ; intro line
G1 X100.0 E12.5  F1000.0 ; intro line
; Filament gcode

G21 ; set units to millimeters
G90 ; use absolute coordinates
M83 ; use relative distances for extrusion
G1 E-0.80000 F2100.00000
G1 Z0.200 F7200.000
G1 X43.544 Y47.785 F7200.000
G1 E0.80000 F2100.00000
M204 S1000
G1 F2100
G1 X45.172 Y46.236 E0.07049
G1 X46.961 Y45.019 E0.06783
G1 X47.924 Y44.523 E0.03394
G1 X49.768 Y43.824 E0.06185
G1 X51.964 Y43.364 E0.07034
G1 X54.049 Y43.273 E0.06546
G1 X55.220 Y43.362 E0.03681
G1 X56.371 Y43.554 E0.03657
G1 X58.281 Y44.107 E0.06236
G1 X59.325 Y44.545 E0.03550
G1 X109.529 Y68.369 E1.74237
G1 X109.952 Y68.723 E0.01728
G1 X110.284 Y69.168 E0.01740
G1 X110.502 Y69.674 E0.01728
G1 X110.599 Y70.220 E0.01740
G1 X110.601 Y78.949 E0.27368
G1 X110.490 Y79.581 E0.02012
G1 X110.212 Y80.163 E0.02024
G1 X109.752 Y80.679 E0.02166
G1 X109.160 Y81.043 E0.02178
G1 X67.676 Y98.333 E1.40916
G1 X67.107 Y98.404 E0.01799
G1 X40.073 Y98.404 E0.84762
G1 X39.406 Y98.300 E0.02119
G1 X38.794 Y98.013 E0.02119
G1 X38.390 Y97.678 E0.01645
G1 X38.068 Y97.260 E0.01657
G1 X37.847 Y96.784 E0.01645
G1 X37.735 Y96.267 E0.01657
G1 X37.725 Y87.432 E0.27704
G1 X40.199 Y55.623 E1.00036
G1 X40.564 Y53.422 E0.06994
G1 X41.234 Y51.433 E0.06582
G1 X42.244 Y49.511 E0.06808
G1 X43.508 Y47.833 E0.06584
G1 F5760
G1 X45.091 Y46.314 E-0.76000
G1 E-0.04000 F2100.00000
G1 X81.050 Y72.368 F7200.000
G1 E0.80000 F2100.00000
G1 F1680
G1 X107.401 Y72.368 E0.82621
G1 X107.401 Y76.846 E0.14040
G1 X81.050 Y76.846 E0.82621
G1 X81.050 Y72.428 E0.13852
G1 X81.427 Y72.745 F7200.000
G1 F1260
G1 X107.024 Y72.745 E0.80256
G1 X107.024 Y76.469 E0.11675
G1 X81.427 Y76.469 E0.80256
G1 X81.427 Y72.805 E0.11487
G1 X81.244 Y72.389 F7200.000
G1 F5760
G1 X83.621 Y72.800 E-0.76000
G1 E-0.04000 F2100.00000
G1 X80.835 Y70.944 F7200.000
G1 E0.80000 F2100.00000
G1 F1680
G1 X107.638 Y70.944 E0.84039
G1 X107.638 Y78.270 E0.22970
G1 X80.835 Y78.270 E0.84039
G1 X80.835 Y71.004 E0.22782
G1 X80.458 Y70.567 F7200.000
G1 F1260
G1 X108.015 Y70.567 E0.86404
G1 X108.015 Y78.647 E0.25334
G1 X80.458 Y78.647 E0.86404
G1 X80.458 Y70.627 E0.25146
G1 X80.856 Y70.605 F7200.000
G1 F5760
G1 X82.652 Y70.622 E-0.76000
G1 E-0.04000 F2100.00000
G1 X81.714 Y72.255 F7200.000
G1 E0.80000 F2100.00000
G1 F1680
G1 X81.118 Y71.659 E0.02654
G1 X81.118 Y71.227 E0.01361
G1 X81.221 Y71.227 E0.00326
G1 X82.080 Y72.085 E0.03823
G1 X82.615 Y72.085 E0.01687
G1 X81.757 Y71.227 E0.03823
G1 X82.293 Y71.227 E0.01687
G1 X83.151 Y72.085 E0.03823
G1 X83.687 Y72.085 E0.01687
G1 X82.828 Y71.227 E0.03823
G1 X83.364 Y71.227 E0.01687
G1 X84.222 Y72.085 E0.03823
G1 X84.758 Y72.085 E0.01687
G1 X83.899 Y71.227 E0.03823
G1 X84.435 Y71.227 E0.01687
G1 X85.293 Y72.085 E0.03823
G1 X85.829 Y72.085 E0.01687
G1 X84.971 Y71.227 E0.03823
G1 X85.506 Y71.227 E0.01687
G1 X86.365 Y72.085 E0.03823
G1 X86.900 Y72.085 E0.01687
G1 X86.042 Y71.227 E0.03823
G1 X86.577 Y71.227 E0.01687
G1 X87.436 Y72.085 E0.03823
G1 X87.971 Y72.085 E0.01687
G1 X87.113 Y71.227 E0.03823
G1 X87.648 Y71.227 E0.01687
G1 X88.507 Y72.085 E0.03823
G1 X89.042 Y72.085 E0.01687
G1 X88.184 Y71.227 E0.03823
G1 X88.720 Y71.227 E0.01687
G1 X89.578 Y72.085 E0.03823
G1 X90.114 Y72.085 E0.01687
G1 X89.255 Y71.227 E0.03823
G1 X89.791 Y71.227 E0.01687
G1 X90.649 Y72.085 E0.03823
G1 X91.185 Y72.085 E0.01687
G1 X90.326 Y71.227 E0.03823
G1 X90.862 Y71.227 E0.01687
G1 X91.720 Y72.085 E0.03823
G1 X92.256 Y72.085 E0.01687
G1 X91.397 Y71.227 E0.03823
G1 X91.933 Y71.227 E0.01687
G1 X92.791 Y72.085 E0.03823
G1 X93.327 Y72.085 E0.01687
G1 X92.469 Y71.227 E0.03823
G1 X93.004 Y71.227 E0.01687
G1 X93.863 Y72.085 E0.03823
G1 X94.398 Y72.085 E0.01687
G1 X93.540 Y71.227 E0.03823
G1 X94.075 Y71.227 E0.01687
G1 X94.934 Y72.085 E0.03823
G1 X95.469 Y72.085 E0.01687
G1 X94.611 Y71.227 E0.03823
G1 X95.147 Y71.227 E0.01687
G1 X96.005 Y72.085 E0.03823
G1 X96.541 Y72.085 E0.01687
G1 X95.682 Y71.227 E0.03823
G1 X96.218 Y71.227 E0.01687
G1 X97.076 Y72.085 E0.03823
G1 X97.612 Y72.085 E0.01687
G1 X96.753 Y71.227 E0.03823
G1 X97.289 Y71.227 E0.01687
G1 X98.147 Y72.085 E0.03823
G1 X98.683 Y72.085 E0.01687
G1 X97.824 Y71.227 E0.03823
G1 X98.360 Y71.227 E0.01687
G1 X99.218 Y72.085 E0.03823
G1 X99.754 Y72.085 E0.01687
G1 X98.896 Y71.227 E0.03823
G1 X99.431 Y71.227 E0.01687
G1 X100.290 Y72.085 E0.03823
G1 X100.825 Y72.085 E0.01687
G1 X99.967 Y71.227 E0.03823
G1 X100.502 Y71.227 E0.01687
G1 X101.361 Y72.085 E0.03823
G1 X101.896 Y72.085 E0.01687
G1 X101.038 Y71.227 E0.03823
G1 X101.573 Y71.227 E0.01687
G1 X102.432 Y72.085 E0.03823
G1 X102.967 Y72.085 E0.01687
G1 X102.109 Y71.227 E0.03823
G1 X102.645 Y71.227 E0.01687
G1 X103.503 Y72.085 E0.03823
G1 X104.039 Y72.085 E0.01687
G1 X103.180 Y71.227 E0.03823
G1 X103.716 Y71.227 E0.01687
G1 X104.574 Y72.085 E0.03823
G1 X105.110 Y72.085 E0.01687
G1 X104.251 Y71.227 E0.03823
G1 X104.787 Y71.227 E0.01687
G1 X105.645 Y72.085 E0.03823
G1 X106.181 Y72.085 E0.01687
G1 X105.323 Y71.227 E0.03823
G1 X105.858 Y71.227 E0.01687
G1 X106.716 Y72.085 E0.03823
G1 X107.252 Y72.085 E0.01687
G1 X106.394 Y71.227 E0.03823
G1 X106.929 Y71.227 E0.01687
G1 X107.525 Y71.823 E0.02654
G1 F5760
G1 X106.929 Y71.227 E-0.29195
G1 F5760
G1 X106.394 Y71.227 E-0.18550
G1 F5760
G1 X106.971 Y71.804 E-0.28255
G1 E-0.04000 F2100.00000
G1 X107.525 Y77.725 F7200.000
G1 E0.80000 F2100.00000
G1 F1680
G1 X106.929 Y77.129 E0.02654
G1 X106.394 Y77.129 E0.01687
G1 X107.252 Y77.987 E0.03823
G1 X106.716 Y77.987 E0.01687
G1 X105.858 Y77.129 E0.03823
G1 X105.322 Y77.129 E0.01687
G1 X106.181 Y77.987 E0.03823
G1 X105.645 Y77.987 E0.01687
G1 X104.787 Y77.129 E0.03823
G1 X104.251 Y77.129 E0.01687
G1 X105.110 Y77.987 E0.03823
G1 X104.574 Y77.987 E0.01687
G1 X103.716 Y77.129 E0.03823
G1 X103.180 Y77.129 E0.01687
G1 X104.039 Y77.987 E0.03823
G1 X103.503 Y77.987 E0.01687
G1 X102.645 Y77.129 E0.03823
G1 X102.109 Y77.129 E0.01687
G1 X102.967 Y77.987 E0.03823
G1 X102.432 Y77.987 E0.01687
G1 X101.573 Y77.129 E0.03823
G1 X101.038 Y77.129 E0.01687
G1 X101.896 Y77.987 E0.03823
G1 X101.361 Y77.987 E0.01687
G1 X100.502 Y77.129 E0.03823
G1 X99.967 Y77.129 E0.01687
G1 X100.825 Y77.987 E0.03823
G1 X100.290 Y77.987 E0.01687
G1 X99.431 Y77.129 E0.03823
G1 X98.896 Y77.129 E0.01687
G1 X99.754 Y77.987 E0.03823
G1 X99.218 Y77.987 E0.01687
G1 X98.360 Y77.129 E0.03823
G1 X97.824 Y77.129 E0.01687
G1 X98.683 Y77.987 E0.03823
G1 X98.147 Y77.987 E0.01687
G1 X97.289 Y77.129 E0.03823
G1 X96.753 Y77.129 E0.01687
G1 X97.612 Y77.987 E0.03823
G1 X97.076 Y77.987 E0.01687
G1 X96.218 Y77.129 E0.03823
G1 X95.682 Y77.129 E0.01687
G1 X96.540 Y77.987 E0.03823
G1 X96.005 Y77.987 E0.01687
G1 X95.146 Y77.129 E0.03823
G1 X94.611 Y77.129 E0.01687
G1 X95.469 Y77.987 E0.03823
G1 X94.934 Y77.987 E0.01687
G1 X94.075 Y77.129 E0.03823
G1 X93.540 Y77.129 E0.01687
G1 X94.398 Y77.987 E0.03823
G1 X93.863 Y77.987 E0.01687
G1 X93.004 Y77.129 E0.03823
G1 X92.469 Y77.129 E0.01687
G1 X93.327 Y77.987 E0.03823
G1 X92.791 Y77.987 E0.01687
G1 X91.933 Y77.129 E0.03823
G1 X91.397 Y77.129 E0.01687
G1 X92.256 Y77.987 E0.03823
G1 X91.720 Y77.987 E0.01687
G1 X90.862 Y77.129 E0.03823
G1 X90.326 Y77.129 E0.01687
G1 X91.185 Y77.987 E0.03823
G1 X90.649 Y77.987 E0.01687
G1 X89.791 Y77.129 E0.03823
G1 X89.255 Y77.129 E0.01687
G1 X90.114 Y77.987 E0.03823
G1 X89.578 Y77.987 E0.01687
G1 X88.720 Y77.129 E0.03823
G1 X88.184 Y77.129 E0.01687
G1 X89.042 Y77.987 E0.03823
G1 X88.507 Y77.987 E0.01687
G1 X87.648 Y77.129 E0.03823
G1 X87.113 Y77.129 E0.01687
G1 X87.971 Y77.987 E0.03823
G1 X87.436 Y77.987 E0.01687
G1 X86.577 Y77.129 E0.03823
G1 X86.042 Y77.129 E0.01687
G1 X86.900 Y77.987 E0.03823
G1 X86.364 Y77.987 E0.01687
G1 X85.506 Y77.129 E0.03823
G1 X84.970 Y77.129 E0.01687
G1 X85.829 Y77.987 E0.03823
G1 X85.293 Y77.987 E0.01687
G1 X84.435 Y77.129 E0.03823
G1 X83.899 Y77.129 E0.01687
G1 X84.758 Y77.987 E0.03823
G1 X84.222 Y77.987 E0.01687
G1 X83.364 Y77.129 E0.03823
G1 X82.828 Y77.129 E0.01687
G1 X83.687 Y77.987 E0.03823
G1 X83.151 Y77.987 E0.01687
G1 X82.293 Y77.129 E0.03823
G1 X81.757 Y77.129 E0.01687
G1 X82.615 Y77.987 E0.03823
G1 X82.080 Y77.987 E0.01687
G1 X81.221 Y77.129 E0.03823
G1 X81.118 Y77.129 E0.00326
G1 X81.118 Y77.561 E0.01361
G1 X81.714 Y78.157 E0.02654
G1 F5760
G1 X81.118 Y77.561 E-0.29190
G1 F5760
G1 X81.118 Y77.129 E-0.14968
G1 F5760
G1 X81.221 Y77.129 E-0.03582
G1 F5760
G1 X81.798 Y77.706 E-0.28260
G1 E-0.04000 F2100.00000
G1 X55.437 Y65.787 F7200.000
G1 E0.80000 F2100.00000
G1 F840
G1 X55.163 Y66.147 E0.01417
G1 X54.819 Y66.439 E0.01417
G1 X54.442 Y66.639 E0.01337
G1 X53.988 Y66.772 E0.01484
G1 X53.533 Y66.797 E0.01430
G1 X53.086 Y66.723 E0.01417
G1 X52.666 Y66.556 E0.01417
G1 X52.314 Y66.317 E0.01337
G1 X51.983 Y65.978 E0.01484
G1 X51.748 Y65.587 E0.01430
G1 X51.604 Y65.159 E0.01417
G1 X51.555 Y64.709 E0.01417
G1 X51.604 Y64.260 E0.01417
G1 X51.748 Y63.831 E0.01417
G1 X51.981 Y63.444 E0.01417
G1 X52.292 Y63.116 E0.01417
G1 X52.666 Y62.862 E0.01417
G1 X53.086 Y62.695 E0.01417
G1 X53.507 Y62.626 E0.01337
G1 X53.980 Y62.645 E0.01484
G1 X54.419 Y62.767 E0.01430
G1 X54.819 Y62.979 E0.01417
G1 X55.163 Y63.271 E0.01417
G1 X55.437 Y63.631 E0.01417
G1 X55.627 Y64.042 E0.01417
G1 X55.724 Y64.483 E0.01417
G1 X55.724 Y64.935 E0.01417
G1 X55.627 Y65.377 E0.01417
G1 X55.462 Y65.732 E0.01229
G1 X55.120 Y65.574 F7200.000
G1 F840
G1 X54.888 Y65.886 E0.01218
G1 X54.606 Y66.126 E0.01160
G1 X54.299 Y66.288 E0.01088
G1 X53.924 Y66.398 E0.01227
G1 X53.553 Y66.418 E0.01165
G1 X53.188 Y66.358 E0.01160
G1 X52.844 Y66.221 E0.01160
G1 X52.557 Y66.026 E0.01088
G1 X52.284 Y65.746 E0.01227
G1 X52.093 Y65.428 E0.01165
G1 X51.974 Y65.077 E0.01160
G1 X51.934 Y64.709 E0.01160
G1 X51.974 Y64.341 E0.01160
G1 X52.093 Y63.991 E0.01160
G1 X52.283 Y63.674 E0.01160
G1 X52.538 Y63.405 E0.01160
G1 X52.844 Y63.197 E0.01160
G1 X53.188 Y63.060 E0.01160
G1 X53.530 Y63.004 E0.01088
G1 X53.921 Y63.020 E0.01227
G1 X54.279 Y63.119 E0.01165
G1 X54.606 Y63.293 E0.01160
G1 X54.888 Y63.532 E0.01160
G1 X55.112 Y63.827 E0.01160
G1 X55.267 Y64.163 E0.01160
G1 X55.347 Y64.524 E0.01160
G1 X55.347 Y64.894 E0.01160
G1 X55.267 Y65.256 E0.01160
G1 X55.145 Y65.520 E0.00913
G1 X55.311 Y65.913 F7200.000
G1 F5760
G1 X54.888 Y65.886 E-0.15500
G1 F5760
G1 X54.606 Y66.126 E-0.12816
G1 F5760
G1 X54.299 Y66.288 E-0.12018
G1 F5760
G1 X53.924 Y66.398 E-0.13549
G1 F5760
G1 X53.553 Y66.418 E-0.12866
G1 F5760
G1 X53.289 Y66.375 E-0.09252
G1 E-0.04000 F2100.00000
G1 X47.163 Y58.147 F7200.000
G1 E0.80000 F2100.00000
G1 F840
G1 X46.819 Y58.439 E0.01417
G1 X46.419 Y58.651 E0.01417
G1 X45.984 Y58.772 E0.01417
G1 X45.533 Y58.797 E0.01417
G1 X45.086 Y58.723 E0.01417
G1 X44.666 Y58.556 E0.01417
G1 X44.292 Y58.302 E0.01417
G1 X43.981 Y57.974 E0.01417
G1 X43.748 Y57.587 E0.01417
G1 X43.604 Y57.159 E0.01417
G1 X43.555 Y56.709 E0.01417
G1 X43.604 Y56.260 E0.01417
G1 X43.748 Y55.831 E0.01417
G1 X43.981 Y55.444 E0.01417
G1 X44.292 Y55.116 E0.01417
G1 X44.666 Y54.862 E0.01417
G1 X45.086 Y54.695 E0.01417
G1 X45.507 Y54.626 E0.01337
G1 X45.980 Y54.645 E0.01484
G1 X46.419 Y54.767 E0.01430
G1 X46.819 Y54.979 E0.01417
G1 X47.163 Y55.271 E0.01417
G1 X47.437 Y55.631 E0.01417
G1 X47.627 Y56.042 E0.01417
G1 X47.724 Y56.483 E0.01417
G1 X47.724 Y56.935 E0.01417
G1 X47.627 Y57.377 E0.01417
G1 X47.437 Y57.787 E0.01417
G1 X47.200 Y58.099 E0.01229
G1 X46.900 Y57.871 F7200.000
G1 F840
G1 X46.606 Y58.126 E0.01218
G1 X46.279 Y58.299 E0.01160
G1 X45.923 Y58.398 E0.01160
G1 X45.553 Y58.418 E0.01160
G1 X45.188 Y58.358 E0.01160
G1 X44.844 Y58.221 E0.01160
G1 X44.538 Y58.013 E0.01160
G1 X44.283 Y57.745 E0.01160
G1 X44.093 Y57.428 E0.01160
G1 X43.974 Y57.077 E0.01160
G1 X43.934 Y56.709 E0.01160
G1 X43.974 Y56.341 E0.01160
G1 X44.093 Y55.991 E0.01160
G1 X44.283 Y55.674 E0.01160
G1 X44.538 Y55.405 E0.01160
G1 X44.844 Y55.197 E0.01160
G1 X45.188 Y55.060 E0.01160
G1 X45.530 Y55.004 E0.01088
G1 X45.921 Y55.020 E0.01227
G1 X46.279 Y55.119 E0.01165
G1 X46.606 Y55.293 E0.01160
G1 X46.888 Y55.532 E0.01160
G1 X47.112 Y55.827 E0.01160
G1 X47.267 Y56.163 E0.01160
G1 X47.347 Y56.524 E0.01160
G1 X47.347 Y56.894 E0.01160
G1 X47.267 Y57.256 E0.01160
G1 X47.112 Y57.591 E0.01160
G1 X46.936 Y57.823 E0.00913
G1 X47.013 Y58.242 F7200.000
G1 F5760
G1 X46.606 Y58.126 E-0.15499
G1 F5760
G1 X46.279 Y58.299 E-0.12816
G1 F5760
G1 X45.923 Y58.398 E-0.12816
G1 F5760
G1 X45.553 Y58.418 E-0.12816
G1 F5760
G1 X45.188 Y58.358 E-0.12816
G1 F5760
G1 X44.940 Y58.259 E-0.09236
G1 E-0.04000 F2100.00000
G1 X52.292 Y50.302 F7200.000
G1 E0.80000 F2100.00000
G1 F840
G1 X51.981 Y49.974 E0.01417
G1 X51.748 Y49.587 E0.01417
G1 X51.604 Y49.159 E0.01417
G1 X51.555 Y48.709 E0.01417
G1 X51.604 Y48.260 E0.01417
G1 X51.748 Y47.831 E0.01417
G1 X51.981 Y47.444 E0.01417
G1 X52.292 Y47.116 E0.01417
G1 X52.666 Y46.862 E0.01417
G1 X53.086 Y46.695 E0.01417
G1 X53.507 Y46.626 E0.01337
G1 X53.980 Y46.645 E0.01484
G1 X54.419 Y46.767 E0.01430
G1 X54.819 Y46.979 E0.01417
G1 X55.163 Y47.271 E0.01417
G1 X55.437 Y47.631 E0.01417
G1 X55.627 Y48.042 E0.01417
G1 X55.724 Y48.483 E0.01417
G1 X55.724 Y48.935 E0.01417
G1 X55.627 Y49.377 E0.01417
G1 X55.437 Y49.787 E0.01417
G1 X55.163 Y50.147 E0.01417
G1 X54.819 Y50.439 E0.01417
G1 X54.419 Y50.651 E0.01417
G1 X53.984 Y50.772 E0.01417
G1 X53.533 Y50.797 E0.01417
G1 X53.112 Y50.728 E0.01337
G1 X52.670 Y50.558 E0.01484
G1 X52.342 Y50.336 E0.01242
G1 X52.554 Y50.024 F7200.000
G1 F840
G1 X52.283 Y49.745 E0.01218
G1 X52.093 Y49.428 E0.01160
G1 X51.974 Y49.077 E0.01160
G1 X51.934 Y48.709 E0.01160
G1 X51.974 Y48.341 E0.01160
G1 X52.093 Y47.991 E0.01160
G1 X52.283 Y47.674 E0.01160
G1 X52.538 Y47.405 E0.01160
G1 X52.844 Y47.197 E0.01160
G1 X53.188 Y47.060 E0.01160
G1 X53.530 Y47.004 E0.01088
G1 X53.921 Y47.020 E0.01227
G1 X54.279 Y47.119 E0.01165
G1 X54.606 Y47.293 E0.01160
G1 X54.888 Y47.532 E0.01160
G1 X55.112 Y47.827 E0.01160
G1 X55.267 Y48.163 E0.01160
G1 X55.347 Y48.524 E0.01160
G1 X55.347 Y48.894 E0.01160
G1 X55.267 Y49.256 E0.01160
G1 X55.112 Y49.591 E0.01160
G1 X54.888 Y49.886 E0.01160
G1 X54.606 Y50.126 E0.01160
G1 X54.279 Y50.299 E0.01160
G1 X53.923 Y50.398 E0.01160
G1 X53.553 Y50.418 E0.01160
G1 X53.211 Y50.362 E0.01088
G1 X52.845 Y50.222 E0.01227
G1 X52.603 Y50.058 E0.00917
G1 X52.189 Y50.159 F7200.000
G1 F5760
G1 X52.283 Y49.745 E-0.15499
G1 F5760
G1 X52.093 Y49.428 E-0.12816
G1 F5760
G1 X51.974 Y49.077 E-0.12816
G1 F5760
G1 X51.934 Y48.709 E-0.12816
G1 F5760
G1 X51.974 Y48.341 E-0.12816
G1 F5760
G1 X52.060 Y48.089 E-0.09236
G1 E-0.04000 F2100.00000
G1 X59.981 Y55.444 F7200.000
G1 E0.80000 F2100.00000
G1 F840
G1 X60.292 Y55.116 E0.01417
G1 X60.666 Y54.862 E0.01417
G1 X61.086 Y54.695 E0.01417
G1 X61.507 Y54.626 E0.01337
G1 X61.980 Y54.645 E0.01484
G1 X62.419 Y54.767 E0.01430
G1 X62.819 Y54.979 E0.01417
G1 X63.163 Y55.271 E0.01417
G1 X63.437 Y55.631 E0.01417
G1 X63.627 Y56.042 E0.01417
G1 X63.724 Y56.483 E0.01417
G1 X63.724 Y56.935 E0.01417
G1 X63.627 Y57.377 E0.01417
G1 X63.437 Y57.787 E0.01417
G1 X63.163 Y58.147 E0.01417
G1 X62.819 Y58.439 E0.01417
G1 X62.419 Y58.651 E0.01417
G1 X61.984 Y58.772 E0.01417
G1 X61.533 Y58.797 E0.01417
G1 X61.086 Y58.723 E0.01417
G1 X60.666 Y58.556 E0.01417
G1 X60.292 Y58.302 E0.01417
G1 X59.981 Y57.974 E0.01417
G1 X59.748 Y57.587 E0.01417
G1 X59.604 Y57.159 E0.01417
G1 X59.555 Y56.709 E0.01417
G1 X59.604 Y56.260 E0.01417
G1 X59.748 Y55.831 E0.01417
G1 X59.951 Y55.495 E0.01229
G1 X60.274 Y55.690 F7200.000
G1 F840
G1 X60.538 Y55.405 E0.01218
G1 X60.844 Y55.197 E0.01160
G1 X61.188 Y55.060 E0.01160
G1 X61.530 Y55.004 E0.01088
G1 X61.921 Y55.020 E0.01227
