; generated by Slic3r 1.35.5-prusa3d-win64 on 2017-07-15 at 21:31:31

; 

; external perimeters extrusion width = 0.45mm
; perimeters extrusion width = 0.45mm
; infill extrusion width = 0.45mm
; solid infill extrusion width = 0.45mm
; top infill extrusion width = 0.40mm
; first layer extrusion width = 0.42mm

M107
M115 U3.0.11 ; tell printer latest fw version
M83  ; extruder relative mode
M104 S200 ; set extruder temp
M140 S55 ; set bed temp
M190 S55 ; wait for bed temp
M109 S200 ; wait for extruder temp
G28 W ; home all without mesh bed level
G80 ; mesh bed leveling
G1 Y-3.0 F1000.0 ; go outside pritn area
G1 X60.0 E9.0  F1000.0 ; intro line
G1 X100.0 E12.5  F1000.0 ; intro line
; Filament gcode

G21 ; set units to millimeters
G90 ; use absolute coordinates
M83 ; use relative distances for extrusion
G1 E-0.80000 F2100.00000
G1 Z0.200 F7200.000
G1 X116.154 Y99.195 F7200.000
G1 E0.80000 F2100.00000
M204 S1000
G1 F1628.4
G1 X116.775 Y98.297 E0.03423
G1 X117.206 Y97.934 E0.01766
G1 X117.698 Y97.652 E0.01779
G1 X118.234 Y97.464 E0.01779
G1 X118.794 Y97.376 E0.01779
G1 X131.004 Y97.369 E0.38284
G1 X132.091 Y97.565 E0.03463
G1 X133.039 Y98.124 E0.03450
G1 X133.735 Y98.976 E0.03450
G1 X134.094 Y100.021 E0.03463
G1 X134.123 Y109.731 E0.30448
G1 X133.850 Y110.797 E0.03450
G1 X133.225 Y111.703 E0.03450
G1 X132.751 Y112.096 E0.01930
G1 X132.210 Y112.388 E0.01930
G1 X131.621 Y112.569 E0.01930
G1 X131.005 Y112.631 E0.01943
G1 X118.799 Y112.625 E0.38270
G1 X117.719 Y112.357 E0.03490
G1 X117.231 Y112.084 E0.01752
G1 X116.797 Y111.725 E0.01766
G1 X116.404 Y111.251 E0.01930
G1 X116.112 Y110.710 E0.01930
G1 X115.931 Y110.121 E0.01930
G1 X115.869 Y109.505 E0.01943
G1 X115.879 Y100.247 E0.29028
G1 X116.139 Y99.253 E0.03221
G1 F5760
G1 X116.775 Y98.297 E-0.39770
G1 F5760
G1 X117.206 Y97.934 E-0.19506
G1 F5760
G1 X117.625 Y97.694 E-0.16724
G1 E-0.04000 F2100.00000
G1 X117.888 Y97.980 F7200.000
G1 E0.80000 F2100.00000
G1 F1628.4
G1 X118.844 Y97.750 E0.03082
G1 X131.004 Y97.746 E0.38128
G1 X131.967 Y97.921 E0.03069
G1 X132.811 Y98.425 E0.03082
G1 X133.422 Y99.189 E0.03069
G1 X133.728 Y100.119 E0.03069
G1 X133.747 Y109.693 E0.30017
G1 X133.500 Y110.656 E0.03119
G1 X132.926 Y111.469 E0.03119
G1 X132.112 Y112.020 E0.03082
G1 X131.156 Y112.250 E0.03082
G1 X118.992 Y112.254 E0.38141
G1 X118.450 Y112.199 E0.01707
G1 X117.930 Y112.038 E0.01707
G1 X117.452 Y111.778 E0.01707
G1 X117.031 Y111.426 E0.01720
G1 X116.489 Y110.631 E0.03018
G1 X116.253 Y109.697 E0.03018
G1 X116.246 Y100.492 E0.28863
G1 X116.301 Y99.950 E0.01707
G1 X116.462 Y99.430 E0.01707
G1 X116.722 Y98.952 E0.01707
G1 X117.074 Y98.531 E0.01720
G1 X117.838 Y98.014 E0.02893
G1 F5760
G1 X118.844 Y97.750 E-0.35993
G1 F5760
G1 X119.999 Y97.750 E-0.40007
G1 E-0.04000 F2100.00000
G1 X116.820 Y99.552 F7200.000
G1 E0.80000 F2100.00000
G1 F1628.4
G1 X117.365 Y98.774 E0.02977
G1 X118.069 Y98.313 E0.02637
G1 X118.888 Y98.126 E0.02637
G1 X131.004 Y98.123 E0.37987
G1 X131.842 Y98.277 E0.02673
G1 X132.575 Y98.720 E0.02684
G1 X133.102 Y99.390 E0.02673
G1 X133.359 Y100.206 E0.02684
G1 X133.372 Y109.656 E0.29629
G1 X133.152 Y110.510 E0.02767
G1 X132.635 Y111.226 E0.02767
G1 X131.935 Y111.685 E0.02626
G1 X131.115 Y111.874 E0.02637
G1 X118.985 Y111.877 E0.38034
G1 X118.052 Y111.680 E0.02989
G1 X117.274 Y111.135 E0.02977
G1 X116.821 Y110.449 E0.02579
G1 X116.627 Y109.646 E0.02590
G1 X116.623 Y100.481 E0.28736
G1 X116.808 Y99.611 E0.02789
G1 F5760
G1 X117.365 Y98.774 E-0.34813
G1 F5760
G1 X118.069 Y98.313 E-0.29133
G1 F5760
G1 X118.408 Y98.235 E-0.12054
G1 E-0.04000 F2100.00000
G1 X119.964 Y101.464 F7200.000
G1 E0.80000 F2100.00000
G1 F900
G1 X130.036 Y101.464 E0.31579
G1 X130.036 Y108.536 E0.22173
G1 X119.964 Y108.536 E0.31579
G1 X119.964 Y101.524 E0.21985
G1 X119.587 Y101.087 F7200.000
G1 F900
G1 X130.413 Y101.087 E0.33944
G1 X130.413 Y108.913 E0.24537
G1 X119.587 Y108.913 E0.33944
G1 X119.587 Y101.147 E0.24349
G1 X119.210 Y100.710 F7200.000
G1 F900
G1 X130.790 Y100.710 E0.36308
G1 X130.790 Y109.290 E0.26902
G1 X119.210 Y109.290 E0.36308
G1 X119.210 Y100.770 E0.26714
G1 X119.601 Y100.794 F7200.000
G1 F5760
G1 X121.404 Y100.759 E-0.76000
G1 E-0.04000 F2100.00000
G1 X120.077 Y107.649 F7200.000
G1 E0.80000 F2100.00000
G1 F1302.72
G1 X120.681 Y108.253 E0.02716
G1 X121.222 Y108.253 E0.01720
G1 X120.247 Y107.278 E0.04385
G1 X120.247 Y106.737 E0.01720
G1 X121.763 Y108.253 E0.06817
G1 X122.304 Y108.253 E0.01720
G1 X120.247 Y106.196 E0.09249
G1 X120.247 Y105.656 E0.01720
G1 X122.844 Y108.253 E0.11682
G1 X123.385 Y108.253 E0.01720
G1 X120.247 Y105.115 E0.14114
G1 X120.247 Y104.574 E0.01720
G1 X123.926 Y108.253 E0.16546
G1 X124.467 Y108.253 E0.01720
G1 X120.247 Y104.033 E0.18979
G1 X120.247 Y103.492 E0.01720
G1 X125.008 Y108.253 E0.21411
G1 X125.549 Y108.253 E0.01720
G1 X120.247 Y102.951 E0.23843
G1 X120.247 Y102.410 E0.01720
G1 X126.090 Y108.253 E0.26275
G1 X126.630 Y108.253 E0.01720
G1 X120.247 Y101.870 E0.28708
G1 X120.247 Y101.747 E0.00390
G1 X120.665 Y101.747 E0.01330
G1 X127.171 Y108.253 E0.29259
G1 X127.712 Y108.253 E0.01720
G1 X121.206 Y101.747 E0.29259
G1 X121.747 Y101.747 E0.01720
G1 X128.253 Y108.253 E0.29259
G1 X128.794 Y108.253 E0.01720
G1 X122.288 Y101.747 E0.29259
G1 X122.829 Y101.747 E0.01720
G1 X129.335 Y108.253 E0.29259
G1 X129.753 Y108.253 E0.01330
G1 X129.753 Y108.131 E0.00390
G1 X123.369 Y101.747 E0.28708
G1 X123.910 Y101.747 E0.01720
G1 X129.753 Y107.590 E0.26276
G1 X129.753 Y107.049 E0.01720
G1 X124.451 Y101.747 E0.23844
G1 X124.992 Y101.747 E0.01720
G1 X129.753 Y106.508 E0.21411
G1 X129.753 Y105.967 E0.01720
G1 X125.533 Y101.747 E0.18979
G1 X126.074 Y101.747 E0.01720
G1 X129.753 Y105.426 E0.16547
G1 X129.753 Y104.885 E0.01720
G1 X126.615 Y101.747 E0.14115
G1 X127.155 Y101.747 E0.01720
G1 X129.753 Y104.345 E0.11682
G1 X129.753 Y103.804 E0.01720
G1 X127.696 Y101.747 E0.09250
G1 X128.237 Y101.747 E0.01720
G1 X129.753 Y103.263 E0.06818
G1 X129.753 Y102.722 E0.01720
G1 X128.778 Y101.747 E0.04385
G1 X129.319 Y101.747 E0.01720
G1 X129.923 Y102.351 E0.02716
M106 S255
G1 F5760
G1 X129.319 Y101.747 E-0.29583
G1 F5760
G1 X128.778 Y101.747 E-0.18733
G1 F5760
G1 X129.343 Y102.312 E-0.27685
G1 E-0.04000 F2100.00000
G1 Z0.400 F7200.000
G1 X129.961 Y101.539 F7200.000
G1 E0.80000 F2100.00000
M204 S800
G1 F900
G1 X129.961 Y108.461 E0.23429
G1 X120.039 Y108.461 E0.33584
G1 X120.039 Y101.539 E0.23429
G1 X129.901 Y101.539 E0.33381
M204 S1000
G1 X130.368 Y101.132 F7200.000
M204 S800
G1 F900
G1 X130.368 Y108.868 E0.26185
G1 X119.632 Y108.868 E0.36340
G1 X119.632 Y101.132 E0.26185
G1 X130.308 Y101.132 E0.36136
M204 S1000
G1 X130.775 Y100.725 F7200.000
M204 S800
G1 F900
G1 X130.775 Y109.275 E0.28941
G1 X119.225 Y109.275 E0.39095
G1 X119.225 Y100.725 E0.28941
G1 X130.715 Y100.725 E0.38892
M204 S1000
G1 X130.653 Y101.106 F7200.000
G1 F5760
G1 X130.730 Y102.919 E-0.76000
G1 E-0.04000 F2100.00000
G1 X128.999 Y108.339 F7200.000
G1 E0.80000 F2100.00000
M204 S2000
G1 F907.561
G1 X129.656 Y107.682 E0.03205
G1 X129.656 Y107.095 E0.02026
G1 X128.595 Y108.156 E0.05176
G1 X128.008 Y108.156 E0.02026
G1 X129.656 Y106.508 E0.08042
G1 X129.656 Y105.921 E0.02026
G1 X127.421 Y108.156 E0.10907
G1 X126.834 Y108.156 E0.02026
G1 X129.656 Y105.334 E0.13772
G1 X129.656 Y104.747 E0.02026
G1 X126.247 Y108.156 E0.16637
G1 X125.660 Y108.156 E0.02026
G1 X129.656 Y104.160 E0.19503
G1 X129.656 Y103.573 E0.02026
G1 X125.073 Y108.156 E0.22368
G1 X124.486 Y108.156 E0.02026
G1 X129.656 Y102.986 E0.25233
G1 X129.656 Y102.399 E0.02026
G1 X123.899 Y108.156 E0.28098
G1 X123.312 Y108.156 E0.02026
G1 X129.623 Y101.844 E0.30805
G1 X129.036 Y101.844 E0.02026
G1 X122.725 Y108.156 E0.30805
G1 X122.138 Y108.156 E0.02026
G1 X128.449 Y101.844 E0.30805
G1 X127.862 Y101.844 E0.02026
G1 X121.551 Y108.156 E0.30805
G1 X120.964 Y108.156 E0.02026
G1 X127.275 Y101.844 E0.30805
G1 X126.688 Y101.844 E0.02026
G1 X120.377 Y108.156 E0.30805
G1 X120.344 Y108.156 E0.00112
G1 X120.344 Y107.601 E0.01914
G1 X126.101 Y101.844 E0.28098
G1 X125.514 Y101.844 E0.02026
G1 X120.344 Y107.014 E0.25232
G1 X120.344 Y106.427 E0.02026
G1 X124.927 Y101.844 E0.22367
G1 X124.340 Y101.844 E0.02026
G1 X120.344 Y105.840 E0.19502
G1 X120.344 Y105.253 E0.02026
G1 X123.753 Y101.844 E0.16637
G1 X123.166 Y101.844 E0.02026
G1 X120.344 Y104.666 E0.13771
G1 X120.344 Y104.079 E0.02026
G1 X122.579 Y101.844 E0.10906
G1 X121.992 Y101.844 E0.02026
G1 X120.344 Y103.492 E0.08041
G1 X120.344 Y102.905 E0.02026
G1 X121.405 Y101.844 E0.05176
G1 X120.818 Y101.844 E0.02026
G1 X120.161 Y102.501 E0.03205
M204 S1000
G1 F5760
G1 X120.818 Y101.844 E-0.32160
G1 F5760
G1 X121.405 Y101.844 E-0.20331
G1 F5760
G1 X120.925 Y102.324 E-0.23509
G1 E-0.04000 F2100.00000
G1 Z0.600 F7200.000
G1 X120.039 Y101.539 F7200.000
G1 E0.80000 F2100.00000
M204 S800
G1 F900
G1 X129.961 Y101.539 E0.33584
G1 X129.961 Y108.461 E0.23429
G1 X120.039 Y108.461 E0.33584
G1 X120.039 Y101.599 E0.23226
M204 S1000
G1 X119.632 Y101.132 F7200.000
M204 S800
G1 F900
G1 X130.368 Y101.132 E0.36340
G1 X130.368 Y108.868 E0.26185
G1 X119.632 Y108.868 E0.36340
G1 X119.632 Y101.192 E0.25982
M204 S1000
G1 X119.225 Y100.725 F7200.000
M204 S800
G1 F900
G1 X130.775 Y100.725 E0.39095
G1 X130.775 Y109.275 E0.28941
G1 X119.225 Y109.275 E0.39095
G1 X119.225 Y100.785 E0.28738
M204 S1000
G1 X119.616 Y100.809 F7200.000
G1 F5760
G1 X121.419 Y100.774 E-0.76000
G1 E-0.04000 F2100.00000
G1 X121.001 Y108.339 F7200.000
G1 E0.80000 F2100.00000
M204 S2000
G1 F907.561
G1 X120.344 Y107.682 E0.03205
G1 X120.344 Y107.095 E0.02026
G1 X121.405 Y108.156 E0.05176
G1 X121.992 Y108.156 E0.02026
G1 X120.344 Y106.508 E0.08041
G1 X120.344 Y105.921 E0.02026
G1 X122.579 Y108.156 E0.10906
G1 X123.166 Y108.156 E0.02026
G1 X120.344 Y105.334 E0.13771
G1 X120.344 Y104.747 E0.02026
G1 X123.753 Y108.156 E0.16637
G1 X124.340 Y108.156 E0.02026
G1 X120.344 Y104.160 E0.19502
G1 X120.344 Y103.573 E0.02026
G1 X124.927 Y108.156 E0.22367
G1 X125.514 Y108.156 E0.02026
G1 X120.344 Y102.986 E0.25232
G1 X120.344 Y102.399 E0.02026
G1 X126.101 Y108.156 E0.28098
G1 X126.688 Y108.156 E0.02026
G1 X120.377 Y101.844 E0.30805
G1 X120.964 Y101.844 E0.02026
G1 X127.275 Y108.156 E0.30805
G1 X127.862 Y108.156 E0.02026
G1 X121.551 Y101.844 E0.30805
G1 X122.138 Y101.844 E0.02026
G1 X128.449 Y108.156 E0.30805
G1 X129.036 Y108.156 E0.02026
G1 X122.725 Y101.844 E0.30805
G1 X123.312 Y101.844 E0.02026
G1 X129.623 Y108.156 E0.30805
G1 X129.656 Y108.156 E0.00112
G1 X129.656 Y107.601 E0.01914
G1 X123.899 Y101.844 E0.28098
G1 X124.486 Y101.844 E0.02026
G1 X129.656 Y107.014 E0.25233
G1 X129.656 Y106.427 E0.02026
G1 X125.073 Y101.844 E0.22368
G1 X125.660 Y101.844 E0.02026
G1 X129.656 Y105.840 E0.19503
G1 X129.656 Y105.253 E0.02026
G1 X126.247 Y101.844 E0.16637
G1 X126.834 Y101.844 E0.02026
G1 X129.656 Y104.666 E0.13772
G1 X129.656 Y104.079 E0.02026
G1 X127.421 Y101.844 E0.10907
G1 X128.008 Y101.844 E0.02026
G1 X129.656 Y103.492 E0.08042
G1 X129.656 Y102.905 E0.02026
G1 X128.595 Y101.844 E0.05176
G1 X129.182 Y101.844 E0.02026
G1 X129.839 Y102.501 E0.03205
M204 S1000
G1 F5760
G1 X129.182 Y101.844 E-0.32166
G1 F5760
G1 X128.595 Y101.844 E-0.20331
G1 F5760
G1 X129.075 Y102.324 E-0.23502
G1 E-0.04000 F2100.00000
G1 Z0.800 F7200.000
G1 X129.961 Y101.539 F7200.000
G1 E0.80000 F2100.00000
M204 S800
G1 F900
G1 X129.961 Y108.461 E0.23429
G1 X120.039 Y108.461 E0.33584
G1 X120.039 Y101.539 E0.23429
G1 X129.901 Y101.539 E0.33381
M204 S1000
G1 X130.368 Y101.132 F7200.000
M204 S800
G1 F900
G1 X130.368 Y108.868 E0.26185
G1 X119.632 Y108.868 E0.36340
G1 X119.632 Y101.132 E0.26185
G1 X130.308 Y101.132 E0.36136
M204 S1000
G1 X130.775 Y100.725 F7200.000
M204 S800
G1 F900
G1 X130.775 Y109.275 E0.28941
G1 X119.225 Y109.275 E0.39095
G1 X119.225 Y100.725 E0.28941
G1 X130.715 Y100.725 E0.38892
M204 S1000
G1 X130.653 Y101.106 F7200.000
G1 F5760
G1 X130.730 Y102.919 E-0.76000
G1 E-0.04000 F2100.00000
G1 X128.999 Y108.339 F7200.000
G1 E0.80000 F2100.00000
M204 S2000
G1 F907.561
G1 X129.656 Y107.682 E0.03205
G1 X129.656 Y107.095 E0.02026
G1 X128.595 Y108.156 E0.05176
G1 X128.008 Y108.156 E0.02026
G1 X129.656 Y106.508 E0.08042
G1 X129.656 Y105.921 E0.02026
G1 X127.421 Y108.156 E0.10907
G1 X126.834 Y108.156 E0.02026
G1 X129.656 Y105.334 E0.13772
G1 X129.656 Y104.747 E0.02026
G1 X126.247 Y108.156 E0.16637
G1 X125.660 Y108.156 E0.02026
G1 X129.656 Y104.160 E0.19503
G1 X129.656 Y103.573 E0.02026
G1 X125.073 Y108.156 E0.22368
G1 X124.486 Y108.156 E0.02026
G1 X129.656 Y102.986 E0.25233
G1 X129.656 Y102.399 E0.02026
G1 X123.899 Y108.156 E0.28098
G1 X123.312 Y108.156 E0.02026
G1 X129.623 Y101.844 E0.30805
G1 X129.036 Y101.844 E0.02026
G1 X122.725 Y108.156 E0.30805
G1 X122.138 Y108.156 E0.02026
G1 X128.449 Y101.844 E0.30805
G1 X127.862 Y101.844 E0.02026
G1 X121.551 Y108.156 E0.30805
G1 X120.964 Y108.156 E0.02026
G1 X127.275 Y101.844 E0.30805
G1 X126.688 Y101.844 E0.02026
G1 X120.377 Y108.156 E0.30805
G1 X120.344 Y108.156 E0.00112
G1 X120.344 Y107.601 E0.01914
G1 X126.101 Y101.844 E0.28098
G1 X125.514 Y101.844 E0.02026
G1 X120.344 Y107.014 E0.25232
G1 X120.344 Y106.427 E0.02026
G1 X124.927 Y101.844 E0.22367
G1 X124.340 Y101.844 E0.02026
G1 X120.344 Y105.840 E0.19502
G1 X120.344 Y105.253 E0.02026
G1 X123.753 Y101.844 E0.16637
G1 X123.166 Y101.844 E0.02026
G1 X120.344 Y104.666 E0.13771
G1 X120.344 Y104.079 E0.02026
G1 X122.579 Y101.844 E0.10906
G1 X121.992 Y101.844 E0.02026
G1 X120.344 Y103.492 E0.08041
G1 X120.344 Y102.905 E0.02026
G1 X121.405 Y101.844 E0.05176
G1 X120.818 Y101.844 E0.02026
G1 X120.161 Y102.501 E0.03205
M204 S1000
G1 F5760
G1 X120.818 Y101.844 E-0.32160
G1 F5760
G1 X121.405 Y101.844 E-0.20331
G1 F5760
G1 X120.925 Y102.324 E-0.23509
G1 E-0.04000 F2100.00000
G1 Z1.000 F7200.000
G1 X120.039 Y101.539 F7200.000
G1 E0.80000 F2100.00000
M204 S800
G1 F900
G1 X129.961 Y101.539 E0.33584
G1 X129.961 Y108.461 E0.23429
G1 X120.039 Y108.461 E0.33584
G1 X120.039 Y101.599 E0.23226
M204 S1000
G1 X119.632 Y101.132 F7200.000
M204 S800
G1 F900
G1 X130.368 Y101.132 E0.36340
G1 X130.368 Y108.868 E0.26185
G1 X119.632 Y108.868 E0.36340
G1 X119.632 Y101.192 E0.25982
M204 S1000
G1 X119.225 Y100.725 F7200.000
M204 S800
G1 F900
G1 X130.775 Y100.725 E0.39095
G1 X130.775 Y109.275 E0.28941
G1 X119.225 Y109.275 E0.39095
G1 X119.225 Y100.785 E0.28738
M204 S1000
G1 X119.616 Y100.809 F7200.000
G1 F5760
G1 X121.419 Y100.774 E-0.76000
G1 E-0.04000 F2100.00000
G1 Z1.500 F7200.000
G1 X121.001 Y108.339 F7200.000
G1 Z1.000 F7200.000
G1 E0.80000 F2100.00000
M204 S2000
G1 F907.561
G1 X120.344 Y107.682 E0.03205
G1 X120.344 Y107.095 E0.02026
G1 X121.405 Y108.156 E0.05176
G1 X121.992 Y108.156 E0.02026
G1 X120.344 Y106.508 E0.08041
G1 X120.344 Y105.921 E0.02026
G1 X122.579 Y108.156 E0.10906
G1 X123.166 Y108.156 E0.02026
G1 X120.344 Y105.334 E0.13771
G1 X120.344 Y104.747 E0.02026
G1 X123.753 Y108.156 E0.16637
G1 X124.340 Y108.156 E0.02026
G1 X120.344 Y104.160 E0.19502
G1 X120.344 Y103.573 E0.02026
G1 X124.927 Y108.156 E0.22367
G1 X125.514 Y108.156 E0.02026
G1 X120.344 Y102.986 E0.25232
G1 X120.344 Y102.399 E0.02026
G1 X126.101 Y108.156 E0.28098
G1 X126.688 Y108.156 E0.02026
G1 X120.377 Y101.844 E0.30805
G1 X120.964 Y101.844 E0.02026
G1 X127.275 Y108.156 E0.30805
G1 X127.862 Y108.156 E0.02026
G1 X121.551 Y101.844 E0.30805
G1 X122.138 Y101.844 E0.02026
G1 X128.449 Y108.156 E0.30805
G1 X129.036 Y108.156 E0.02026
G1 X122.725 Y101.844 E0.30805
G1 X123.312 Y101.844 E0.02026
G1 X129.623 Y108.156 E0.30805
G1 X129.656 Y108.156 E0.00112
G1 X129.656 Y107.601 E0.01914
G1 X123.899 Y101.844 E0.28098
G1 X124.486 Y101.844 E0.02026
G1 X129.656 Y107.014 E0.25233
G1 X129.656 Y106.427 E0.02026
G1 X125.073 Y101.844 E0.22368
G1 X125.660 Y101.844 E0.02026
G1 X129.656 Y105.840 E0.19503
G1 X129.656 Y105.253 E0.02026
G1 X126.247 Y101.844 E0.16637
G1 X126.834 Y101.844 E0.02026
G1 X129.656 Y104.666 E0.13772
G1 X129.656 Y104.079 E0.02026
G1 X127.421 Y101.844 E0.10907
G1 X128.008 Y101.844 E0.02026
G1 X129.656 Y103.492 E0.08042
G1 X129.656 Y102.905 E0.02026
G1 X128.595 Y101.844 E0.05176
G1 X129.182 Y101.844 E0.02026
G1 X129.839 Y102.501 E0.03205
M204 S1000
G1 F5760
G1 X129.182 Y101.844 E-0.32166
G1 F5760
