; generated by Slic3r 1.35.5-prusa3d-win64 on 2017-07-15 at 21:42:09

; 

; external perimeters extrusion width = 0.45mm
; perimeters extrusion width = 0.45mm
; infill extrusion width = 0.45mm
; solid infill extrusion width = 0.45mm
; top infill extrusion width = 0.40mm
; first layer extrusion width = 0.42mm

M107
M115 U3.0.11 ; tell printer latest fw version
M83  ; extruder relative mode
M104 S200 ; set extruder temp
M140 S55 ; set bed temp
M190 S55 ; wait for bed temp
M109 S200 ; wait for extruder temp
G28 W ; home all without mesh bed level
G80 ; mesh bed leveling
G1 Y-3.0 F1000.0 ; go outside pritn area
G1 X60.0 E9.0  F1000.0 ; intro line
G1 X100.0 E12.5  F1000.0 ; intro line
; Filament gcode

G21 ; set units to millimeters
G90 ; use absolute coordinates
M83 ; use relative distances for extrusion
G1 E-0.80000 F2100.00000
G1 Z0.200 F7200.000
G1 X141.887 Y90.994 F7200.000
G1 E0.80000 F2100.00000
M204 S1000
G1 F2100
G1 X142.493 Y91.828 E0.03233
G1 X142.749 Y92.827 E0.03233
G1 X142.753 Y117.094 E0.76088
G1 X142.677 Y117.646 E0.01745
G1 X142.493 Y118.171 E0.01745
G1 X142.209 Y118.645 E0.01733
G1 X141.833 Y119.056 E0.01745
G1 X141.010 Y119.562 E0.03031
G1 X140.062 Y119.753 E0.03031
G1 X109.984 Y119.754 E0.94309
G1 X109.410 Y119.690 E0.01809
G1 X108.866 Y119.510 E0.01796
G1 X108.371 Y119.221 E0.01796
G1 X107.944 Y118.833 E0.01809
G1 X107.459 Y118.063 E0.02854
G1 X107.252 Y117.177 E0.02854
G1 X107.246 Y107.951 E0.28928
G1 X107.314 Y107.390 E0.01771
G1 X107.497 Y106.851 E0.01784
G1 X107.784 Y106.365 E0.01771
G1 X108.167 Y105.944 E0.01784
G1 X126.243 Y90.879 E0.73780
G1 X126.782 Y90.530 E0.02014
G1 X127.347 Y90.324 E0.01886
G1 X127.940 Y90.246 E0.01873
G1 X140.004 Y90.246 E0.37827
G1 X141.017 Y90.440 E0.03233
G1 X141.836 Y90.962 E0.03045
G1 X141.634 Y91.274 F7200.000
G1 F2100
G1 X142.156 Y91.999 E0.02802
G1 X142.373 Y92.866 E0.02802
G1 X142.376 Y117.072 E0.75898
G1 X142.152 Y118.010 E0.03024
G1 X141.570 Y118.785 E0.03036
G1 X140.861 Y119.216 E0.02602
G1 X140.047 Y119.377 E0.02602
G1 X109.985 Y119.377 E0.94257
G1 X109.486 Y119.321 E0.01574
G1 X109.014 Y119.163 E0.01562
G1 X108.585 Y118.910 E0.01562
G1 X108.215 Y118.570 E0.01574
G1 X107.801 Y117.903 E0.02461
G1 X107.627 Y117.134 E0.02473
G1 X107.623 Y107.958 E0.28771
G1 X107.683 Y107.467 E0.01550
G1 X107.842 Y107.003 E0.01538
G1 X108.095 Y106.579 E0.01550
G1 X108.430 Y106.215 E0.01550
G1 X126.484 Y91.169 E0.73689
G1 X126.946 Y90.869 E0.01728
G1 X127.439 Y90.690 E0.01645
G1 X127.956 Y90.623 E0.01633
G1 X140.004 Y90.623 E0.37775
G1 X140.881 Y90.792 E0.02802
G1 X141.583 Y91.241 E0.02614
G1 F5760
G1 X142.156 Y91.999 E-0.32890
G1 F5760
G1 X142.373 Y92.866 E-0.30949
G1 F5760
G1 X142.373 Y93.217 E-0.12161
G1 E-0.04000 F2100.00000
G1 X121.036 Y108.964 F7200.000
G1 E0.80000 F2100.00000
G1 F840
G1 X121.036 Y116.036 E0.22173
G1 X110.964 Y116.036 E0.31579
G1 X110.964 Y108.964 E0.22173
G1 X120.976 Y108.964 E0.31391
G1 X121.413 Y108.587 F7200.000
G1 F840
G1 X121.413 Y116.413 E0.24537
G1 X110.587 Y116.413 E0.33944
G1 X110.587 Y108.587 E0.24537
G1 X121.353 Y108.587 E0.33756
G1 X121.790 Y108.210 F7200.000
G1 F840
G1 X121.790 Y116.790 E0.26902
G1 X110.210 Y116.790 E0.36308
G1 X110.210 Y108.210 E0.26902
G1 X121.730 Y108.210 E0.36120
G1 X121.668 Y108.591 F7200.000
G1 F5760
G1 X121.745 Y110.404 E-0.76000
G1 E-0.04000 F2100.00000
G1 X120.923 Y109.851 F7200.000
G1 E0.80000 F2100.00000
G1 F1680
G1 X120.319 Y109.247 E0.02716
G1 X119.778 Y109.247 E0.01720
G1 X120.753 Y110.222 E0.04385
G1 X120.753 Y110.763 E0.01720
G1 X119.237 Y109.247 E0.06818
G1 X118.696 Y109.247 E0.01720
G1 X120.753 Y111.304 E0.09250
G1 X120.753 Y111.845 E0.01720
G1 X118.155 Y109.247 E0.11682
G1 X117.615 Y109.247 E0.01720
G1 X120.753 Y112.385 E0.14115
G1 X120.753 Y112.926 E0.01720
G1 X117.074 Y109.247 E0.16547
G1 X116.533 Y109.247 E0.01720
G1 X120.753 Y113.467 E0.18979
G1 X120.753 Y114.008 E0.01720
G1 X115.992 Y109.247 E0.21411
G1 X115.451 Y109.247 E0.01720
G1 X120.753 Y114.549 E0.23844
G1 X120.753 Y115.090 E0.01720
G1 X114.910 Y109.247 E0.26276
G1 X114.369 Y109.247 E0.01720
G1 X120.753 Y115.631 E0.28708
G1 X120.753 Y115.753 E0.00390
G1 X120.335 Y115.753 E0.01330
G1 X113.829 Y109.247 E0.29259
G1 X113.288 Y109.247 E0.01720
G1 X119.794 Y115.753 E0.29259
G1 X119.253 Y115.753 E0.01720
G1 X112.747 Y109.247 E0.29259
G1 X112.206 Y109.247 E0.01720
G1 X118.712 Y115.753 E0.29259
G1 X118.171 Y115.753 E0.01720
G1 X111.665 Y109.247 E0.29259
G1 X111.247 Y109.247 E0.01330
G1 X111.247 Y109.370 E0.00390
G1 X117.630 Y115.753 E0.28708
G1 X117.090 Y115.753 E0.01720
G1 X111.247 Y109.910 E0.26275
G1 X111.247 Y110.451 E0.01720
G1 X116.549 Y115.753 E0.23843
G1 X116.008 Y115.753 E0.01720
G1 X111.247 Y110.992 E0.21411
G1 X111.247 Y111.533 E0.01720
G1 X115.467 Y115.753 E0.18979
G1 X114.926 Y115.753 E0.01720
G1 X111.247 Y112.074 E0.16546
G1 X111.247 Y112.615 E0.01720
G1 X114.385 Y115.753 E0.14114
G1 X113.844 Y115.753 E0.01720
G1 X111.247 Y113.156 E0.11682
G1 X111.247 Y113.696 E0.01720
G1 X113.304 Y115.753 E0.09249
G1 X112.763 Y115.753 E0.01720
G1 X111.247 Y114.237 E0.06817
G1 X111.247 Y114.778 E0.01720
G1 X112.222 Y115.753 E0.04385
G1 X111.681 Y115.753 E0.01720
G1 X111.077 Y115.149 E0.02716
G1 F5760
G1 X111.681 Y115.753 E-0.29576
G1 F5760
G1 X112.222 Y115.753 E-0.18733
G1 F5760
G1 X111.657 Y115.188 E-0.27691
G1 E-0.04000 F2100.00000
G1 X128.964 Y116.036 F7200.000
G1 E0.80000 F2100.00000
G1 F840
G1 X128.964 Y108.964 E0.22173
G1 X139.036 Y108.964 E0.31579
G1 X139.036 Y116.036 E0.22173
G1 X129.024 Y116.036 E0.31391
G1 X128.587 Y116.413 F7200.000
G1 F840
G1 X128.587 Y108.587 E0.24537
G1 X139.413 Y108.587 E0.33944
G1 X139.413 Y116.413 E0.24537
G1 X128.647 Y116.413 E0.33756
G1 X128.210 Y116.790 F7200.000
G1 F840
G1 X128.210 Y108.210 E0.26902
G1 X139.790 Y108.210 E0.36308
G1 X139.790 Y116.790 E0.26902
G1 X128.270 Y116.790 E0.36120
G1 X128.332 Y116.409 F7200.000
G1 F5760
G1 X128.255 Y114.596 E-0.76000
G1 E-0.04000 F2100.00000
G1 X129.077 Y115.149 F7200.000
G1 E0.80000 F2100.00000
G1 F1680
G1 X129.681 Y115.753 E0.02716
G1 X130.222 Y115.753 E0.01720
G1 X129.247 Y114.778 E0.04385
G1 X129.247 Y114.237 E0.01720
G1 X130.763 Y115.753 E0.06817
G1 X131.304 Y115.753 E0.01720
G1 X129.247 Y113.696 E0.09249
G1 X129.247 Y113.156 E0.01720
G1 X131.844 Y115.753 E0.11682
G1 X132.385 Y115.753 E0.01720
G1 X129.247 Y112.615 E0.14114
G1 X129.247 Y112.074 E0.01720
G1 X132.926 Y115.753 E0.16546
G1 X133.467 Y115.753 E0.01720
G1 X129.247 Y111.533 E0.18979
G1 X129.247 Y110.992 E0.01720
G1 X134.008 Y115.753 E0.21411
G1 X134.549 Y115.753 E0.01720
G1 X129.247 Y110.451 E0.23843
G1 X129.247 Y109.910 E0.01720
G1 X135.090 Y115.753 E0.26275
G1 X135.630 Y115.753 E0.01720
G1 X129.247 Y109.370 E0.28708
G1 X129.247 Y109.247 E0.00390
G1 X129.665 Y109.247 E0.01330
G1 X136.171 Y115.753 E0.29259
G1 X136.712 Y115.753 E0.01720
G1 X130.206 Y109.247 E0.29259
G1 X130.747 Y109.247 E0.01720
G1 X137.253 Y115.753 E0.29259
G1 X137.794 Y115.753 E0.01720
G1 X131.288 Y109.247 E0.29259
G1 X131.829 Y109.247 E0.01720
G1 X138.335 Y115.753 E0.29259
G1 X138.753 Y115.753 E0.01330
G1 X138.753 Y115.631 E0.00390
G1 X132.369 Y109.247 E0.28708
G1 X132.910 Y109.247 E0.01720
G1 X138.753 Y115.090 E0.26276
G1 X138.753 Y114.549 E0.01720
G1 X133.451 Y109.247 E0.23844
G1 X133.992 Y109.247 E0.01720
G1 X138.753 Y114.008 E0.21411
G1 X138.753 Y113.467 E0.01720
G1 X134.533 Y109.247 E0.18979
G1 X135.074 Y109.247 E0.01720
G1 X138.753 Y112.926 E0.16547
G1 X138.753 Y112.385 E0.01720
G1 X135.615 Y109.247 E0.14115
G1 X136.155 Y109.247 E0.01720
G1 X138.753 Y111.845 E0.11682
G1 X138.753 Y111.304 E0.01720
G1 X136.696 Y109.247 E0.09250
G1 X137.237 Y109.247 E0.01720
G1 X138.753 Y110.763 E0.06818
G1 X138.753 Y110.222 E0.01720
G1 X137.778 Y109.247 E0.04385
G1 X138.319 Y109.247 E0.01720
G1 X138.923 Y109.851 E0.02716
G1 F5760
G1 X138.319 Y109.247 E-0.29583
G1 F5760
G1 X137.778 Y109.247 E-0.18733
G1 F5760
G1 X138.343 Y109.812 E-0.27685
G1 E-0.04000 F2100.00000
G1 X138.923 Y101.036 F7200.000
G1 E0.80000 F2100.00000
G1 F840
G1 X128.964 Y101.036 E0.31224
G1 X128.964 Y93.964 E0.22173
G1 X139.036 Y93.964 E0.31579
G1 X139.036 Y101.036 E0.22173
G1 X138.983 Y101.036 E0.00166
G1 X139.413 Y101.413 F7200.000
G1 F840
G1 X128.587 Y101.413 E0.33944
G1 X128.587 Y93.587 E0.24537
G1 X139.413 Y93.587 E0.33944
G1 X139.413 Y101.353 E0.24349
G1 X139.790 Y101.790 F7200.000
G1 F840
G1 X128.210 Y101.790 E0.36308
G1 X128.210 Y93.210 E0.26902
G1 X139.790 Y93.210 E0.36308
G1 X139.790 Y101.730 E0.26714
G1 X139.399 Y101.706 F7200.000
G1 F5760
G1 X137.596 Y101.741 E-0.76000
G1 E-0.04000 F2100.00000
G1 X138.923 Y94.851 F7200.000
G1 E0.80000 F2100.00000
G1 F1680
G1 X138.319 Y94.247 E0.02716
G1 X137.778 Y94.247 E0.01720
G1 X138.753 Y95.222 E0.04385
G1 X138.753 Y95.763 E0.01720
G1 X137.237 Y94.247 E0.06818
G1 X136.696 Y94.247 E0.01720
G1 X138.753 Y96.304 E0.09250
G1 X138.753 Y96.845 E0.01720
G1 X136.155 Y94.247 E0.11682
G1 X135.615 Y94.247 E0.01720
G1 X138.753 Y97.385 E0.14115
G1 X138.753 Y97.926 E0.01720
G1 X135.074 Y94.247 E0.16547
G1 X134.533 Y94.247 E0.01720
G1 X138.753 Y98.467 E0.18979
G1 X138.753 Y99.008 E0.01720
G1 X133.992 Y94.247 E0.21411
G1 X133.451 Y94.247 E0.01720
G1 X138.753 Y99.549 E0.23844
G1 X138.753 Y100.090 E0.01720
G1 X132.910 Y94.247 E0.26276
G1 X132.369 Y94.247 E0.01720
G1 X138.753 Y100.631 E0.28708
G1 X138.753 Y100.753 E0.00390
G1 X138.335 Y100.753 E0.01330
G1 X131.829 Y94.247 E0.29259
G1 X131.288 Y94.247 E0.01720
G1 X137.794 Y100.753 E0.29259
G1 X137.253 Y100.753 E0.01720
G1 X130.747 Y94.247 E0.29259
G1 X130.206 Y94.247 E0.01720
G1 X136.712 Y100.753 E0.29259
G1 X136.171 Y100.753 E0.01720
G1 X129.665 Y94.247 E0.29259
G1 X129.247 Y94.247 E0.01330
G1 X129.247 Y94.370 E0.00390
G1 X135.630 Y100.753 E0.28708
G1 X135.090 Y100.753 E0.01720
G1 X129.247 Y94.910 E0.26275
G1 X129.247 Y95.451 E0.01720
G1 X134.549 Y100.753 E0.23843
G1 X134.008 Y100.753 E0.01720
G1 X129.247 Y95.992 E0.21411
G1 X129.247 Y96.533 E0.01720
G1 X133.467 Y100.753 E0.18979
G1 X132.926 Y100.753 E0.01720
G1 X129.247 Y97.074 E0.16546
G1 X129.247 Y97.615 E0.01720
G1 X132.385 Y100.753 E0.14114
G1 X131.844 Y100.753 E0.01720
G1 X129.247 Y98.156 E0.11682
G1 X129.247 Y98.696 E0.01720
G1 X131.304 Y100.753 E0.09249
G1 X130.763 Y100.753 E0.01720
G1 X129.247 Y99.237 E0.06817
G1 X129.247 Y99.778 E0.01720
G1 X130.222 Y100.753 E0.04385
G1 X129.681 Y100.753 E0.01720
G1 X129.077 Y100.149 E0.02716
M106 S252.45
G1 F5760
G1 X129.681 Y100.753 E-0.29576
G1 F5760
G1 X130.222 Y100.753 E-0.18733
G1 F5760
G1 X129.657 Y100.188 E-0.27691
G1 E-0.04000 F2100.00000
G1 Z0.400 F7200.000
G1 X120.961 Y109.039 F7200.000
G1 E0.80000 F2100.00000
M204 S800
G1 F1200
G1 X120.961 Y115.961 E0.23429
G1 X111.039 Y115.961 E0.33584
G1 X111.039 Y109.039 E0.23429
G1 X120.901 Y109.039 E0.33381
M204 S1000
G1 X121.368 Y108.632 F7200.000
M204 S800
G1 F1200
G1 X121.368 Y116.368 E0.26185
G1 X110.632 Y116.368 E0.36340
G1 X110.632 Y108.632 E0.26185
G1 X121.308 Y108.632 E0.36136
M204 S1000
G1 X121.775 Y108.225 F7200.000
M204 S800
G1 F1200
G1 X121.775 Y116.775 E0.28941
G1 X110.225 Y116.775 E0.39095
G1 X110.225 Y108.225 E0.28941
G1 X121.715 Y108.225 E0.38892
M204 S1000
G1 X121.653 Y108.606 F7200.000
G1 F5760
G1 X121.730 Y110.419 E-0.76000
G1 E-0.04000 F2100.00000
G1 X119.999 Y115.839 F7200.000
G1 E0.80000 F2100.00000
M204 S2000
G1 F2400
G1 X120.656 Y115.182 E0.03205
G1 X120.656 Y114.595 E0.02026
G1 X119.595 Y115.656 E0.05176
G1 X119.008 Y115.656 E0.02026
G1 X120.656 Y114.008 E0.08042
G1 X120.656 Y113.421 E0.02026
G1 X118.421 Y115.656 E0.10907
G1 X117.834 Y115.656 E0.02026
G1 X120.656 Y112.834 E0.13772
G1 X120.656 Y112.247 E0.02026
G1 X117.247 Y115.656 E0.16637
G1 X116.660 Y115.656 E0.02026
G1 X120.656 Y111.660 E0.19503
G1 X120.656 Y111.073 E0.02026
G1 X116.073 Y115.656 E0.22368
G1 X115.486 Y115.656 E0.02026
G1 X120.656 Y110.486 E0.25233
G1 X120.656 Y109.899 E0.02026
G1 X114.899 Y115.656 E0.28098
G1 X114.312 Y115.656 E0.02026
G1 X120.623 Y109.344 E0.30805
G1 X120.036 Y109.344 E0.02026
G1 X113.725 Y115.656 E0.30805
G1 X113.138 Y115.656 E0.02026
G1 X119.449 Y109.344 E0.30805
G1 X118.862 Y109.344 E0.02026
G1 X112.551 Y115.656 E0.30805
G1 X111.964 Y115.656 E0.02026
G1 X118.275 Y109.344 E0.30805
G1 X117.688 Y109.344 E0.02026
G1 X111.377 Y115.656 E0.30805
G1 X111.344 Y115.656 E0.00112
G1 X111.344 Y115.101 E0.01914
G1 X117.101 Y109.344 E0.28098
G1 X116.514 Y109.344 E0.02026
G1 X111.344 Y114.514 E0.25232
G1 X111.344 Y113.927 E0.02026
G1 X115.927 Y109.344 E0.22367
G1 X115.340 Y109.344 E0.02026
G1 X111.344 Y113.340 E0.19502
G1 X111.344 Y112.753 E0.02026
G1 X114.753 Y109.344 E0.16637
G1 X114.166 Y109.344 E0.02026
G1 X111.344 Y112.166 E0.13771
G1 X111.344 Y111.579 E0.02026
G1 X113.579 Y109.344 E0.10906
G1 X112.992 Y109.344 E0.02026
G1 X111.344 Y110.992 E0.08041
G1 X111.344 Y110.405 E0.02026
G1 X112.405 Y109.344 E0.05176
G1 X111.818 Y109.344 E0.02026
G1 X111.161 Y110.001 E0.03205
M204 S1000
G1 F5760
G1 X111.818 Y109.344 E-0.32160
G1 F5760
G1 X112.405 Y109.344 E-0.20331
G1 F5760
G1 X111.925 Y109.824 E-0.23509
G1 E-0.04000 F2100.00000
G1 X129.039 Y109.039 F7200.000
G1 E0.80000 F2100.00000
M204 S800
G1 F1200
G1 X138.961 Y109.039 E0.33584
G1 X138.961 Y115.961 E0.23429
G1 X129.039 Y115.961 E0.33584
G1 X129.039 Y109.099 E0.23226
M204 S1000
G1 X128.632 Y108.632 F7200.000
M204 S800
G1 F1200
G1 X139.368 Y108.632 E0.36340
G1 X139.368 Y116.368 E0.26185
G1 X128.632 Y116.368 E0.36340
G1 X128.632 Y108.692 E0.25982
M204 S1000
G1 X128.225 Y108.225 F7200.000
M204 S800
G1 F1200
G1 X139.775 Y108.225 E0.39095
G1 X139.775 Y116.775 E0.28941
G1 X128.225 Y116.775 E0.39095
G1 X128.225 Y108.285 E0.28738
M204 S1000
G1 X128.616 Y108.309 F7200.000
G1 F5760
G1 X130.419 Y108.274 E-0.76000
G1 E-0.04000 F2100.00000
G1 X129.161 Y110.001 F7200.000
G1 E0.80000 F2100.00000
M204 S2000
G1 F2400
G1 X129.818 Y109.344 E0.03205
G1 X130.405 Y109.344 E0.02026
G1 X129.344 Y110.405 E0.05176
G1 X129.344 Y110.992 E0.02026
G1 X130.992 Y109.344 E0.08041
G1 X131.579 Y109.344 E0.02026
G1 X129.344 Y111.579 E0.10906
G1 X129.344 Y112.166 E0.02026
G1 X132.166 Y109.344 E0.13771
G1 X132.753 Y109.344 E0.02026
G1 X129.344 Y112.753 E0.16637
G1 X129.344 Y113.340 E0.02026
G1 X133.340 Y109.344 E0.19502
G1 X133.927 Y109.344 E0.02026
G1 X129.344 Y113.927 E0.22367
G1 X129.344 Y114.514 E0.02026
G1 X134.514 Y109.344 E0.25232
G1 X135.101 Y109.344 E0.02026
G1 X129.344 Y115.101 E0.28098
G1 X129.344 Y115.656 E0.01914
G1 X129.377 Y115.656 E0.00112
G1 X135.688 Y109.344 E0.30805
G1 X136.275 Y109.344 E0.02026
G1 X129.964 Y115.656 E0.30805
G1 X130.551 Y115.656 E0.02026
G1 X136.862 Y109.344 E0.30805
G1 X137.449 Y109.344 E0.02026
G1 X131.138 Y115.656 E0.30805
G1 X131.725 Y115.656 E0.02026
G1 X138.036 Y109.344 E0.30805
G1 X138.623 Y109.344 E0.02026
G1 X132.312 Y115.656 E0.30805
G1 X132.899 Y115.656 E0.02026
G1 X138.656 Y109.899 E0.28098
G1 X138.656 Y110.486 E0.02026
G1 X133.486 Y115.656 E0.25233
G1 X134.073 Y115.656 E0.02026
G1 X138.656 Y111.073 E0.22368
G1 X138.656 Y111.660 E0.02026
G1 X134.660 Y115.656 E0.19503
G1 X135.247 Y115.656 E0.02026
G1 X138.656 Y112.247 E0.16637
G1 X138.656 Y112.834 E0.02026
G1 X135.834 Y115.656 E0.13772
G1 X136.421 Y115.656 E0.02026
G1 X138.656 Y113.421 E0.10907
G1 X138.656 Y114.008 E0.02026
G1 X137.008 Y115.656 E0.08042
G1 X137.595 Y115.656 E0.02026
G1 X138.656 Y114.595 E0.05176
G1 X138.656 Y115.182 E0.02026
G1 X137.999 Y115.839 E0.03205
M204 S1000
G1 F5760
G1 X138.656 Y115.182 E-0.32166
G1 F5760
G1 X138.656 Y114.595 E-0.20331
G1 F5760
G1 X138.176 Y115.075 E-0.23502
G1 E-0.04000 F2100.00000
G1 X138.961 Y100.961 F7200.000
G1 E0.80000 F2100.00000
M204 S800
G1 F1200
G1 X129.039 Y100.961 E0.33584
G1 X129.039 Y94.039 E0.23429
G1 X138.961 Y94.039 E0.33584
G1 X138.961 Y100.901 E0.23226
M204 S1000
G1 X139.368 Y101.368 F7200.000
M204 S800
G1 F1200
G1 X128.632 Y101.368 E0.36340
G1 X128.632 Y93.632 E0.26185
G1 X139.368 Y93.632 E0.36340
G1 X139.368 Y101.308 E0.25982
M204 S1000
G1 X139.775 Y101.775 F7200.000
M204 S800
G1 F1200
G1 X128.225 Y101.775 E0.39095
G1 X128.225 Y93.225 E0.28941
G1 X139.775 Y93.225 E0.39095
G1 X139.775 Y101.715 E0.28738
M204 S1000
G1 X139.384 Y101.691 F7200.000
G1 F5760
G1 X137.581 Y101.726 E-0.76000
