; generated by Slic3r 1.35.5-prusa3d-win64 on 2017-07-16 at 03:31:45

; 

; external perimeters extrusion width = 0.45mm
; perimeters extrusion width = 0.45mm
; infill extrusion width = 0.45mm
; solid infill extrusion width = 0.45mm
; top infill extrusion width = 0.40mm
; first layer extrusion width = 0.42mm

M107
M115 U3.0.11 ; tell printer latest fw version
M83  ; extruder relative mode
M104 S200 ; set extruder temp
M140 S55 ; set bed temp
M190 S55 ; wait for bed temp
M109 S200 ; wait for extruder temp
G28 W ; home all without mesh bed level
G80 ; mesh bed leveling
G1 Y-3.0 F1000.0 ; go outside pritn area
G1 X60.0 E9.0  F1000.0 ; intro line
G1 X100.0 E12.5  F1000.0 ; intro line
; Filament gcode

G21 ; set units to millimeters
G90 ; use absolute coordinates
M83 ; use relative distances for extrusion
G1 E-0.80000 F2100.00000
G1 Z0.200 F7200.000
G1 X104.255 Y87.719 F7200.000
G1 E0.80000 F2100.00000
M204 S1000
G1 F2100
G1 X104.613 Y87.054 E0.02367
G1 X104.956 Y86.693 E0.01562
G1 X108.092 Y84.085 E0.12790
G1 X108.652 Y83.779 E0.02000
G1 X109.273 Y83.634 E0.02000
G1 X140.504 Y83.623 E0.97921
G1 X141.198 Y83.728 E0.02201
G1 X141.831 Y84.031 E0.02201
G1 X145.045 Y86.694 E0.13086
G1 X145.592 Y87.371 E0.02731
G1 X145.859 Y88.205 E0.02743
G1 X145.877 Y121.530 E1.04491
G1 X145.746 Y122.278 E0.02378
G1 X145.387 Y122.946 E0.02378
G1 X145.044 Y123.307 E0.01562
G1 X141.899 Y125.922 E0.12826
G1 X141.323 Y126.230 E0.02048
G1 X140.685 Y126.370 E0.02048
G1 X109.466 Y126.377 E0.97885
G1 X108.719 Y126.245 E0.02378
G1 X108.051 Y125.885 E0.02378
G1 X104.768 Y123.128 E0.13443
G1 X104.332 Y122.475 E0.02461
G1 X104.132 Y121.712 E0.02473
G1 X104.123 Y88.466 E1.04241
G1 X104.245 Y87.778 E0.02190
G1 F5760
G1 X104.613 Y87.054 E-0.28123
G1 F5760
G1 X104.956 Y86.693 E-0.17251
G1 F5760
G1 X105.636 Y86.127 E-0.30627
G1 E-0.04000 F2100.00000
G1 X133.033 Y118.124 F7200.000
G1 E0.80000 F2100.00000
G1 F840
G1 X133.423 Y117.786 E0.01620
G1 X133.873 Y117.526 E0.01630
G1 X134.373 Y117.356 E0.01655
G1 X134.871 Y117.285 E0.01576
G1 X135.387 Y117.309 E0.01620
G1 X135.889 Y117.431 E0.01620
G1 X136.359 Y117.646 E0.01620
G1 X136.780 Y117.945 E0.01620
G1 X137.137 Y118.320 E0.01620
G1 X137.416 Y118.754 E0.01620
G1 X137.608 Y119.234 E0.01620
G1 X137.706 Y119.742 E0.01620
G1 X137.706 Y120.258 E0.01620
G1 X137.608 Y120.766 E0.01620
G1 X137.416 Y121.246 E0.01620
G1 X137.137 Y121.680 E0.01620
G1 X136.780 Y122.055 E0.01620
G1 X136.359 Y122.354 E0.01620
G1 X135.889 Y122.569 E0.01620
G1 X135.387 Y122.691 E0.01620
G1 X134.871 Y122.715 E0.01620
G1 X134.359 Y122.642 E0.01620
G1 X133.871 Y122.473 E0.01620
G1 X133.423 Y122.214 E0.01621
G1 X133.033 Y121.876 E0.01620
G1 X132.713 Y121.470 E0.01620
G1 X132.476 Y121.010 E0.01620
G1 X132.331 Y120.514 E0.01620
G1 X132.281 Y120.000 E0.01620
G1 X132.331 Y119.486 E0.01620
G1 X132.476 Y118.990 E0.01620
G1 X132.713 Y118.530 E0.01620
G1 X132.995 Y118.171 E0.01432
G1 X133.292 Y118.404 F7200.000
G1 F840
G1 X133.643 Y118.094 E0.01469
G1 X134.030 Y117.871 E0.01400
G1 X134.461 Y117.724 E0.01429
G1 X134.889 Y117.663 E0.01354
G1 X135.333 Y117.684 E0.01395
G1 X135.765 Y117.789 E0.01395
G1 X136.170 Y117.974 E0.01395
G1 X136.532 Y118.232 E0.01395
G1 X136.839 Y118.554 E0.01395
G1 X137.080 Y118.928 E0.01395
G1 X137.245 Y119.341 E0.01395
G1 X137.329 Y119.778 E0.01395
G1 X137.329 Y120.222 E0.01395
G1 X137.245 Y120.659 E0.01395
G1 X137.080 Y121.072 E0.01395
G1 X136.839 Y121.446 E0.01395
G1 X136.532 Y121.768 E0.01395
G1 X136.170 Y122.026 E0.01395
G1 X135.765 Y122.211 E0.01395
G1 X135.333 Y122.316 E0.01395
G1 X134.889 Y122.337 E0.01395
G1 X134.448 Y122.274 E0.01395
G1 X134.028 Y122.128 E0.01395
G1 X133.643 Y121.906 E0.01395
G1 X133.307 Y121.615 E0.01395
G1 X133.032 Y121.265 E0.01395
G1 X132.828 Y120.870 E0.01395
G1 X132.703 Y120.443 E0.01395
G1 X132.660 Y120.000 E0.01395
G1 X132.703 Y119.557 E0.01395
G1 X132.828 Y119.130 E0.01395
G1 X133.032 Y118.735 E0.01395
G1 X133.255 Y118.451 E0.01131
G1 X133.581 Y118.647 F7200.000
G1 F840
G1 X133.863 Y118.403 E0.01169
G1 X134.186 Y118.216 E0.01171
G1 X134.549 Y118.093 E0.01203
G1 X134.907 Y118.041 E0.01132
G1 X135.279 Y118.059 E0.01169
G1 X135.641 Y118.147 E0.01169
G1 X135.980 Y118.302 E0.01169
G1 X136.284 Y118.518 E0.01169
G1 X136.541 Y118.788 E0.01169
G1 X136.743 Y119.101 E0.01169
G1 X136.882 Y119.448 E0.01169
G1 X136.952 Y119.814 E0.01169
G1 X136.952 Y120.186 E0.01169
G1 X136.882 Y120.552 E0.01169
G1 X136.743 Y120.899 E0.01169
G1 X136.541 Y121.212 E0.01169
G1 X136.284 Y121.482 E0.01169
G1 X135.980 Y121.698 E0.01169
G1 X135.641 Y121.853 E0.01169
G1 X135.279 Y121.941 E0.01169
G1 X134.907 Y121.959 E0.01169
G1 X134.538 Y121.906 E0.01169
G1 X134.185 Y121.784 E0.01169
G1 X133.863 Y121.597 E0.01169
G1 X133.581 Y121.353 E0.01169
G1 X133.350 Y121.060 E0.01169
G1 X133.180 Y120.729 E0.01169
G1 X133.074 Y120.371 E0.01169
G1 X133.039 Y120.000 E0.01169
G1 X133.074 Y119.629 E0.01169
G1 X133.180 Y119.271 E0.01169
G1 X133.350 Y118.940 E0.01169
G1 X133.544 Y118.694 E0.00981
G1 X133.476 Y118.289 F7200.000
G1 F5760
G1 X133.863 Y118.403 E-0.14958
G1 F5760
G1 X134.186 Y118.216 E-0.12935
G1 F5760
G1 X134.549 Y118.093 E-0.13289
G1 F5760
G1 X134.907 Y118.041 E-0.12506
G1 F5760
G1 X135.279 Y118.059 E-0.12912
G1 F5760
G1 X135.543 Y118.123 E-0.09401
G1 E-0.04000 F2100.00000
G1 X131.000 Y117.963 F7200.000
G1 E0.80000 F2100.00000
G1 F840
G1 X130.736 Y118.384 E0.01559
G1 X130.384 Y118.736 E0.01559
G1 X129.963 Y119.000 E0.01559
G1 X129.494 Y119.165 E0.01559
G1 X129.000 Y119.220 E0.01559
G1 X128.502 Y119.164 E0.01570
G1 X128.026 Y118.994 E0.01587
G1 X127.616 Y118.736 E0.01519
G1 X127.264 Y118.384 E0.01559
G1 X127.000 Y117.963 E0.01559
G1 X126.835 Y117.494 E0.01559
G1 X126.780 Y117.000 E0.01559
G1 X126.835 Y116.506 E0.01559
G1 X127.000 Y116.037 E0.01559
G1 X127.264 Y115.616 E0.01559
G1 X127.616 Y115.264 E0.01559
G1 X128.040 Y114.998 E0.01570
G1 X128.519 Y114.834 E0.01587
G1 X129.000 Y114.780 E0.01519
G1 X129.494 Y114.835 E0.01559
G1 X129.963 Y115.000 E0.01559
G1 X130.387 Y115.266 E0.01570
G1 X130.743 Y115.627 E0.01587
G1 X131.000 Y116.037 E0.01519
G1 X131.165 Y116.506 E0.01559
G1 X131.220 Y117.000 E0.01559
G1 X131.165 Y117.494 E0.01559
G1 X131.020 Y117.907 E0.01371
G1 X130.664 Y117.782 F7200.000
G1 F840
G1 X130.439 Y118.148 E0.01346
G1 X130.148 Y118.439 E0.01292
G1 X129.799 Y118.659 E0.01292
G1 X129.410 Y118.795 E0.01292
G1 X129.000 Y118.841 E0.01292
G1 X128.588 Y118.794 E0.01299
G1 X128.192 Y118.652 E0.01321
G1 X127.852 Y118.439 E0.01257
G1 X127.561 Y118.148 E0.01292
G1 X127.342 Y117.799 E0.01292
G1 X127.205 Y117.410 E0.01292
G1 X127.159 Y117.000 E0.01292
G1 X127.205 Y116.590 E0.01292
G1 X127.342 Y116.201 E0.01292
G1 X127.561 Y115.852 E0.01292
G1 X127.852 Y115.561 E0.01292
G1 X128.203 Y115.340 E0.01299
G1 X128.602 Y115.204 E0.01321
G1 X129.000 Y115.159 E0.01257
G1 X129.410 Y115.205 E0.01292
G1 X129.799 Y115.342 E0.01292
G1 X130.150 Y115.562 E0.01299
G1 X130.445 Y115.862 E0.01321
G1 X130.658 Y116.201 E0.01256
G1 X130.795 Y116.590 E0.01292
G1 X130.841 Y117.000 E0.01292
G1 X130.795 Y117.410 E0.01292
G1 X130.684 Y117.726 E0.01049
G1 X130.317 Y117.634 F7200.000
G1 F840
G1 X130.143 Y117.911 E0.01026
G1 X129.911 Y118.143 E0.01026
G1 X129.634 Y118.317 E0.01026
G1 X129.325 Y118.425 E0.01026
G1 X129.000 Y118.461 E0.01026
G1 X128.674 Y118.425 E0.01028
G1 X128.357 Y118.311 E0.01055
G1 X128.089 Y118.143 E0.00994
G1 X127.857 Y117.911 E0.01026
G1 X127.683 Y117.634 E0.01026
G1 X127.575 Y117.325 E0.01026
G1 X127.539 Y117.000 E0.01026
G1 X127.575 Y116.675 E0.01026
G1 X127.683 Y116.366 E0.01026
G1 X127.857 Y116.089 E0.01026
G1 X128.089 Y115.857 E0.01026
G1 X128.367 Y115.683 E0.01028
G1 X128.685 Y115.574 E0.01055
G1 X129.000 Y115.539 E0.00994
G1 X129.325 Y115.575 E0.01026
G1 X129.634 Y115.683 E0.01026
G1 X129.912 Y115.858 E0.01028
G1 X130.148 Y116.097 E0.01055
G1 X130.317 Y116.366 E0.00994
G1 X130.425 Y116.675 E0.01026
G1 X130.461 Y117.000 E0.01026
G1 X130.425 Y117.325 E0.01026
G1 X130.336 Y117.577 E0.00838
G1 X130.501 Y117.904 F7200.000
G1 F5760
G1 X130.143 Y117.911 E-0.13368
G1 F5760
G1 X129.911 Y118.143 E-0.11334
G1 F5760
G1 X129.634 Y118.317 E-0.11334
G1 F5760
G1 X129.325 Y118.425 E-0.11334
G1 F5760
G1 X129.000 Y118.461 E-0.11334
G1 F5760
G1 X128.674 Y118.425 E-0.11360
G1 F5760
G1 X128.513 Y118.367 E-0.05936
G1 E-0.04000 F2100.00000
G1 X123.220 Y117.000 F7200.000
G1 E0.80000 F2100.00000
G1 F840
G1 X123.165 Y117.494 E0.01559
G1 X123.000 Y117.963 E0.01559
G1 X122.736 Y118.384 E0.01559
G1 X122.384 Y118.736 E0.01559
G1 X121.963 Y119.000 E0.01559
G1 X121.494 Y119.165 E0.01559
G1 X121.000 Y119.220 E0.01559
G1 X120.502 Y119.164 E0.01570
G1 X120.026 Y118.994 E0.01587
G1 X119.616 Y118.736 E0.01519
G1 X119.264 Y118.384 E0.01559
G1 X119.000 Y117.963 E0.01559
G1 X118.835 Y117.494 E0.01559
G1 X118.780 Y117.000 E0.01559
G1 X118.835 Y116.506 E0.01559
G1 X119.000 Y116.037 E0.01559
G1 X119.264 Y115.616 E0.01559
G1 X119.616 Y115.264 E0.01559
G1 X120.040 Y114.998 E0.01570
G1 X120.519 Y114.834 E0.01587
G1 X121.000 Y114.780 E0.01519
G1 X121.494 Y114.835 E0.01559
G1 X121.963 Y115.000 E0.01559
G1 X122.387 Y115.266 E0.01570
G1 X122.743 Y115.627 E0.01587
G1 X123.000 Y116.037 E0.01519
G1 X123.165 Y116.506 E0.01559
G1 X123.214 Y116.940 E0.01371
G1 X122.839 Y116.983 F7200.000
G1 F840
G1 X122.795 Y117.410 E0.01346
G1 X122.658 Y117.799 E0.01292
G1 X122.439 Y118.148 E0.01292
G1 X122.148 Y118.439 E0.01292
G1 X121.799 Y118.659 E0.01292
G1 X121.410 Y118.795 E0.01292
G1 X121.000 Y118.841 E0.01292
G1 X120.588 Y118.794 E0.01299
G1 X120.192 Y118.652 E0.01321
G1 X119.852 Y118.439 E0.01257
G1 X119.561 Y118.148 E0.01292
G1 X119.342 Y117.799 E0.01292
G1 X119.205 Y117.410 E0.01292
G1 X119.159 Y117.000 E0.01292
G1 X119.205 Y116.590 E0.01292
G1 X119.342 Y116.201 E0.01292
G1 X119.561 Y115.852 E0.01292
G1 X119.852 Y115.561 E0.01292
G1 X120.203 Y115.340 E0.01299
G1 X120.602 Y115.204 E0.01321
G1 X121.000 Y115.159 E0.01257
G1 X121.410 Y115.205 E0.01292
G1 X121.799 Y115.342 E0.01292
G1 X122.150 Y115.562 E0.01299
G1 X122.445 Y115.862 E0.01321
G1 X122.658 Y116.201 E0.01256
G1 X122.795 Y116.590 E0.01292
G1 X122.832 Y116.923 E0.01049
G1 X122.461 Y117.000 F7200.000
G1 F840
G1 X122.425 Y117.325 E0.01026
G1 X122.317 Y117.634 E0.01026
G1 X122.143 Y117.911 E0.01026
G1 X121.911 Y118.143 E0.01026
G1 X121.634 Y118.317 E0.01026
G1 X121.325 Y118.425 E0.01026
G1 X121.000 Y118.461 E0.01026
G1 X120.674 Y118.425 E0.01028
G1 X120.357 Y118.311 E0.01055
G1 X120.089 Y118.143 E0.00994
G1 X119.857 Y117.911 E0.01026
G1 X119.683 Y117.634 E0.01026
G1 X119.575 Y117.325 E0.01026
G1 X119.539 Y117.000 E0.01026
G1 X119.575 Y116.675 E0.01026
G1 X119.683 Y116.366 E0.01026
G1 X119.857 Y116.089 E0.01026
G1 X120.089 Y115.857 E0.01026
G1 X120.367 Y115.683 E0.01028
G1 X120.685 Y115.574 E0.01055
G1 X121.000 Y115.539 E0.00994
G1 X121.325 Y115.575 E0.01026
G1 X121.634 Y115.683 E0.01026
G1 X121.912 Y115.858 E0.01028
G1 X122.148 Y116.097 E0.01055
G1 X122.317 Y116.366 E0.00994
G1 X122.425 Y116.675 E0.01026
G1 X122.455 Y116.940 E0.00838
G1 X122.745 Y117.164 F7200.000
G1 F5760
G1 X122.425 Y117.325 E-0.13368
G1 F5760
G1 X122.317 Y117.634 E-0.11334
G1 F5760
G1 X122.143 Y117.911 E-0.11334
G1 F5760
G1 X121.911 Y118.143 E-0.11334
G1 F5760
G1 X121.634 Y118.317 E-0.11334
G1 F5760
G1 X121.325 Y118.425 E-0.11334
G1 F5760
G1 X121.154 Y118.444 E-0.05963
G1 E-0.04000 F2100.00000
G1 X117.416 Y118.754 F7200.000
G1 E0.80000 F2100.00000
G1 F840
G1 X117.608 Y119.234 E0.01620
G1 X117.706 Y119.742 E0.01620
G1 X117.706 Y120.258 E0.01620
G1 X117.608 Y120.766 E0.01620
G1 X117.416 Y121.246 E0.01620
G1 X117.137 Y121.680 E0.01620
G1 X116.780 Y122.055 E0.01620
G1 X116.359 Y122.354 E0.01620
G1 X115.889 Y122.569 E0.01620
G1 X115.387 Y122.691 E0.01620
G1 X114.871 Y122.715 E0.01620
G1 X114.359 Y122.642 E0.01620
G1 X113.871 Y122.473 E0.01620
G1 X113.423 Y122.214 E0.01621
G1 X113.032 Y121.876 E0.01620
G1 X112.713 Y121.470 E0.01620
G1 X112.476 Y121.010 E0.01620
G1 X112.331 Y120.514 E0.01620
G1 X112.281 Y120.000 E0.01620
G1 X112.331 Y119.486 E0.01620
G1 X112.476 Y118.990 E0.01620
G1 X112.713 Y118.530 E0.01620
G1 X113.032 Y118.124 E0.01620
G1 X113.423 Y117.786 E0.01620
G1 X113.873 Y117.526 E0.01630
G1 X114.373 Y117.356 E0.01655
G1 X114.871 Y117.285 E0.01576
G1 X115.387 Y117.309 E0.01620
G1 X115.889 Y117.431 E0.01620
G1 X116.359 Y117.646 E0.01620
G1 X116.780 Y117.945 E0.01620
G1 X117.137 Y118.320 E0.01620
G1 X117.384 Y118.704 E0.01432
G1 X117.067 Y118.908 F7200.000
G1 F840
G1 X117.245 Y119.341 E0.01469
G1 X117.329 Y119.778 E0.01395
G1 X117.329 Y120.222 E0.01395
G1 X117.245 Y120.659 E0.01395
G1 X117.080 Y121.072 E0.01395
G1 X116.839 Y121.446 E0.01395
G1 X116.532 Y121.768 E0.01395
G1 X116.170 Y122.026 E0.01395
G1 X115.765 Y122.211 E0.01395
G1 X115.333 Y122.316 E0.01395
G1 X114.889 Y122.337 E0.01395
G1 X114.448 Y122.274 E0.01395
G1 X114.028 Y122.128 E0.01395
G1 X113.643 Y121.906 E0.01395
G1 X113.307 Y121.615 E0.01395
G1 X113.032 Y121.265 E0.01395
G1 X112.828 Y120.870 E0.01395
G1 X112.703 Y120.443 E0.01395
G1 X112.660 Y120.000 E0.01395
G1 X112.703 Y119.557 E0.01395
G1 X112.828 Y119.130 E0.01395
G1 X113.032 Y118.735 E0.01395
G1 X113.307 Y118.385 E0.01395
G1 X113.643 Y118.094 E0.01395
G1 X114.030 Y117.871 E0.01400
G1 X114.461 Y117.724 E0.01429
G1 X114.889 Y117.663 E0.01354
G1 X115.333 Y117.684 E0.01395
G1 X115.765 Y117.789 E0.01395
G1 X116.170 Y117.974 E0.01395
G1 X116.532 Y118.232 E0.01395
G1 X116.839 Y118.554 E0.01395
G1 X117.034 Y118.857 E0.01131
G1 X116.743 Y119.101 F7200.000
G1 F840
G1 X116.882 Y119.448 E0.01169
G1 X116.952 Y119.814 E0.01169
G1 X116.952 Y120.186 E0.01169
G1 X116.882 Y120.552 E0.01169
G1 X116.743 Y120.899 E0.01169
G1 X116.541 Y121.212 E0.01169
G1 X116.284 Y121.482 E0.01169
G1 X115.980 Y121.698 E0.01169
G1 X115.641 Y121.853 E0.01169
G1 X115.279 Y121.941 E0.01169
G1 X114.907 Y121.959 E0.01169
G1 X114.538 Y121.906 E0.01169
G1 X114.185 Y121.784 E0.01169
G1 X113.863 Y121.597 E0.01169
G1 X113.581 Y121.353 E0.01169
G1 X113.350 Y121.060 E0.01169
G1 X113.180 Y120.729 E0.01169
G1 X113.074 Y120.371 E0.01169
G1 X113.039 Y120.000 E0.01169
G1 X113.074 Y119.629 E0.01169
G1 X113.180 Y119.271 E0.01169
G1 X113.350 Y118.940 E0.01169
G1 X113.581 Y118.647 E0.01169
G1 X113.863 Y118.403 E0.01169
G1 X114.186 Y118.216 E0.01171
G1 X114.549 Y118.093 E0.01203
G1 X114.907 Y118.041 E0.01132
G1 X115.279 Y118.059 E0.01169
G1 X115.641 Y118.147 E0.01169
G1 X115.980 Y118.302 E0.01169
G1 X116.284 Y118.518 E0.01169
G1 X116.541 Y118.788 E0.01169
G1 X116.711 Y119.051 E0.00981
G1 X117.115 Y119.119 F7200.000
G1 F5760
G1 X116.882 Y119.448 E-0.14958
G1 F5760
G1 X116.952 Y119.814 E-0.12912
G1 F5760
G1 X116.952 Y120.186 E-0.12912
G1 F5760
G1 X116.882 Y120.552 E-0.12912
G1 F5760
G1 X116.743 Y120.899 E-0.12912
G1 F5760
G1 X116.596 Y121.127 E-0.09394
G1 E-0.04000 F2100.00000
G1 X120.506 Y95.165 F7200.000
G1 E0.80000 F2100.00000
G1 F840
G1 X120.037 Y95.000 E0.01559
G1 X119.613 Y94.734 E0.01570
G1 X119.257 Y94.373 E0.01587
G1 X119.000 Y93.963 E0.01519
G1 X118.835 Y93.494 E0.01559
G1 X118.780 Y93.000 E0.01559
G1 X118.835 Y92.506 E0.01559
G1 X119.000 Y92.037 E0.01559
G1 X119.264 Y91.616 E0.01559
G1 X119.616 Y91.264 E0.01559
G1 X120.040 Y90.998 E0.01570
G1 X120.519 Y90.834 E0.01587
G1 X121.000 Y90.780 E0.01519
G1 X121.494 Y90.835 E0.01559
G1 X121.963 Y91.000 E0.01559
G1 X122.387 Y91.266 E0.01570
G1 X122.743 Y91.627 E0.01587
G1 X123.000 Y92.037 E0.01519
G1 X123.165 Y92.506 E0.01559
G1 X123.220 Y93.000 E0.01559
G1 X123.165 Y93.494 E0.01559
G1 X123.000 Y93.963 E0.01559
G1 X122.734 Y94.387 E0.01570
G1 X122.373 Y94.743 E0.01587
G1 X121.963 Y95.000 E0.01519
G1 X121.494 Y95.165 E0.01559
G1 X121.000 Y95.220 E0.01559
G1 X120.566 Y95.171 E0.01371
G1 X120.608 Y94.797 F7200.000
G1 F840
G1 X120.201 Y94.658 E0.01346
G1 X119.850 Y94.438 E0.01299
G1 X119.555 Y94.138 E0.01321
G1 X119.342 Y93.799 E0.01256
G1 X119.205 Y93.410 E0.01292
G1 X119.159 Y93.000 E0.01292
G1 X119.205 Y92.590 E0.01292
G1 X119.342 Y92.201 E0.01292
G1 X119.561 Y91.852 E0.01292
G1 X119.852 Y91.561 E0.01292
G1 X120.203 Y91.340 E0.01299
G1 X120.602 Y91.204 E0.01321
G1 X121.000 Y91.159 E0.01257
G1 X121.410 Y91.205 E0.01292
G1 X121.799 Y91.342 E0.01292
