; generated by Slic3r 1.35.5-prusa3d-win64 on 2017-07-16 at 04:06:19

; 

; external perimeters extrusion width = 0.45mm
; perimeters extrusion width = 0.45mm
; infill extrusion width = 0.45mm
; solid infill extrusion width = 0.45mm
; top infill extrusion width = 0.40mm
; first layer extrusion width = 0.42mm

M107
M115 U3.0.11 ; tell printer latest fw version
M83  ; extruder relative mode
M104 S200 ; set extruder temp
M140 S55 ; set bed temp
M190 S55 ; wait for bed temp
M109 S200 ; wait for extruder temp
G28 W ; home all without mesh bed level
G80 ; mesh bed leveling
G1 Y-3.0 F1000.0 ; go outside pritn area
G1 X60.0 E9.0  F1000.0 ; intro line
G1 X100.0 E12.5  F1000.0 ; intro line
; Filament gcode

G21 ; set units to millimeters
G90 ; use absolute coordinates
M83 ; use relative distances for extrusion
G1 E-0.80000 F2100.00000
G1 Z0.200 F7200.000
G1 X104.255 Y87.719 F7200.000
G1 E0.80000 F2100.00000
M204 S1000
G1 F2100
G1 X104.613 Y87.054 E0.02367
G1 X104.956 Y86.693 E0.01562
G1 X108.092 Y84.085 E0.12790
G1 X108.652 Y83.779 E0.02000
G1 X109.273 Y83.634 E0.02000
G1 X140.504 Y83.623 E0.97921
G1 X141.198 Y83.728 E0.02201
G1 X141.831 Y84.031 E0.02201
G1 X145.045 Y86.694 E0.13086
G1 X145.592 Y87.371 E0.02731
G1 X145.859 Y88.205 E0.02743
G1 X145.877 Y121.530 E1.04491
G1 X145.746 Y122.278 E0.02378
G1 X145.387 Y122.946 E0.02378
G1 X145.044 Y123.307 E0.01562
G1 X141.899 Y125.922 E0.12826
G1 X141.323 Y126.230 E0.02048
G1 X140.685 Y126.370 E0.02048
G1 X109.466 Y126.377 E0.97885
G1 X108.719 Y126.245 E0.02378
G1 X108.051 Y125.885 E0.02378
G1 X104.768 Y123.128 E0.13443
G1 X104.332 Y122.475 E0.02461
G1 X104.132 Y121.712 E0.02473
G1 X104.123 Y88.466 E1.04241
G1 X104.245 Y87.778 E0.02190
G1 F5760
G1 X104.613 Y87.054 E-0.28123
G1 F5760
G1 X104.956 Y86.693 E-0.17251
G1 F5760
G1 X105.636 Y86.127 E-0.30627
G1 E-0.04000 F2100.00000
G1 X121.542 Y102.174 F7200.000
G1 E0.80000 F2100.00000
G1 F840
G1 X121.958 Y101.730 E0.01908
G1 X122.418 Y101.356 E0.01858
G1 X122.953 Y101.030 E0.01964
G1 X123.513 Y100.789 E0.01911
G1 X124.084 Y100.629 E0.01858
G1 X124.704 Y100.544 E0.01965
G1 X125.314 Y100.545 E0.01911
G1 X125.900 Y100.626 E0.01855
G1 X126.487 Y100.789 E0.01911
G1 X127.063 Y101.039 E0.01968
G1 X127.583 Y101.357 E0.01911
G1 X128.043 Y101.731 E0.01858
G1 X128.470 Y102.188 E0.01964
G1 X128.821 Y102.687 E0.01911
G1 X129.093 Y103.213 E0.01858
G1 X129.303 Y103.804 E0.01965
G1 X129.426 Y104.401 E0.01911
G1 X129.466 Y104.992 E0.01858
G1 X129.423 Y105.617 E0.01964
G1 X129.298 Y106.214 E0.01911
G1 X129.100 Y106.772 E0.01858
G1 X128.812 Y107.327 E0.01961
G1 X128.470 Y107.811 E0.01858
G1 X128.055 Y108.258 E0.01911
G1 X127.568 Y108.654 E0.01968
G1 X127.046 Y108.970 E0.01915
G1 X126.487 Y109.211 E0.01908
G1 X125.916 Y109.371 E0.01858
G1 X125.296 Y109.456 E0.01965
G1 X124.686 Y109.455 E0.01911
G1 X124.099 Y109.374 E0.01858
G1 X123.496 Y109.205 E0.01964
G1 X122.937 Y108.961 E0.01911
G1 X122.432 Y108.654 E0.01855
G1 X121.958 Y108.270 E0.01911
G1 X121.531 Y107.812 E0.01964
G1 X121.189 Y107.328 E0.01858
G1 X120.907 Y106.788 E0.01911
G1 X120.697 Y106.196 E0.01968
G1 X120.574 Y105.599 E0.01911
G1 X120.534 Y105.008 E0.01858
G1 X120.577 Y104.383 E0.01964
G1 X120.702 Y103.786 E0.01911
G1 X120.900 Y103.228 E0.01858
G1 X121.189 Y102.672 E0.01964
G1 X121.507 Y102.223 E0.01727
G1 X121.815 Y102.441 F7200.000
G1 F840
G1 X122.216 Y102.006 E0.01854
G1 X122.636 Y101.665 E0.01698
G1 X123.127 Y101.366 E0.01801
G1 X123.639 Y101.145 E0.01749
G1 X124.160 Y100.999 E0.01698
G1 X124.730 Y100.921 E0.01801
G1 X125.288 Y100.922 E0.01749
G1 X125.823 Y100.996 E0.01695
G1 X126.361 Y101.145 E0.01749
G1 X126.889 Y101.374 E0.01804
G1 X127.365 Y101.665 E0.01750
G1 X127.785 Y102.007 E0.01698
G1 X128.177 Y102.427 E0.01801
G1 X128.497 Y102.883 E0.01749
G1 X128.747 Y103.364 E0.01698
G1 X128.939 Y103.905 E0.01801
G1 X129.051 Y104.452 E0.01749
G1 X129.088 Y104.992 E0.01698
G1 X129.049 Y105.565 E0.01801
G1 X128.934 Y106.111 E0.01749
G1 X128.753 Y106.621 E0.01698
G1 X128.489 Y107.131 E0.01799
G1 X128.177 Y107.573 E0.01698
G1 X127.797 Y107.982 E0.01749
G1 X127.351 Y108.345 E0.01803
G1 X126.873 Y108.634 E0.01752
G1 X126.361 Y108.855 E0.01747
G1 X125.840 Y109.001 E0.01698
G1 X125.270 Y109.079 E0.01801
G1 X124.712 Y109.078 E0.01749
G1 X124.176 Y109.004 E0.01698
G1 X123.623 Y108.849 E0.01801
G1 X123.112 Y108.626 E0.01749
G1 X122.650 Y108.345 E0.01695
G1 X122.216 Y107.994 E0.01749
G1 X121.824 Y107.574 E0.01801
G1 X121.512 Y107.132 E0.01698
G1 X121.254 Y106.637 E0.01749
G1 X121.061 Y106.095 E0.01804
G1 X120.949 Y105.548 E0.01749
G1 X120.912 Y105.008 E0.01698
G1 X120.951 Y104.435 E0.01801
G1 X121.066 Y103.889 E0.01749
G1 X121.247 Y103.379 E0.01698
G1 X121.511 Y102.868 E0.01801
G1 X121.780 Y102.490 E0.01456
G1 X122.088 Y102.708 F7200.000
G1 F840
G1 X122.474 Y102.283 E0.01800
G1 X122.854 Y101.973 E0.01537
G1 X123.300 Y101.702 E0.01638
G1 X123.765 Y101.501 E0.01588
G1 X124.237 Y101.369 E0.01537
G1 X124.755 Y101.298 E0.01638
G1 X125.261 Y101.299 E0.01588
G1 X125.747 Y101.366 E0.01536
G1 X126.235 Y101.501 E0.01588
G1 X126.714 Y101.710 E0.01639
G1 X127.146 Y101.974 E0.01588
G1 X127.527 Y102.283 E0.01537
G1 X127.883 Y102.665 E0.01638
G1 X128.174 Y103.079 E0.01588
G1 X128.400 Y103.515 E0.01537
G1 X128.575 Y104.007 E0.01638
G1 X128.677 Y104.503 E0.01588
G1 X128.710 Y104.992 E0.01537
G1 X128.675 Y105.513 E0.01638
G1 X128.570 Y106.009 E0.01588
G1 X128.406 Y106.471 E0.01537
G1 X128.166 Y106.935 E0.01638
G1 X127.883 Y107.335 E0.01537
G1 X127.538 Y107.706 E0.01588
G1 X127.133 Y108.036 E0.01639
G1 X126.699 Y108.298 E0.01589
G1 X126.235 Y108.499 E0.01587
G1 X125.763 Y108.631 E0.01537
G1 X125.245 Y108.702 E0.01638
G1 X124.739 Y108.701 E0.01588
G1 X124.253 Y108.634 E0.01537
G1 X123.750 Y108.493 E0.01638
G1 X123.286 Y108.290 E0.01588
G1 X122.867 Y108.036 E0.01536
G1 X122.474 Y107.717 E0.01588
G1 X122.117 Y107.335 E0.01638
G1 X121.834 Y106.935 E0.01537
G1 X121.600 Y106.486 E0.01588
G1 X121.425 Y105.993 E0.01639
G1 X121.323 Y105.497 E0.01588
G1 X121.290 Y105.008 E0.01537
G1 X121.325 Y104.487 E0.01638
G1 X121.430 Y103.991 E0.01588
G1 X121.594 Y103.529 E0.01537
G1 X121.834 Y103.065 E0.01638
G1 X122.053 Y102.757 E0.01186
G1 X121.941 Y102.336 F7200.000
G1 F5760
G1 X122.474 Y102.283 E-0.21945
G1 F5760
G1 X122.854 Y101.973 E-0.16980
G1 F5760
G1 X123.300 Y101.702 E-0.18097
G1 F5760
G1 X123.765 Y101.501 E-0.17539
G1 F5760
G1 X123.805 Y101.490 E-0.01438
G1 E-0.04000 F2100.00000
G1 X139.536 Y89.464 F7200.000
G1 E0.80000 F2100.00000
G1 F1680
G1 X142.536 Y89.464 E0.09406
G1 X142.536 Y94.536 E0.15902
G1 X139.536 Y94.536 E0.09406
G1 X139.536 Y115.464 E0.65619
G1 X142.536 Y115.464 E0.09406
G1 X142.536 Y120.536 E0.15902
G1 X139.536 Y120.536 E0.09406
G1 X139.536 Y123.036 E0.07839
G1 X110.464 Y123.036 E0.91152
G1 X110.464 Y120.536 E0.07839
G1 X107.464 Y120.536 E0.09406
G1 X107.464 Y115.464 E0.15902
G1 X110.464 Y115.464 E0.09406
G1 X110.464 Y94.536 E0.65619
G1 X107.464 Y94.536 E0.09406
G1 X107.464 Y89.464 E0.15902
G1 X110.464 Y89.464 E0.09406
G1 X110.464 Y86.964 E0.07839
G1 X139.536 Y86.964 E0.91152
G1 X139.536 Y89.404 E0.07650
G1 X139.913 Y89.087 F7200.000
G1 F1680
G1 X142.913 Y89.087 E0.09406
G1 X142.913 Y94.913 E0.18267
G1 X139.913 Y94.913 E0.09406
G1 X139.913 Y115.087 E0.63255
G1 X142.913 Y115.087 E0.09406
G1 X142.913 Y120.913 E0.18267
G1 X139.913 Y120.913 E0.09406
G1 X139.913 Y123.413 E0.07839
G1 X110.087 Y123.413 E0.93517
G1 X110.087 Y120.913 E0.07839
G1 X107.087 Y120.913 E0.09406
G1 X107.087 Y115.087 E0.18267
G1 X110.087 Y115.087 E0.09406
G1 X110.087 Y94.913 E0.63255
G1 X107.087 Y94.913 E0.09406
G1 X107.087 Y89.087 E0.18267
G1 X110.087 Y89.087 E0.09406
G1 X110.087 Y86.587 E0.07839
G1 X139.913 Y86.587 E0.93517
G1 X139.913 Y89.027 E0.07650
G1 X140.290 Y88.710 F7200.000
G1 F1260
G1 X143.290 Y88.710 E0.09406
G1 X143.290 Y95.290 E0.20631
G1 X140.290 Y95.290 E0.09406
G1 X140.290 Y114.710 E0.60890
G1 X143.290 Y114.710 E0.09406
G1 X143.290 Y121.290 E0.20631
G1 X140.290 Y121.290 E0.09406
G1 X140.290 Y123.790 E0.07839
G1 X109.710 Y123.790 E0.95881
G1 X109.710 Y121.290 E0.07839
G1 X106.710 Y121.290 E0.09406
G1 X106.710 Y114.710 E0.20631
G1 X109.710 Y114.710 E0.09406
G1 X109.710 Y95.290 E0.60890
G1 X106.710 Y95.290 E0.09406
G1 X106.710 Y88.710 E0.20631
G1 X109.710 Y88.710 E0.09406
G1 X109.710 Y86.210 E0.07839
G1 X140.290 Y86.210 E0.95881
G1 X140.290 Y88.650 E0.07650
G1 X140.481 Y89.062 F7200.000
G1 F5760
G1 X142.484 Y88.694 E-0.76000
G1 E-0.04000 F2100.00000
G1 X139.423 Y87.876 F7200.000
G1 E0.80000 F2100.00000
G1 F1680
G1 X138.793 Y87.247 E0.02798
G1 X138.259 Y87.247 E0.01681
G1 X139.253 Y88.241 E0.04421
G1 X139.253 Y88.776 E0.01681
G1 X137.724 Y87.247 E0.06798
G1 X137.189 Y87.247 E0.01681
G1 X139.253 Y89.311 E0.09175
G1 X139.253 Y89.747 E0.01371
G1 X139.689 Y89.747 E0.01371
G1 X142.253 Y92.311 E0.11398
G1 X142.253 Y91.776 E0.01681
G1 X140.224 Y89.747 E0.09021
G1 X140.759 Y89.747 E0.01681
G1 X142.253 Y91.241 E0.06644
G1 X142.253 Y90.707 E0.01681
G1 X141.293 Y89.747 E0.04267
G1 X141.828 Y89.747 E0.01681
G1 X142.423 Y90.342 E0.02644
G1 F5760
G1 X141.828 Y89.747 E-0.29130
G1 F5760
G1 X141.293 Y89.747 E-0.18519
G1 F5760
G1 X141.872 Y90.326 E-0.28351
G1 E-0.04000 F2100.00000
G1 X142.423 Y93.015 F7200.000
G1 E0.80000 F2100.00000
G1 F1680
G1 X136.655 Y87.247 E0.25645
G1 X136.120 Y87.247 E0.01681
G1 X142.253 Y93.380 E0.27268
G1 X142.253 Y93.915 E0.01681
G1 X135.585 Y87.247 E0.29645
G1 X135.051 Y87.247 E0.01681
G1 X142.057 Y94.253 E0.31149
G1 X141.522 Y94.253 E0.01681
G1 X134.516 Y87.247 E0.31149
G1 X133.981 Y87.247 E0.01681
G1 X140.987 Y94.253 E0.31149
G1 X140.453 Y94.253 E0.01681
G1 X133.446 Y87.247 E0.31149
G1 X132.912 Y87.247 E0.01681
G1 X139.918 Y94.253 E0.31149
G1 X139.383 Y94.253 E0.01681
G1 X132.377 Y87.247 E0.31149
G1 X131.842 Y87.247 E0.01681
G1 X139.253 Y94.658 E0.32947
G1 X139.253 Y95.192 E0.01681
G1 X131.308 Y87.247 E0.35324
G1 X130.773 Y87.247 E0.01681
G1 X139.253 Y95.727 E0.37701
G1 X139.253 Y96.262 E0.01681
G1 X130.238 Y87.247 E0.40079
G1 X129.704 Y87.247 E0.01681
G1 X139.253 Y96.796 E0.42456
G1 X139.253 Y97.331 E0.01681
G1 X129.169 Y87.247 E0.44833
G1 X128.634 Y87.247 E0.01681
G1 X139.253 Y97.866 E0.47210
G1 X139.253 Y98.400 E0.01681
G1 X128.100 Y87.247 E0.49587
G1 X127.565 Y87.247 E0.01681
G1 X139.253 Y98.935 E0.51965
G1 X139.253 Y99.470 E0.01681
G1 X127.030 Y87.247 E0.54342
G1 X126.496 Y87.247 E0.01681
G1 X139.253 Y100.004 E0.56719
G1 X139.253 Y100.539 E0.01681
G1 X125.961 Y87.247 E0.59096
G1 X125.426 Y87.247 E0.01681
G1 X139.253 Y101.074 E0.61473
G1 X139.253 Y101.608 E0.01681
G1 X124.892 Y87.247 E0.63850
G1 X124.357 Y87.247 E0.01681
G1 X139.253 Y102.143 E0.66228
G1 X139.253 Y102.678 E0.01681
G1 X123.822 Y87.247 E0.68605
G1 X123.287 Y87.247 E0.01681
G1 X139.253 Y103.213 E0.70982
G1 X139.253 Y103.747 E0.01681
G1 X122.753 Y87.247 E0.73359
G1 X122.218 Y87.247 E0.01681
G1 X139.253 Y104.282 E0.75736
G1 X139.253 Y104.817 E0.01681
G1 X121.683 Y87.247 E0.78113
G1 X121.149 Y87.247 E0.01681
G1 X139.253 Y105.351 E0.80491
G1 X139.253 Y105.886 E0.01681
G1 X120.614 Y87.247 E0.82868
G1 X120.079 Y87.247 E0.01681
G1 X139.253 Y106.421 E0.85245
G1 X139.253 Y106.955 E0.01681
G1 X119.545 Y87.247 E0.87622
G1 X119.010 Y87.247 E0.01681
G1 X139.253 Y107.490 E0.89999
G1 X139.253 Y108.025 E0.01681
G1 X118.475 Y87.247 E0.92377
G1 X117.941 Y87.247 E0.01681
G1 X139.253 Y108.559 E0.94754
G1 X139.253 Y109.094 E0.01681
G1 X117.406 Y87.247 E0.97131
G1 X116.871 Y87.247 E0.01681
G1 X139.253 Y109.629 E0.99508
G1 X139.253 Y110.163 E0.01681
G1 X116.337 Y87.247 E1.01885
G1 X115.802 Y87.247 E0.01681
G1 X139.253 Y110.698 E1.04262
G1 X139.253 Y111.233 E0.01681
G1 X115.267 Y87.247 E1.06640
G1 X114.732 Y87.247 E0.01681
G1 X139.253 Y111.768 E1.09017
G1 X139.253 Y112.302 E0.01681
G1 X114.198 Y87.247 E1.11394
G1 X113.663 Y87.247 E0.01681
G1 X127.219 Y100.803 E0.60267
G1 X126.582 Y100.521 E0.02189
G1 X126.334 Y100.453 E0.00808
G1 X113.128 Y87.247 E0.58712
G1 X112.594 Y87.247 E0.01681
G1 X125.653 Y100.306 E0.58060
G1 X125.333 Y100.262 E0.01014
G1 X125.074 Y100.262 E0.00817
G1 X112.059 Y87.247 E0.57862
G1 X111.524 Y87.247 E0.01681
G1 X124.556 Y100.279 E0.57937
G1 X124.086 Y100.343 E0.01492
G1 X110.990 Y87.247 E0.58225
G1 X110.747 Y87.247 E0.00763
G1 X110.747 Y87.539 E0.00918
G1 X123.662 Y100.453 E0.57417
G1 X123.418 Y100.522 E0.00794
G1 X123.262 Y100.589 E0.00534
G1 X110.747 Y88.074 E0.55642
G1 X110.747 Y88.608 E0.01681
G1 X122.889 Y100.750 E0.53982
G1 X122.549 Y100.945 E0.01231
G1 X110.747 Y89.143 E0.52472
G1 X110.747 Y89.678 E0.01681
G1 X122.221 Y101.152 E0.51013
G1 X121.926 Y101.391 E0.01195
G1 X110.282 Y89.747 E0.51771
G1 X109.747 Y89.747 E0.01681
G1 X121.648 Y101.648 E0.52910
G1 X121.389 Y101.924 E0.01189
G1 X109.212 Y89.747 E0.54136
G1 X108.678 Y89.747 E0.01681
G1 X121.157 Y102.227 E0.55485
G1 X120.938 Y102.542 E0.01207
G1 X108.143 Y89.747 E0.56885
G1 X107.747 Y89.747 E0.01245
G1 X107.747 Y89.886 E0.00436
G1 X120.755 Y102.894 E0.57833
G1 X120.640 Y103.115 E0.00783
G1 X120.588 Y103.262 E0.00490
G1 X107.747 Y90.420 E0.57092
G1 X107.747 Y90.955 E0.01681
G1 X120.448 Y103.656 E0.56468
G1 X120.349 Y104.092 E0.01404
G1 X107.747 Y91.490 E0.56027
G1 X107.747 Y92.024 E0.01681
G1 X109.976 Y94.253 E0.09908
G1 X109.441 Y94.253 E0.01681
G1 X107.747 Y92.559 E0.07531
G1 X107.747 Y93.094 E0.01681
G1 X108.906 Y94.253 E0.05154
G1 X108.371 Y94.253 E0.01681
G1 X107.747 Y93.629 E0.02776
G1 X107.747 Y94.163 E0.01681
G1 X108.006 Y94.423 E0.01154
G1 F5760
G1 X107.747 Y94.163 E-0.12711
G1 F5760
G1 X107.747 Y93.629 E-0.18519
G1 F5760
G1 X108.371 Y94.253 E-0.30589
G1 F5760
G1 X108.781 Y94.253 E-0.14181
G1 E-0.04000 F2100.00000
G1 X110.577 Y94.855 F7200.000
G1 E0.80000 F2100.00000
G1 F1680
G1 X120.281 Y104.559 E0.43143
G1 X120.254 Y105.067 E0.01599
G1 X110.747 Y95.559 E0.42270
G1 X110.747 Y96.094 E0.01681
G1 X120.294 Y105.641 E0.42447
G1 X120.442 Y106.324 E0.02196
G1 X110.747 Y96.629 E0.43104
G1 X110.747 Y97.163 E0.01681
G1 X120.824 Y107.241 E0.44803
G1 F5760
G1 X119.273 Y105.689 E-0.76000
G1 E-0.04000 F2100.00000
G1 X122.781 Y109.197 F7200.000
G1 E0.80000 F2100.00000
G1 F1680
G1 X136.337 Y122.753 E0.60270
G1 X136.871 Y122.753 E0.01681
G1 X123.665 Y109.546 E0.58716
G1 X124.041 Y109.652 E0.01230
G1 X124.347 Y109.694 E0.00969
G1 X137.406 Y122.753 E0.58060
G1 X137.941 Y122.753 E0.01681
G1 X124.926 Y109.738 E0.57862
G1 X125.315 Y109.739 E0.01222
G1 X125.444 Y109.721 E0.00410
G1 X138.476 Y122.753 E0.57937
G1 X139.010 Y122.753 E0.01681
G1 X125.914 Y109.657 E0.58225
G1 X126.338 Y109.547 E0.01378
G1 X139.253 Y122.461 E0.57418
G1 X139.253 Y121.927 E0.01681
G1 X126.738 Y109.411 E0.55643
G1 X127.111 Y109.250 E0.01279
G1 X139.253 Y121.392 E0.53982
G1 X139.253 Y120.857 E0.01681
G1 X127.451 Y109.055 E0.52470
G1 X127.778 Y108.848 E0.01218
G1 X139.253 Y120.322 E0.51016
G1 X139.253 Y120.253 E0.00218
G1 X139.718 Y120.253 E0.01463
G1 X128.073 Y108.608 E0.51774
G1 X128.249 Y108.465 E0.00712
G1 X128.353 Y108.353 E0.00480
G1 X140.253 Y120.253 E0.52907
G1 X140.788 Y120.253 E0.01681
G1 X128.610 Y108.076 E0.54139
G1 X128.843 Y107.774 E0.01199
G1 X141.322 Y120.253 E0.55483
G1 X141.857 Y120.253 E0.01681
G1 X129.062 Y107.458 E0.56884
G1 X129.245 Y107.106 E0.01247
G1 X142.253 Y120.114 E0.57833
G1 X142.253 Y119.580 E0.01681
G1 X129.412 Y106.738 E0.57092
G1 X129.552 Y106.344 E0.01316
G1 X142.253 Y119.045 E0.56469
G1 X142.253 Y118.510 E0.01681
G1 X129.651 Y105.908 E0.56027
G1 X129.704 Y105.656 E0.00811
G1 X129.719 Y105.441 E0.00676
G1 X139.253 Y114.976 E0.42388
G1 X139.253 Y114.441 E0.01681
G1 X129.746 Y104.933 E0.42270
G1 X129.706 Y104.359 E0.01810
G1 X139.253 Y113.906 E0.42446
G1 X139.253 Y113.372 E0.01681
G1 X129.558 Y103.676 E0.43104
G1 X129.353 Y103.100 E0.01922
G1 X129.177 Y102.761 E0.01201
G1 X139.423 Y113.007 E0.45550
G1 F5760
G1 X137.871 Y111.455 E-0.76000
G1 E-0.04000 F2100.00000
G1 X139.855 Y115.577 F7200.000
G1 E0.80000 F2100.00000
G1 F1680
G1 X142.253 Y117.976 E0.10663
G1 X142.253 Y117.441 E0.01681
G1 X140.559 Y115.747 E0.07531
G1 X141.094 Y115.747 E0.01681
G1 X142.253 Y116.906 E0.05154
G1 X142.253 Y116.372 E0.01681
G1 X141.628 Y115.747 E0.02777
G1 X142.163 Y115.747 E0.01681
G1 X142.423 Y116.007 E0.01154
