; generated by Slic3r 1.36.2-prusa3d-stable-win64 on 2017-09-10 at 00:06:21

; 

; external perimeters extrusion width = 0.45mm
; perimeters extrusion width = 0.45mm
; infill extrusion width = 0.45mm
; solid infill extrusion width = 0.45mm
; top infill extrusion width = 0.40mm
; first layer extrusion width = 0.42mm

M107
M115 U3.0.11 ; tell printer latest fw version
M83  ; extruder relative mode
M104 S200 ; set extruder temp
M140 S55 ; set bed temp
M190 S55 ; wait for bed temp
M109 S200 ; wait for extruder temp
G28 W ; home all without mesh bed level
G80 ; mesh bed leveling
G1 Y-3.0 F1000.0 ; go outside pritn area
G1 X60.0 E9.0  F1000.0 ; intro line
G1 X100.0 E12.5  F1000.0 ; intro line
; Filament gcode

G21 ; set units to millimeters
G90 ; use absolute coordinates
M83 ; use relative distances for extrusion
G1 E-0.80000 F2100.00000
G1 Z0.200 F7200.000
G1 X36.178 Y36.187 F7200.000
G1 E0.80000 F2100.00000
M204 S1000
G1 F948
G1 X37.004 Y35.559 E0.03123
G1 X37.934 Y35.097 E0.03123
G1 X38.938 Y34.817 E0.03135
G1 X39.956 Y34.732 E0.03074
G1 X55.090 Y34.820 E0.45523
G1 X82.725 Y35.882 E0.83186
G1 X83.732 Y36.133 E0.03123
G1 X84.724 Y36.597 E0.03295
G1 X85.576 Y37.223 E0.03180
G1 X86.394 Y38.139 E0.03694
G1 X86.938 Y39.095 E0.03307
G1 X87.270 Y40.091 E0.03160
G1 X87.407 Y41.145 E0.03197
G1 X87.342 Y42.189 E0.03148
G1 X87.102 Y43.140 E0.02951
G1 X86.768 Y43.904 E0.02506
G1 X86.236 Y44.723 E0.02939
G1 X85.573 Y45.429 E0.02914
G1 X84.905 Y45.940 E0.02531
G1 X84.049 Y46.395 E0.02914
G1 X83.119 Y46.693 E0.02939
G1 X82.323 Y46.813 E0.02420
G1 X69.484 Y46.745 E0.38620
G1 X39.001 Y45.664 E0.91750
G1 X37.963 Y45.385 E0.03233
G1 X37.034 Y44.930 E0.03111
G1 X36.195 Y44.299 E0.03160
G1 X35.525 Y43.565 E0.02988
G1 X35.057 Y42.837 E0.02604
G1 X34.654 Y41.876 E0.03135
G1 X34.443 Y40.897 E0.03012
G1 X34.419 Y39.822 E0.03233
G1 X34.584 Y38.834 E0.03012
G1 X34.946 Y37.852 E0.03148
G1 X35.479 Y36.966 E0.03111
G1 X36.138 Y36.232 E0.02967
G1 X36.417 Y36.482 F7200.000
G1 F948
G1 X37.205 Y35.878 E0.02986
G1 X38.071 Y35.448 E0.02909
G1 X39.006 Y35.188 E0.02921
G1 X39.955 Y35.109 E0.02864
G1 X55.080 Y35.197 E0.45497
G1 X82.648 Y36.252 E0.82984
G1 X83.591 Y36.483 E0.02921
G1 X84.487 Y36.895 E0.02966
G1 X85.279 Y37.463 E0.02932
G1 X85.981 Y38.214 E0.03091
G1 X86.574 Y39.204 E0.03472
G1 X86.892 Y40.133 E0.02954
G1 X87.030 Y41.140 E0.03057
G1 X86.973 Y42.109 E0.02921
G1 X86.748 Y43.011 E0.02795
G1 X86.440 Y43.719 E0.02322
G1 X85.941 Y44.489 E0.02761
G1 X85.320 Y45.149 E0.02726
G1 X84.701 Y45.623 E0.02345
G1 X83.897 Y46.050 E0.02738
G1 X83.026 Y46.328 E0.02749
G1 X82.281 Y46.438 E0.02265
G1 X69.496 Y46.368 E0.38459
G1 X39.080 Y45.295 E0.91548
G1 X38.109 Y45.037 E0.03023
G1 X37.269 Y44.631 E0.02806
G1 X36.617 Y44.166 E0.02409
G1 X35.934 Y43.474 E0.02925
G1 X35.416 Y42.707 E0.02783
G1 X35.028 Y41.809 E0.02943
G1 X34.819 Y40.865 E0.02909
G1 X34.795 Y39.856 E0.03034
G1 X34.949 Y38.932 E0.02818
G1 X35.283 Y38.021 E0.02921
G1 X35.781 Y37.192 E0.02909
G1 X36.377 Y36.527 E0.02685
G1 F5760
G1 X37.205 Y35.878 E-0.36426
G1 F5760
G1 X38.071 Y35.448 E-0.33497
G1 F5760
G1 X38.240 Y35.401 E-0.06076
G1 E-0.04000 F2100.00000
G1 X79.719 Y40.999 F7200.000
G1 E0.80000 F2100.00000
G1 F840
G1 X79.841 Y40.537 E0.01437
G1 X79.987 Y40.228 E0.01028
G1 X80.272 Y39.835 E0.01461
G1 X80.637 Y39.515 E0.01460
G1 X80.924 Y39.344 E0.01006
G1 X81.380 Y39.177 E0.01460
G1 X81.854 Y39.115 E0.01437
G1 X82.195 Y39.133 E0.01028
G1 X82.663 Y39.248 E0.01449
G1 X82.968 Y39.386 E0.01006
G1 X83.366 Y39.664 E0.01460
G1 X83.695 Y40.025 E0.01472
G1 X83.935 Y40.447 E0.01460
G1 X84.045 Y40.763 E0.01006
G1 X84.116 Y41.243 E0.01460
G1 X84.080 Y41.727 E0.01460
G1 X83.995 Y42.051 E0.01006
G1 X83.786 Y42.489 E0.01460
G1 X83.492 Y42.865 E0.01437
G1 X83.236 Y43.091 E0.01028
G1 X82.818 Y43.340 E0.01461
G1 X82.356 Y43.490 E0.01460
G1 X82.025 Y43.533 E0.01006
G1 X81.540 Y43.506 E0.01460
G1 X81.069 Y43.372 E0.01472
G1 X80.643 Y43.140 E0.01460
G1 X80.387 Y42.931 E0.00994
G1 X80.164 Y42.687 E0.00994
G1 X79.909 Y42.274 E0.01460
G1 X79.750 Y41.815 E0.01460
G1 X79.701 Y41.484 E0.01006
G1 X79.717 Y41.059 E0.01279
G1 X79.409 Y40.747 F7200.000
G1 X79.372 Y41.164 F7200.000
G1 F840
G1 X79.449 Y40.687 E0.01452
G1 X79.614 Y40.234 E0.01452
G1 X79.862 Y39.820 E0.01452
G1 X80.183 Y39.460 E0.01452
G1 X80.568 Y39.167 E0.01452
G1 X81.000 Y38.953 E0.01452
G1 X81.465 Y38.825 E0.01452
G1 X81.954 Y38.786 E0.01475
G1 X82.268 Y38.811 E0.00946
G1 X82.580 Y38.877 E0.00959
G1 X83.034 Y39.050 E0.01462
G1 X83.444 Y39.305 E0.01452
G1 X83.799 Y39.632 E0.01452
G1 X84.085 Y40.021 E0.01452
G1 X84.292 Y40.457 E0.01452
G1 X84.413 Y40.924 E0.01452
G1 X84.444 Y41.406 E0.01452
G1 X84.383 Y41.884 E0.01452
G1 X84.232 Y42.343 E0.01452
G1 X83.998 Y42.765 E0.01452
G1 X83.682 Y43.140 E0.01475
G1 X83.444 Y43.346 E0.00946
G1 X83.179 Y43.522 E0.00959
G1 X82.737 Y43.724 E0.01462
G1 X82.268 Y43.838 E0.01452
G1 X81.785 Y43.861 E0.01452
G1 X81.308 Y43.792 E0.01452
G1 X80.851 Y43.635 E0.01452
G1 X80.433 Y43.393 E0.01452
G1 X80.069 Y43.077 E0.01452
G1 X79.770 Y42.698 E0.01452
G1 X79.548 Y42.266 E0.01462
G1 X79.448 Y41.963 E0.00959
G1 X79.388 Y41.650 E0.00959
G1 X79.374 Y41.224 E0.01282
G1 X79.733 Y40.990 F7200.000
G1 F5760
G1 X79.449 Y40.687 E-0.18763
G1 F5760
G1 X79.614 Y40.234 E-0.16719
G1 F5760
G1 X79.862 Y39.820 E-0.16719
G1 F5760
G1 X80.183 Y39.460 E-0.16719
G1 F5760
G1 X80.346 Y39.336 E-0.07081
G1 E-0.04000 F2100.00000
G1 X71.897 Y41.163 F7200.000
G1 E0.80000 F2100.00000
G1 F840
G1 X71.861 Y41.647 E0.01460
G1 X71.776 Y41.970 E0.01006
G1 X71.568 Y42.409 E0.01460
G1 X71.273 Y42.785 E0.01437
G1 X71.017 Y43.011 E0.01028
G1 X70.599 Y43.259 E0.01461
G1 X70.138 Y43.409 E0.01460
G1 X69.806 Y43.452 E0.01006
G1 X69.321 Y43.425 E0.01460
G1 X68.851 Y43.291 E0.01472
G1 X68.424 Y43.059 E0.01460
G1 X68.168 Y42.850 E0.00994
G1 X67.946 Y42.606 E0.00994
G1 X67.690 Y42.194 E0.01460
G1 X67.532 Y41.735 E0.01460
G1 X67.482 Y41.404 E0.01006
G1 X67.500 Y40.919 E0.01460
G1 X67.622 Y40.457 E0.01437
G1 X67.768 Y40.148 E0.01028
G1 X68.053 Y39.755 E0.01461
G1 X68.418 Y39.435 E0.01460
G1 X68.706 Y39.264 E0.01006
G1 X69.161 Y39.097 E0.01460
G1 X69.635 Y39.035 E0.01437
G1 X69.976 Y39.053 E0.01028
G1 X70.444 Y39.167 E0.01449
G1 X70.749 Y39.305 E0.01006
G1 X71.147 Y39.583 E0.01460
G1 X71.476 Y39.945 E0.01472
G1 X71.717 Y40.367 E0.01460
G1 X71.826 Y40.683 E0.01006
G1 X71.888 Y41.104 E0.01280
G1 X72.249 Y41.354 F7200.000
G1 X72.195 Y40.843 F7200.000
G1 F840
G1 X72.225 Y41.325 E0.01452
G1 X72.164 Y41.804 E0.01452
G1 X72.014 Y42.263 E0.01452
G1 X71.779 Y42.684 E0.01452
G1 X71.463 Y43.060 E0.01475
G1 X71.226 Y43.266 E0.00946
G1 X70.960 Y43.442 E0.00959
G1 X70.518 Y43.644 E0.01462
G1 X70.049 Y43.758 E0.01452
G1 X69.567 Y43.781 E0.01452
G1 X69.089 Y43.712 E0.01452
G1 X68.633 Y43.554 E0.01452
G1 X68.215 Y43.313 E0.01452
G1 X67.850 Y42.997 E0.01452
G1 X67.552 Y42.617 E0.01452
G1 X67.329 Y42.185 E0.01462
G1 X67.229 Y41.882 E0.00959
G1 X67.169 Y41.569 E0.00959
G1 X67.154 Y41.084 E0.01462
G1 X67.230 Y40.607 E0.01452
G1 X67.395 Y40.153 E0.01452
G1 X67.643 Y39.739 E0.01452
G1 X67.965 Y39.379 E0.01452
G1 X68.349 Y39.087 E0.01452
G1 X68.781 Y38.873 E0.01452
G1 X69.247 Y38.744 E0.01452
G1 X69.735 Y38.706 E0.01475
G1 X70.049 Y38.731 E0.00946
G1 X70.361 Y38.796 E0.00959
G1 X70.815 Y38.970 E0.01462
G1 X71.225 Y39.224 E0.01452
G1 X71.580 Y39.552 E0.01452
G1 X71.866 Y39.940 E0.01452
G1 X72.073 Y40.376 E0.01452
G1 X72.180 Y40.785 E0.01271
G1 X71.884 Y41.096 F7200.000
G1 F5760
G1 X72.225 Y41.325 E-0.18763
G1 F5760
G1 X72.164 Y41.804 E-0.16719
G1 F5760
G1 X72.014 Y42.263 E-0.16719
G1 F5760
G1 X71.779 Y42.684 E-0.16715
G1 F5760
G1 X71.647 Y42.841 E-0.07085
G1 E-0.04000 F2100.00000
G1 X57.183 Y40.241 F7200.000
G1 E0.80000 F2100.00000
G1 F840
G1 X57.147 Y40.725 E0.01460
G1 X57.062 Y41.048 E0.01006
G1 X56.853 Y41.487 E0.01460
G1 X56.559 Y41.863 E0.01437
G1 X56.303 Y42.089 E0.01028
G1 X55.885 Y42.337 E0.01461
G1 X55.423 Y42.487 E0.01460
G1 X55.092 Y42.530 E0.01006
G1 X54.607 Y42.503 E0.01460
G1 X54.136 Y42.370 E0.01472
G1 X53.710 Y42.137 E0.01460
G1 X53.454 Y41.929 E0.00994
G1 X53.231 Y41.684 E0.00994
G1 X52.976 Y41.272 E0.01460
G1 X52.817 Y40.813 E0.01460
G1 X52.768 Y40.482 E0.01006
G1 X52.786 Y39.997 E0.01460
G1 X52.908 Y39.535 E0.01437
G1 X53.054 Y39.226 E0.01028
G1 X53.339 Y38.833 E0.01461
G1 X53.704 Y38.513 E0.01460
G1 X53.991 Y38.342 E0.01006
G1 X54.447 Y38.175 E0.01460
G1 X54.921 Y38.113 E0.01437
G1 X55.262 Y38.131 E0.01028
G1 X55.730 Y38.245 E0.01449
G1 X56.035 Y38.383 E0.01006
G1 X56.433 Y38.661 E0.01460
G1 X56.762 Y39.023 E0.01472
G1 X57.002 Y39.445 E0.01460
G1 X57.112 Y39.761 E0.01006
G1 X57.174 Y40.182 E0.01280
G1 X57.534 Y40.432 F7200.000
G1 X57.480 Y39.922 F7200.000
G1 F840
G1 X57.511 Y40.403 E0.01452
G1 X57.450 Y40.882 E0.01452
G1 X57.299 Y41.341 E0.01452
G1 X57.065 Y41.762 E0.01452
G1 X56.749 Y42.138 E0.01475
G1 X56.511 Y42.344 E0.00946
G1 X56.246 Y42.520 E0.00959
G1 X55.804 Y42.722 E0.01462
G1 X55.335 Y42.836 E0.01452
G1 X54.852 Y42.859 E0.01452
G1 X54.375 Y42.790 E0.01452
G1 X53.919 Y42.632 E0.01452
G1 X53.500 Y42.391 E0.01452
G1 X53.136 Y42.075 E0.01452
G1 X52.837 Y41.695 E0.01452
G1 X52.615 Y41.263 E0.01462
G1 X52.515 Y40.960 E0.00959
G1 X52.455 Y40.647 E0.00959
G1 X52.439 Y40.162 E0.01462
G1 X52.516 Y39.685 E0.01452
G1 X52.681 Y39.231 E0.01452
G1 X52.929 Y38.817 E0.01452
G1 X53.251 Y38.458 E0.01452
G1 X53.635 Y38.165 E0.01452
G1 X54.067 Y37.951 E0.01452
G1 X54.532 Y37.822 E0.01452
G1 X55.021 Y37.784 E0.01475
G1 X55.335 Y37.809 E0.00946
G1 X55.647 Y37.874 E0.00959
G1 X56.101 Y38.048 E0.01462
G1 X56.511 Y38.302 E0.01452
G1 X56.866 Y38.630 E0.01452
G1 X57.152 Y39.018 E0.01452
G1 X57.359 Y39.454 E0.01452
G1 X57.465 Y39.863 E0.01271
G1 X57.170 Y40.174 F7200.000
G1 F5760
G1 X57.511 Y40.403 E-0.18763
G1 F5760
G1 X57.450 Y40.882 E-0.16719
G1 F5760
G1 X57.299 Y41.341 E-0.16719
G1 F5760
G1 X57.065 Y41.762 E-0.16715
G1 F5760
G1 X56.933 Y41.919 E-0.07085
G1 E-0.04000 F2100.00000
G1 X42.117 Y40.154 F7200.000
G1 E0.80000 F2100.00000
G1 F840
G1 X42.081 Y40.638 E0.01460
G1 X41.996 Y40.961 E0.01006
G1 X41.787 Y41.399 E0.01460
G1 X41.493 Y41.776 E0.01437
G1 X41.237 Y42.002 E0.01028
G1 X40.819 Y42.250 E0.01461
G1 X40.357 Y42.400 E0.01460
G1 X40.026 Y42.443 E0.01006
G1 X39.541 Y42.416 E0.01460
G1 X39.071 Y42.282 E0.01472
G1 X38.644 Y42.050 E0.01460
G1 X38.388 Y41.841 E0.00994
G1 X38.165 Y41.597 E0.00994
G1 X37.910 Y41.184 E0.01460
G1 X37.751 Y40.725 E0.01460
G1 X37.702 Y40.395 E0.01006
G1 X37.720 Y39.910 E0.01460
G1 X37.842 Y39.448 E0.01437
G1 X37.988 Y39.139 E0.01028
G1 X38.273 Y38.746 E0.01461
G1 X38.638 Y38.425 E0.01460
G1 X38.925 Y38.255 E0.01006
G1 X39.381 Y38.088 E0.01460
G1 X39.855 Y38.025 E0.01437
G1 X40.196 Y38.043 E0.01028
G1 X40.664 Y38.158 E0.01449
G1 X40.969 Y38.296 E0.01006
G1 X41.367 Y38.574 E0.01460
G1 X41.696 Y38.936 E0.01472
G1 X41.936 Y39.358 E0.01460
G1 X42.046 Y39.674 E0.01006
G1 X42.108 Y40.094 E0.01280
G1 X42.468 Y40.345 F7200.000
G1 X42.414 Y39.834 F7200.000
G1 F840
G1 X42.445 Y40.316 E0.01452
G1 X42.384 Y40.795 E0.01452
G1 X42.233 Y41.253 E0.01452
G1 X41.999 Y41.675 E0.01452
G1 X41.683 Y42.050 E0.01475
G1 X41.445 Y42.256 E0.00946
G1 X41.180 Y42.433 E0.00959
G1 X40.738 Y42.635 E0.01462
G1 X40.269 Y42.749 E0.01452
G1 X39.786 Y42.772 E0.01452
G1 X39.309 Y42.703 E0.01452
G1 X38.853 Y42.545 E0.01452
G1 X38.434 Y42.304 E0.01452
G1 X38.070 Y41.988 E0.01452
G1 X37.771 Y41.608 E0.01452
G1 X37.549 Y41.176 E0.01462
G1 X37.449 Y40.873 E0.00959
G1 X37.389 Y40.560 E0.00959
G1 X37.373 Y40.074 E0.01462
G1 X37.450 Y39.598 E0.01452
G1 X37.615 Y39.144 E0.01452
G1 X37.863 Y38.730 E0.01452
G1 X38.185 Y38.370 E0.01452
G1 X38.569 Y38.078 E0.01452
G1 X39.001 Y37.864 E0.01452
G1 X39.466 Y37.735 E0.01452
G1 X39.955 Y37.697 E0.01475
G1 X40.269 Y37.722 E0.00946
G1 X40.581 Y37.787 E0.00959
G1 X41.035 Y37.960 E0.01462
G1 X41.445 Y38.215 E0.01452
G1 X41.800 Y38.542 E0.01452
G1 X42.086 Y38.931 E0.01452
G1 X42.293 Y39.367 E0.01452
G1 X42.399 Y39.776 E0.01271
G1 X42.104 Y40.086 F7200.000
M106 S255
G1 F5760
G1 X42.445 Y40.316 E-0.18763
G1 F5760
G1 X42.384 Y40.795 E-0.16719
G1 F5760
G1 X42.233 Y41.253 E-0.16719
G1 F5760
G1 X41.999 Y41.675 E-0.16715
G1 F5760
G1 X41.867 Y41.832 E-0.07085
G1 E-0.04000 F2100.00000
G1 Z0.400 F7200.000
G1 X79.704 Y41.001 F7200.000
G1 E0.80000 F2100.00000
M204 S800
G1 F900
G1 X79.778 Y40.672 E0.01098
G1 X79.971 Y40.224 E0.01591
G1 X80.261 Y39.825 E0.01605
G1 X80.628 Y39.503 E0.01591
G1 X80.918 Y39.331 E0.01098
G1 X81.376 Y39.163 E0.01590
G1 X81.838 Y39.101 E0.01516
G1 X82.197 Y39.118 E0.01171
G1 X82.668 Y39.233 E0.01580
G1 X82.975 Y39.372 E0.01098
G1 X83.376 Y39.652 E0.01591
G1 X83.707 Y40.016 E0.01605
G1 X83.949 Y40.441 E0.01591
G1 X84.059 Y40.760 E0.01098
G1 X84.131 Y41.243 E0.01591
G1 X84.095 Y41.730 E0.01591
G1 X84.009 Y42.056 E0.01098
G1 X83.799 Y42.497 E0.01590
G1 X83.513 Y42.864 E0.01516
G1 X83.245 Y43.103 E0.01171
G1 X82.824 Y43.353 E0.01594
G1 X82.360 Y43.504 E0.01591
G1 X82.025 Y43.548 E0.01098
G1 X81.538 Y43.521 E0.01591
G1 X81.064 Y43.386 E0.01605
G1 X80.635 Y43.152 E0.01591
G1 X80.377 Y42.942 E0.01084
G1 X80.152 Y42.696 E0.01084
G1 X79.895 Y42.280 E0.01591
G1 X79.736 Y41.819 E0.01591
G1 X79.686 Y41.485 E0.01098
G1 X79.702 Y41.061 E0.01382
M204 S1000
G1 X79.437 Y40.795 F7200.000
G1 X79.387 Y41.165 F7200.000
M204 S800
G1 F900
G1 X79.463 Y40.691 E0.01563
G1 X79.627 Y40.240 E0.01563
G1 X79.874 Y39.829 E0.01563
G1 X80.194 Y39.471 E0.01563
G1 X80.576 Y39.180 E0.01563
G1 X81.005 Y38.967 E0.01563
G1 X81.468 Y38.839 E0.01562
G1 X81.962 Y38.802 E0.01617
G1 X82.265 Y38.826 E0.00990
G1 X82.575 Y38.891 E0.01032
G1 X83.027 Y39.064 E0.01575
G1 X83.435 Y39.317 E0.01563
G1 X83.787 Y39.642 E0.01563
G1 X84.072 Y40.028 E0.01563
G1 X84.278 Y40.462 E0.01563
G1 X84.399 Y40.926 E0.01563
G1 X84.429 Y41.405 E0.01563
G1 X84.368 Y41.881 E0.01563
G1 X84.218 Y42.337 E0.01563
G1 X83.985 Y42.756 E0.01563
G1 X83.677 Y43.124 E0.01563
G1 X83.304 Y43.426 E0.01563
G1 X82.882 Y43.653 E0.01562
G1 X82.407 Y43.799 E0.01617
G1 X82.106 Y43.842 E0.00990
G1 X81.790 Y43.847 E0.01032
G1 X81.311 Y43.778 E0.01575
G1 X80.858 Y43.621 E0.01563
G1 X80.442 Y43.381 E0.01563
G1 X80.080 Y43.067 E0.01563
G1 X79.783 Y42.690 E0.01563
G1 X79.561 Y42.260 E0.01575
G1 X79.463 Y41.959 E0.01031
G1 X79.403 Y41.648 E0.01031
G1 X79.389 Y41.225 E0.01379
M204 S1000
G1 X79.748 Y40.991 F7200.000
G1 F5760
G1 X79.463 Y40.691 E-0.18664
G1 F5760
G1 X79.627 Y40.240 E-0.16619
G1 F5760
G1 X79.874 Y39.829 E-0.16619
G1 F5760
G1 X80.194 Y39.471 E-0.16619
G1 F5760
G1 X80.366 Y39.340 E-0.07478
G1 E-0.04000 F2100.00000
G1 X71.912 Y41.162 F7200.000
G1 E0.80000 F2100.00000
M204 S800
G1 F900
G1 X71.876 Y41.650 E0.01591
G1 X71.790 Y41.975 E0.01098
G1 X71.581 Y42.416 E0.01590
G1 X71.295 Y42.784 E0.01516
G1 X71.026 Y43.023 E0.01171
G1 X70.606 Y43.273 E0.01594
G1 X70.141 Y43.424 E0.01591
G1 X69.807 Y43.467 E0.01098
G1 X69.319 Y43.440 E0.01591
G1 X68.845 Y43.305 E0.01605
G1 X68.416 Y43.072 E0.01591
G1 X68.158 Y42.861 E0.01084
G1 X67.934 Y42.615 E0.01084
G1 X67.677 Y42.200 E0.01591
G1 X67.517 Y41.738 E0.01591
G1 X67.467 Y41.405 E0.01098
G1 X67.485 Y40.921 E0.01578
G1 X67.559 Y40.592 E0.01098
G1 X67.753 Y40.143 E0.01591
G1 X68.042 Y39.745 E0.01605
G1 X68.409 Y39.422 E0.01591
G1 X68.699 Y39.250 E0.01098
G1 X69.157 Y39.082 E0.01590
G1 X69.619 Y39.020 E0.01516
G1 X69.978 Y39.038 E0.01171
G1 X70.449 Y39.153 E0.01580
G1 X70.756 Y39.292 E0.01098
G1 X71.157 Y39.572 E0.01591
G1 X71.489 Y39.936 E0.01605
G1 X71.730 Y40.361 E0.01591
G1 X71.840 Y40.679 E0.01098
G1 X71.904 Y41.103 E0.01396
M204 S1000
G1 X72.264 Y41.354 F7200.000
G1 X72.180 Y40.846 F7200.000
M204 S800
G1 F900
G1 X72.210 Y41.325 E0.01563
G1 X72.149 Y41.801 E0.01563
G1 X72.000 Y42.257 E0.01563
G1 X71.766 Y42.676 E0.01563
G1 X71.458 Y43.043 E0.01563
G1 X71.086 Y43.346 E0.01563
G1 X70.663 Y43.572 E0.01562
G1 X70.189 Y43.718 E0.01617
G1 X69.888 Y43.761 E0.00990
G1 X69.571 Y43.766 E0.01032
G1 X69.092 Y43.697 E0.01575
G1 X68.639 Y43.541 E0.01563
G1 X68.223 Y43.301 E0.01563
G1 X67.861 Y42.986 E0.01563
G1 X67.564 Y42.609 E0.01563
G1 X67.343 Y42.179 E0.01575
G1 X67.244 Y41.879 E0.01031
G1 X67.184 Y41.568 E0.01031
