; generated by Slic3r 1.35.5-prusa3d-win64 on 2017-07-09 at 19:54:20

; 

; external perimeters extrusion width = 0.45mm
; perimeters extrusion width = 0.45mm
; infill extrusion width = 0.45mm
; solid infill extrusion width = 0.45mm
; top infill extrusion width = 0.40mm
; first layer extrusion width = 0.42mm

M107
M115 U3.0.11 ; tell printer latest fw version
M83  ; extruder relative mode
M104 S200 ; set extruder temp
M140 S55 ; set bed temp
M190 S55 ; wait for bed temp
M109 S200 ; wait for extruder temp
G28 W ; home all without mesh bed level
G80 ; mesh bed leveling
G1 Y-3.0 F1000.0 ; go outside pritn area
G1 X60.0 E9.0  F1000.0 ; intro line
G1 X100.0 E12.5  F1000.0 ; intro line
; Filament gcode

G21 ; set units to millimeters
G90 ; use absolute coordinates
M83 ; use relative distances for extrusion
G1 E-0.80000 F2100.00000
G1 Z0.200 F7200.000
G1 X108.396 Y51.809 F7200.000
G1 E0.80000 F2100.00000
M204 S1000
G1 F2100
G1 X108.882 Y51.583 E0.01680
G1 X111.367 Y50.822 E0.08150
G1 X112.024 Y50.721 E0.02083
G1 X204.598 Y50.721 E2.90260
G1 X205.230 Y50.808 E0.02000
G1 X205.817 Y51.059 E0.02000
G1 X215.945 Y57.532 E0.37687
G1 X216.395 Y57.962 E0.01953
G1 X216.718 Y58.495 E0.01953
G1 X216.892 Y59.093 E0.01953
G1 X216.904 Y59.719 E0.01965
G1 X194.808 Y137.382 E2.53171
G1 X194.472 Y137.999 E0.02201
G1 X193.968 Y138.493 E0.02213
G1 X165.048 Y158.931 E1.11035
G1 X164.457 Y159.189 E0.02024
G1 X163.817 Y159.279 E0.02024
G1 X38.305 Y159.278 E3.93534
G1 X37.518 Y159.119 E0.02520
G1 X36.825 Y158.705 E0.02532
G1 X33.724 Y155.470 E0.14050
G1 X33.427 Y155.079 E0.01538
G1 X33.199 Y154.586 E0.01704
G1 X33.090 Y154.054 E0.01704
G1 X33.081 Y151.186 E0.08991
G1 X33.189 Y150.504 E0.02166
G1 X33.486 Y149.884 E0.02154
G1 X94.645 Y64.165 E3.30163
G1 X94.981 Y63.792 E0.01575
G1 X108.351 Y51.849 E0.56209
G1 F5760
G1 X108.882 Y51.583 E-0.20559
G1 F5760
G1 X110.412 Y51.114 E-0.55441
G1 E-0.04000 F2100.00000
G1 X130.694 Y150.893 F7200.000
G1 E0.80000 F2100.00000
G1 F840
G1 X131.159 Y150.832 E0.01473
G1 X131.650 Y150.892 E0.01548
G1 X132.098 Y151.078 E0.01523
G1 X132.482 Y151.372 E0.01515
G1 X132.776 Y151.756 E0.01515
G1 X132.961 Y152.202 E0.01515
G1 X133.024 Y152.681 E0.01515
G1 X132.961 Y153.160 E0.01515
G1 X132.781 Y153.594 E0.01473
G1 X132.484 Y153.988 E0.01548
G1 X132.098 Y154.284 E0.01523
G1 X131.652 Y154.469 E0.01515
G1 X131.173 Y154.532 E0.01515
G1 X130.694 Y154.469 E0.01515
G1 X130.247 Y154.284 E0.01515
G1 X129.864 Y153.990 E0.01515
G1 X129.570 Y153.607 E0.01515
G1 X129.385 Y153.160 E0.01515
G1 X129.322 Y152.681 E0.01515
G1 X129.385 Y152.202 E0.01515
G1 X129.565 Y151.768 E0.01473
G1 X129.862 Y151.374 E0.01548
G1 X130.247 Y151.078 E0.01523
G1 X130.638 Y150.916 E0.01327
G1 X130.783 Y151.265 F7200.000
G1 F840
G1 X131.161 Y151.212 E0.01198
G1 X131.553 Y151.260 E0.01237
G1 X131.908 Y151.407 E0.01207
G1 X132.213 Y151.641 E0.01204
G1 X132.446 Y151.946 E0.01204
G1 X132.593 Y152.301 E0.01204
G1 X132.643 Y152.681 E0.01204
G1 X132.593 Y153.062 E0.01204
G1 X132.451 Y153.406 E0.01167
G1 X132.213 Y153.721 E0.01237
G1 X131.908 Y153.955 E0.01207
G1 X131.553 Y154.102 E0.01204
G1 X131.173 Y154.152 E0.01204
G1 X130.792 Y154.102 E0.01204
G1 X130.437 Y153.955 E0.01204
G1 X130.133 Y153.721 E0.01204
G1 X129.899 Y153.416 E0.01204
G1 X129.752 Y153.062 E0.01204
G1 X129.702 Y152.681 E0.01204
G1 X129.752 Y152.301 E0.01204
G1 X129.895 Y151.957 E0.01167
G1 X130.132 Y151.642 E0.01237
G1 X130.437 Y151.407 E0.01207
G1 X130.727 Y151.287 E0.00983
G1 X130.880 Y150.895 F7200.000
G1 X130.139 Y150.715 F7200.000
G1 F840
G1 X130.036 Y150.560 E0.00584
G1 X130.311 Y150.289 E0.01210
G1 X130.777 Y150.289 E0.01461
G1 X130.791 Y150.500 E0.00664
G1 X130.595 Y150.526 E0.00617
G1 X130.194 Y150.692 E0.01361
G1 F5760
G1 X130.036 Y150.560 E-0.07150
G1 F5760
G1 X130.311 Y150.289 E-0.13364
G1 F5760
G1 X130.777 Y150.289 E-0.16137
G1 F5760
G1 X130.791 Y150.500 E-0.07339
G1 F5760
G1 X130.595 Y150.526 E-0.06821
G1 F5760
G1 X130.194 Y150.692 E-0.15030
G1 E-0.14159 F2100.00000
G1 X137.493 Y152.233 F7200.000
G1 E0.80000 F2100.00000
G1 F840
G1 X137.666 Y151.815 E0.01418
G1 X137.941 Y151.456 E0.01418
G1 X138.300 Y151.181 E0.01418
G1 X138.718 Y151.007 E0.01418
G1 X139.154 Y150.950 E0.01379
G1 X139.613 Y151.007 E0.01448
G1 X140.033 Y151.181 E0.01426
G1 X140.392 Y151.456 E0.01418
G1 X140.667 Y151.815 E0.01418
G1 X140.840 Y152.233 E0.01418
G1 X140.899 Y152.681 E0.01418
G1 X140.840 Y153.130 E0.01418
G1 X140.672 Y153.536 E0.01379
G1 X140.394 Y153.905 E0.01448
G1 X140.033 Y154.182 E0.01426
G1 X139.615 Y154.355 E0.01418
G1 X139.167 Y154.414 E0.01418
G1 X138.718 Y154.355 E0.01418
G1 X138.312 Y154.186 E0.01379
G1 X137.943 Y153.908 E0.01448
G1 X137.666 Y153.547 E0.01426
G1 X137.493 Y153.130 E0.01418
G1 X137.434 Y152.681 E0.01418
G1 X137.485 Y152.292 E0.01230
G1 X137.859 Y152.341 F7200.000
G1 F840
G1 X137.995 Y152.005 E0.01138
G1 X138.210 Y151.725 E0.01107
G1 X138.490 Y151.510 E0.01107
G1 X138.817 Y151.375 E0.01107
G1 X139.156 Y151.330 E0.01073
G1 X139.516 Y151.374 E0.01137
G1 X139.843 Y151.510 E0.01110
G1 X140.123 Y151.725 E0.01107
G1 X140.338 Y152.005 E0.01107
G1 X140.473 Y152.331 E0.01107
G1 X140.519 Y152.681 E0.01107
G1 X140.473 Y153.031 E0.01107
G1 X140.342 Y153.347 E0.01073
G1 X140.124 Y153.637 E0.01137
G1 X139.843 Y153.852 E0.01110
G1 X139.517 Y153.987 E0.01107
G1 X139.167 Y154.034 E0.01107
G1 X138.817 Y153.987 E0.01107
G1 X138.500 Y153.856 E0.01073
G1 X138.211 Y153.638 E0.01137
G1 X137.995 Y153.357 E0.01110
G1 X137.860 Y153.031 E0.01107
G1 X137.814 Y152.681 E0.01107
G1 X137.851 Y152.401 E0.00886
G1 X137.601 Y152.086 F7200.000
G1 F5760
G1 X137.995 Y152.005 E-0.14595
G1 F5760
G1 X138.210 Y151.725 E-0.12228
G1 F5760
G1 X138.490 Y151.510 E-0.12228
G1 F5760
G1 X138.817 Y151.375 E-0.12228
G1 F5760
G1 X139.156 Y151.330 E-0.11853
G1 F5760
G1 X139.516 Y151.374 E-0.12560
G1 F5760
G1 X139.524 Y151.378 E-0.00308
G1 E-0.04000 F2100.00000
G1 X153.057 Y152.681 F7200.000
G1 E0.80000 F2100.00000
G1 F840
G1 X153.132 Y152.118 E0.01782
G1 X153.349 Y151.593 E0.01782
G1 X153.695 Y151.142 E0.01782
G1 X154.146 Y150.796 E0.01782
G1 X154.671 Y150.579 E0.01782
G1 X155.220 Y150.506 E0.01736
G1 X155.794 Y150.577 E0.01813
G1 X156.322 Y150.796 E0.01794
G1 X156.773 Y151.142 E0.01782
G1 X157.119 Y151.593 E0.01782
G1 X157.336 Y152.118 E0.01782
G1 X157.411 Y152.681 E0.01782
G1 X157.336 Y153.244 E0.01782
G1 X157.119 Y153.769 E0.01782
G1 X156.773 Y154.220 E0.01782
G1 X156.322 Y154.566 E0.01782
G1 X155.811 Y154.778 E0.01736
G1 X155.238 Y154.858 E0.01813
G1 X154.671 Y154.784 E0.01794
G1 X154.146 Y154.566 E0.01782
G1 X153.695 Y154.220 E0.01782
G1 X153.349 Y153.769 E0.01782
G1 X153.132 Y153.244 E0.01782
G1 X153.065 Y152.741 E0.01593
G1 X153.439 Y152.691 F7200.000
G1 F840
G1 X153.499 Y152.216 E0.01502
G1 X153.678 Y151.783 E0.01470
G1 X153.964 Y151.411 E0.01470
G1 X154.336 Y151.126 E0.01470
G1 X154.769 Y150.946 E0.01470
G1 X155.221 Y150.887 E0.01430
G1 X155.697 Y150.945 E0.01502
G1 X156.132 Y151.126 E0.01478
G1 X156.504 Y151.411 E0.01470
G1 X156.790 Y151.783 E0.01470
G1 X156.969 Y152.216 E0.01470
G1 X157.030 Y152.681 E0.01470
G1 X156.969 Y153.146 E0.01470
G1 X156.790 Y153.579 E0.01470
G1 X156.504 Y153.951 E0.01470
G1 X156.132 Y154.237 E0.01470
G1 X155.711 Y154.411 E0.01430
G1 X155.236 Y154.478 E0.01502
G1 X154.769 Y154.416 E0.01478
G1 X154.336 Y154.237 E0.01470
G1 X153.964 Y153.951 E0.01470
G1 X153.678 Y153.579 E0.01470
G1 X153.499 Y153.146 E0.01470
G1 X153.447 Y152.751 E0.01250
G1 X153.818 Y152.681 F7200.000
G1 F840
G1 X153.866 Y152.315 E0.01159
G1 X154.008 Y151.973 E0.01159
G1 X154.233 Y151.680 E0.01159
G1 X154.526 Y151.455 E0.01159
G1 X154.868 Y151.313 E0.01159
G1 X155.223 Y151.267 E0.01123
G1 X155.600 Y151.313 E0.01191
G1 X155.942 Y151.455 E0.01162
G1 X156.235 Y151.680 E0.01159
G1 X156.460 Y151.973 E0.01159
G1 X156.602 Y152.315 E0.01159
G1 X156.650 Y152.681 E0.01159
G1 X156.602 Y153.048 E0.01159
G1 X156.460 Y153.389 E0.01159
G1 X156.235 Y153.682 E0.01159
G1 X155.942 Y153.907 E0.01159
G1 X155.611 Y154.044 E0.01123
G1 X155.235 Y154.097 E0.01191
G1 X154.868 Y154.049 E0.01162
G1 X154.526 Y153.907 E0.01159
G1 X154.233 Y153.682 E0.01159
G1 X154.008 Y153.389 E0.01159
G1 X153.866 Y153.048 E0.01159
G1 X153.826 Y152.741 E0.00971
G1 X153.498 Y152.496 F7200.000
G1 F5760
G1 X153.866 Y152.315 E-0.14820
G1 F5760
G1 X154.008 Y151.973 E-0.12802
G1 F5760
G1 X154.233 Y151.680 E-0.12802
G1 F5760
G1 X154.526 Y151.455 E-0.12802
G1 F5760
G1 X154.868 Y151.313 E-0.12802
G1 F5760
G1 X155.153 Y151.276 E-0.09971
G1 E-0.04000 F2100.00000
G1 X149.415 Y152.681 F7200.000
G1 E0.80000 F2100.00000
G1 F840
G1 X149.341 Y153.240 E0.01768
G1 X149.125 Y153.761 E0.01768
G1 X148.782 Y154.209 E0.01768
G1 X148.335 Y154.552 E0.01768
G1 X147.814 Y154.768 E0.01768
G1 X147.254 Y154.842 E0.01768
G1 X146.695 Y154.768 E0.01768
G1 X146.187 Y154.558 E0.01723
G1 X145.729 Y154.212 E0.01800
G1 X145.383 Y153.761 E0.01781
G1 X145.167 Y153.240 E0.01768
G1 X145.094 Y152.681 E0.01768
G1 X145.167 Y152.122 E0.01769
G1 X145.383 Y151.601 E0.01768
G1 X145.727 Y151.153 E0.01769
G1 X146.174 Y150.810 E0.01768
G1 X146.695 Y150.594 E0.01768
G1 X147.240 Y150.522 E0.01723
G1 X147.810 Y150.593 E0.01800
G1 X148.335 Y150.810 E0.01781
G1 X148.782 Y151.153 E0.01768
G1 X149.125 Y151.601 E0.01768
G1 X149.341 Y152.122 E0.01768
G1 X149.407 Y152.622 E0.01580
G1 X149.033 Y152.671 F7200.000
G1 F840
G1 X148.974 Y153.142 E0.01489
G1 X148.796 Y153.571 E0.01457
G1 X148.513 Y153.940 E0.01457
G1 X148.144 Y154.223 E0.01457
G1 X147.715 Y154.401 E0.01457
G1 X147.254 Y154.461 E0.01457
G1 X146.794 Y154.401 E0.01457
G1 X146.376 Y154.228 E0.01417
G1 X145.997 Y153.942 E0.01488
G1 X145.713 Y153.571 E0.01465
G1 X145.535 Y153.142 E0.01457
G1 X145.474 Y152.681 E0.01457
G1 X145.535 Y152.220 E0.01457
G1 X145.713 Y151.791 E0.01457
G1 X145.995 Y151.422 E0.01457
G1 X146.364 Y151.139 E0.01457
G1 X146.794 Y150.962 E0.01457
G1 X147.242 Y150.903 E0.01417
G1 X147.713 Y150.961 E0.01488
G1 X148.144 Y151.139 E0.01465
G1 X148.513 Y151.422 E0.01457
G1 X148.796 Y151.791 E0.01457
G1 X148.974 Y152.220 E0.01457
G1 X149.025 Y152.611 E0.01237
G1 X148.654 Y152.681 F7200.000
G1 F840
G1 X148.607 Y153.043 E0.01146
G1 X148.467 Y153.381 E0.01146
G1 X148.244 Y153.671 E0.01146
G1 X147.954 Y153.893 E0.01146
G1 X147.617 Y154.033 E0.01146
G1 X147.254 Y154.081 E0.01146
G1 X146.892 Y154.033 E0.01146
G1 X146.565 Y153.898 E0.01111
G1 X146.265 Y153.672 E0.01177
G1 X146.042 Y153.381 E0.01149
G1 X145.902 Y153.043 E0.01146
G1 X145.854 Y152.681 E0.01146
G1 X145.902 Y152.319 E0.01146
G1 X146.042 Y151.981 E0.01146
G1 X146.264 Y151.691 E0.01146
G1 X146.554 Y151.469 E0.01146
G1 X146.892 Y151.329 E0.01146
G1 X147.243 Y151.283 E0.01111
G1 X147.616 Y151.329 E0.01177
G1 X147.954 Y151.469 E0.01149
G1 X148.244 Y151.691 E0.01146
G1 X148.467 Y151.981 E0.01146
G1 X148.607 Y152.319 E0.01146
G1 X148.646 Y152.622 E0.00958
G1 X148.971 Y152.864 F7200.000
G1 F5760
G1 X148.607 Y153.043 E-0.14674
G1 F5760
G1 X148.467 Y153.381 E-0.12657
G1 F5760
G1 X148.244 Y153.671 E-0.12658
G1 F5760
G1 X147.954 Y153.893 E-0.12657
G1 F5760
G1 X147.617 Y154.033 E-0.12658
G1 F5760
G1 X147.310 Y154.074 E-0.10696
G1 E-0.04000 F2100.00000
G1 X166.429 Y147.942 F7200.000
G1 E0.80000 F2100.00000
G1 F1680
G1 X166.429 Y120.155 E0.87121
G1 X184.977 Y135.002 E0.74492
G1 X166.478 Y147.907 E0.70723
G1 X166.806 Y147.219 F7200.000
G1 F1680
G1 X166.806 Y120.940 E0.82394
G1 X184.348 Y134.981 E0.70450
G1 X166.855 Y147.184 E0.66875
G1 X167.183 Y146.496 F7200.000
G1 F1260
G1 X167.183 Y121.725 E0.77667
G1 X183.718 Y134.960 E0.66408
G1 X167.232 Y146.462 E0.63028
G1 X166.836 Y146.696 F7200.000
G1 F5760
G1 X167.228 Y144.267 E-0.76000
G1 E-0.04000 F2100.00000
G1 X186.256 Y134.847 F7200.000
G1 E0.80000 F2100.00000
G1 F840
G1 X185.983 Y134.189 E0.02231
G1 X185.890 Y133.484 E0.02231
G1 X185.983 Y132.778 E0.02231
G1 X186.248 Y132.139 E0.02171
G1 X186.686 Y131.559 E0.02278
G1 X187.254 Y131.123 E0.02244
G1 X187.911 Y130.851 E0.02231
G1 X188.597 Y130.760 E0.02171
G1 X189.318 Y130.849 E0.02278
G1 X189.980 Y131.123 E0.02244
G1 X190.544 Y131.556 E0.02231
G1 X190.977 Y132.121 E0.02231
G1 X191.250 Y132.778 E0.02231
G1 X191.343 Y133.484 E0.02231
G1 X191.250 Y134.189 E0.02231
G1 X190.977 Y134.847 E0.02231
G1 X190.544 Y135.412 E0.02231
G1 X189.980 Y135.845 E0.02231
G1 X189.322 Y136.117 E0.02231
G1 X188.617 Y136.210 E0.02231
G1 X187.911 Y136.117 E0.02231
G1 X187.254 Y135.845 E0.02231
G1 X186.689 Y135.412 E0.02231
G1 X186.292 Y134.895 E0.02043
G1 X186.591 Y134.665 F7200.000
G1 F840
G1 X186.351 Y134.091 E0.01951
G1 X186.271 Y133.484 E0.01920
G1 X186.351 Y132.877 E0.01920
G1 X186.578 Y132.327 E0.01864
G1 X186.956 Y131.827 E0.01966
G1 X187.444 Y131.452 E0.01928
G1 X188.009 Y131.218 E0.01920
G1 X188.599 Y131.140 E0.01864
G1 X189.221 Y131.217 E0.01966
G1 X189.789 Y131.452 E0.01928
G1 X190.275 Y131.825 E0.01920
G1 X190.648 Y132.311 E0.01920
G1 X190.882 Y132.877 E0.01920
G1 X190.962 Y133.484 E0.01920
G1 X190.882 Y134.091 E0.01920
G1 X190.648 Y134.657 E0.01920
G1 X190.275 Y135.143 E0.01920
G1 X189.789 Y135.515 E0.01920
G1 X189.224 Y135.750 E0.01920
G1 X188.617 Y135.830 E0.01920
G1 X188.009 Y135.750 E0.01920
G1 X187.444 Y135.515 E0.01920
G1 X186.958 Y135.143 E0.01920
G1 X186.628 Y134.713 E0.01699
G1 X186.927 Y134.483 F7200.000
G1 F840
G1 X186.718 Y133.993 E0.01671
G1 X186.651 Y133.484 E0.01609
G1 X186.718 Y132.975 E0.01609
G1 X186.908 Y132.516 E0.01558
G1 X187.226 Y132.095 E0.01655
G1 X187.634 Y131.782 E0.01611
G1 X188.108 Y131.585 E0.01609
G1 X188.601 Y131.521 E0.01558
G1 X189.124 Y131.585 E0.01655
G1 X189.599 Y131.782 E0.01611
G1 X190.006 Y132.094 E0.01609
G1 X190.319 Y132.501 E0.01609
G1 X190.515 Y132.975 E0.01609
G1 X190.582 Y133.484 E0.01609
G1 X190.515 Y133.993 E0.01609
G1 X190.319 Y134.467 E0.01609
G1 X190.006 Y134.874 E0.01609
G1 X189.599 Y135.186 E0.01609
G1 X189.125 Y135.382 E0.01609
G1 X188.617 Y135.449 E0.01609
G1 X188.108 Y135.382 E0.01609
G1 X187.634 Y135.186 E0.01609
G1 X187.227 Y134.874 E0.01609
G1 X186.964 Y134.531 E0.01356
G1 X186.527 Y134.486 F7200.000
G1 F5760
G1 X186.718 Y133.993 E-0.20483
G1 F5760
G1 X186.651 Y133.484 E-0.17771
G1 F5760
G1 X186.718 Y132.975 E-0.17771
G1 F5760
G1 X186.908 Y132.516 E-0.17211
G1 F5760
G1 X186.956 Y132.452 E-0.02765
G1 E-0.04000 F2100.00000
G1 X188.613 Y129.420 F7200.000
G1 E0.80000 F2100.00000
G1 F1680
G1 X171.015 Y115.228 E0.70884
G1 X193.412 Y81.152 E1.27855
G1 X199.396 Y85.205 E0.22660
G1 X188.627 Y129.362 E1.42507
G1 X188.387 Y128.754 F7200.000
G1 F1680
G1 X171.518 Y115.149 E0.67949
G1 X193.517 Y81.679 E1.25584
G1 X198.967 Y85.371 E0.20640
G1 X188.402 Y128.695 E1.39823
G1 X188.162 Y128.087 F7200.000
G1 F1260
G1 X172.021 Y115.070 E0.65014
G1 X193.622 Y82.205 E1.23312
G1 X198.539 Y85.536 E0.18619
G1 X188.176 Y128.029 E1.37139
G1 X187.973 Y128.440 F7200.000
G1 F5760
G1 X186.464 Y126.656 E-0.76000
G1 E-0.04000 F2100.00000
G1 X201.020 Y83.550 F7200.000
G1 E0.80000 F2100.00000
G1 F840
G1 X200.378 Y83.284 E0.02177
G1 X199.797 Y82.846 E0.02285
G1 X199.360 Y82.276 E0.02251
G1 X199.094 Y81.635 E0.02177
G1 X198.993 Y80.913 E0.02285
G1 X199.086 Y80.201 E0.02251
G1 X199.360 Y79.542 E0.02238
G1 X199.794 Y78.976 E0.02238
G1 X200.360 Y78.541 E0.02238
G1 X201.020 Y78.268 E0.02238
G1 X201.708 Y78.177 E0.02177
G1 X202.431 Y78.266 E0.02285
G1 X203.095 Y78.541 E0.02251
G1 X203.661 Y78.976 E0.02238
G1 X204.095 Y79.542 E0.02238
G1 X204.369 Y80.201 E0.02238
G1 X204.462 Y80.909 E0.02238
G1 X204.369 Y81.617 E0.02238
G1 X204.095 Y82.276 E0.02238
G1 X203.661 Y82.842 E0.02238
G1 X203.095 Y83.277 E0.02238
G1 X202.435 Y83.550 E0.02238
G1 X201.728 Y83.643 E0.02238
G1 X201.079 Y83.558 E0.02050
G1 X201.129 Y83.184 F7200.000
G1 F840
G1 X200.567 Y82.954 E0.01902
G1 X200.065 Y82.576 E0.01973
G1 X199.689 Y82.086 E0.01934
G1 X199.461 Y81.535 E0.01871
G1 X199.373 Y80.912 E0.01973
G1 X199.454 Y80.300 E0.01935
G1 X199.689 Y79.732 E0.01927
G1 X200.063 Y79.245 E0.01927
G1 X200.551 Y78.871 E0.01927
G1 X201.118 Y78.635 E0.01927
G1 X201.710 Y78.558 E0.01871
G1 X202.334 Y78.634 E0.01973
G1 X202.905 Y78.871 E0.01935
G1 X203.392 Y79.245 E0.01927
G1 X203.766 Y79.732 E0.01927
G1 X204.001 Y80.300 E0.01927
G1 X204.081 Y80.909 E0.01927
