; generated by Slic3r 1.35.5-prusa3d-win64 on 2017-07-21 at 04:23:09

; 

; external perimeters extrusion width = 0.45mm
; perimeters extrusion width = 0.45mm
; infill extrusion width = 0.45mm
; solid infill extrusion width = 0.45mm
; top infill extrusion width = 0.40mm
; first layer extrusion width = 0.42mm

M107
M115 U3.0.11 ; tell printer latest fw version
M83  ; extruder relative mode
M104 S200 ; set extruder temp
M140 S55 ; set bed temp
M190 S55 ; wait for bed temp
M109 S200 ; wait for extruder temp
G28 W ; home all without mesh bed level
G80 ; mesh bed leveling
G1 Y-3.0 F1000.0 ; go outside pritn area
G1 X60.0 E9.0  F1000.0 ; intro line
G1 X100.0 E12.5  F1000.0 ; intro line
; Filament gcode

G21 ; set units to millimeters
G90 ; use absolute coordinates
M83 ; use relative distances for extrusion
G1 E-0.80000 F2100.00000
G1 Z0.200 F7200.000
G1 X80.086 Y58.091 F7200.000
G1 E0.80000 F2100.00000
M204 S1000
G1 F2100
G1 X85.425 Y52.720 E0.23745
G1 X86.080 Y52.308 E0.02426
G1 X86.828 Y52.129 E0.02414
G1 X163.004 Y52.123 E2.38843
G1 X163.899 Y52.299 E0.02860
G1 X164.664 Y52.803 E0.02872
G1 X169.790 Y57.936 E0.22745
G1 X170.195 Y58.587 E0.02402
G1 X170.371 Y59.336 E0.02414
G1 X170.377 Y150.511 E2.85875
G1 X170.257 Y151.245 E0.02331
G1 X169.914 Y151.909 E0.02343
G1 X164.573 Y157.283 E0.23756
G1 X163.913 Y157.695 E0.02437
G1 X163.157 Y157.872 E0.02437
G1 X86.989 Y157.877 E2.38819
G1 X86.255 Y157.757 E0.02331
G1 X85.591 Y157.414 E0.02343
G1 X80.215 Y152.070 E0.23768
G1 X79.800 Y151.399 E0.02473
G1 X79.626 Y150.630 E0.02473
G1 X79.623 Y59.489 E2.85767
G1 X79.743 Y58.755 E0.02331
G1 X80.058 Y58.144 E0.02155
G1 F5760
G1 X81.601 Y56.584 E-0.76000
G1 E-0.04000 F2100.00000
G1 X85.980 Y135.910 F7200.000
G1 E0.80000 F2100.00000
G1 F840
G1 X86.669 Y135.995 E0.02174
G1 X87.296 Y136.255 E0.02130
G1 X87.833 Y136.667 E0.02122
G1 X88.245 Y137.204 E0.02122
G1 X88.496 Y137.811 E0.02059
G1 X88.592 Y138.498 E0.02174
G1 X88.504 Y139.171 E0.02130
G1 X88.245 Y139.796 E0.02122
G1 X87.833 Y140.333 E0.02122
G1 X87.296 Y140.745 E0.02122
G1 X86.671 Y141.004 E0.02122
G1 X86.000 Y141.092 E0.02122
G1 X85.329 Y141.004 E0.02122
G1 X84.704 Y140.745 E0.02122
G1 X84.167 Y140.333 E0.02122
G1 X83.755 Y139.796 E0.02122
G1 X83.496 Y139.171 E0.02122
G1 X83.408 Y138.500 E0.02122
G1 X83.496 Y137.829 E0.02122
G1 X83.755 Y137.204 E0.02122
G1 X84.167 Y136.667 E0.02122
G1 X84.704 Y136.255 E0.02122
G1 X85.329 Y135.996 E0.02122
G1 X85.921 Y135.918 E0.01871
G1 X85.970 Y136.292 F7200.000
G1 F840
G1 X86.572 Y136.363 E0.01899
G1 X87.106 Y136.585 E0.01813
G1 X87.564 Y136.936 E0.01810
G1 X87.915 Y137.394 E0.01810
G1 X88.129 Y137.911 E0.01753
G1 X88.212 Y138.499 E0.01863
G1 X88.136 Y139.072 E0.01813
G1 X87.915 Y139.606 E0.01810
G1 X87.564 Y140.064 E0.01810
G1 X87.106 Y140.415 E0.01810
G1 X86.572 Y140.636 E0.01810
G1 X86.000 Y140.712 E0.01810
G1 X85.428 Y140.636 E0.01810
G1 X84.894 Y140.415 E0.01810
G1 X84.436 Y140.064 E0.01810
G1 X84.085 Y139.606 E0.01810
G1 X83.864 Y139.072 E0.01810
G1 X83.788 Y138.500 E0.01810
G1 X83.864 Y137.928 E0.01810
G1 X84.085 Y137.394 E0.01810
G1 X84.436 Y136.936 E0.01810
G1 X84.894 Y136.585 E0.01810
G1 X85.428 Y136.364 E0.01810
G1 X85.911 Y136.300 E0.01527
G1 X86.167 Y135.944 F7200.000
G1 F5760
G1 X86.572 Y136.363 E-0.23003
G1 F5760
G1 X87.106 Y136.585 E-0.20029
G1 F5760
G1 X87.564 Y136.936 E-0.19999
G1 F5760
G1 X87.792 Y137.233 E-0.12969
G1 E-0.04000 F2100.00000
G1 X86.000 Y123.092 F7200.000
G1 E0.80000 F2100.00000
G1 F840
G1 X85.329 Y123.004 E0.02122
G1 X84.704 Y122.745 E0.02122
G1 X84.167 Y122.333 E0.02122
G1 X83.755 Y121.796 E0.02122
G1 X83.496 Y121.171 E0.02122
G1 X83.408 Y120.500 E0.02122
G1 X83.496 Y119.829 E0.02122
G1 X83.755 Y119.204 E0.02122
G1 X84.167 Y118.667 E0.02122
G1 X84.704 Y118.255 E0.02122
G1 X85.329 Y117.996 E0.02122
G1 X85.980 Y117.910 E0.02059
G1 X86.669 Y117.995 E0.02174
G1 X87.296 Y118.255 E0.02130
G1 X87.833 Y118.667 E0.02122
G1 X88.245 Y119.204 E0.02122
G1 X88.496 Y119.811 E0.02059
G1 X88.592 Y120.498 E0.02174
G1 X88.504 Y121.171 E0.02130
G1 X88.245 Y121.796 E0.02122
G1 X87.833 Y122.333 E0.02122
G1 X87.296 Y122.745 E0.02122
G1 X86.671 Y123.004 E0.02122
G1 X86.059 Y123.084 E0.01934
G1 X86.010 Y122.710 F7200.000
G1 F840
G1 X85.428 Y122.636 E0.01842
G1 X84.894 Y122.415 E0.01810
G1 X84.436 Y122.064 E0.01810
G1 X84.085 Y121.606 E0.01810
G1 X83.864 Y121.072 E0.01810
G1 X83.788 Y120.500 E0.01810
G1 X83.864 Y119.928 E0.01810
G1 X84.085 Y119.394 E0.01810
G1 X84.436 Y118.936 E0.01810
G1 X84.894 Y118.585 E0.01810
G1 X85.428 Y118.364 E0.01810
G1 X85.982 Y118.291 E0.01753
G1 X86.572 Y118.363 E0.01863
G1 X87.106 Y118.585 E0.01813
G1 X87.564 Y118.936 E0.01810
G1 X87.915 Y119.394 E0.01810
G1 X88.129 Y119.911 E0.01753
G1 X88.212 Y120.499 E0.01863
G1 X88.136 Y121.072 E0.01813
G1 X87.915 Y121.606 E0.01810
G1 X87.564 Y122.064 E0.01810
G1 X87.106 Y122.415 E0.01810
G1 X86.572 Y122.636 E0.01810
G1 X86.070 Y122.703 E0.01590
G1 X85.811 Y123.058 F7200.000
G1 F5760
G1 X85.428 Y122.636 E-0.22361
G1 F5760
G1 X84.894 Y122.415 E-0.19998
G1 F5760
G1 X84.436 Y122.064 E-0.19998
G1 F5760
G1 X84.196 Y121.752 E-0.13642
G1 E-0.04000 F2100.00000
G1 X97.959 Y60.021 F7200.000
G1 E0.80000 F2100.00000
G1 F840
G1 X97.454 Y59.812 E0.01712
G1 X97.021 Y59.479 E0.01712
G1 X96.688 Y59.046 E0.01712
G1 X96.479 Y58.541 E0.01712
G1 X96.408 Y58.000 E0.01712
G1 X96.479 Y57.459 E0.01712
G1 X96.688 Y56.954 E0.01712
G1 X97.021 Y56.521 E0.01712
G1 X97.454 Y56.188 E0.01712
G1 X97.959 Y55.979 E0.01712
G1 X98.485 Y55.910 E0.01664
G1 X99.039 Y55.978 E0.01752
G1 X99.546 Y56.188 E0.01720
G1 X99.979 Y56.521 E0.01712
G1 X100.312 Y56.954 E0.01712
G1 X100.521 Y57.459 E0.01712
G1 X100.592 Y58.000 E0.01712
G1 X100.521 Y58.541 E0.01712
G1 X100.318 Y59.032 E0.01664
G1 X99.981 Y59.478 E0.01752
G1 X99.546 Y59.812 E0.01720
G1 X99.041 Y60.021 E0.01712
G1 X98.500 Y60.092 E0.01712
G1 X98.018 Y60.029 E0.01524
G1 X98.067 Y59.655 F7200.000
G1 F840
G1 X97.644 Y59.482 E0.01433
G1 X97.290 Y59.210 E0.01401
G1 X97.018 Y58.856 E0.01401
G1 X96.847 Y58.443 E0.01401
G1 X96.788 Y58.000 E0.01401
G1 X96.847 Y57.557 E0.01401
G1 X97.018 Y57.144 E0.01401
G1 X97.290 Y56.790 E0.01401
G1 X97.644 Y56.518 E0.01401
G1 X98.057 Y56.347 E0.01401
G1 X98.486 Y56.290 E0.01357
G1 X98.942 Y56.346 E0.01441
G1 X99.356 Y56.518 E0.01404
G1 X99.710 Y56.790 E0.01401
G1 X99.982 Y57.144 E0.01401
G1 X100.153 Y57.557 E0.01401
G1 X100.212 Y58.000 E0.01401
G1 X100.153 Y58.443 E0.01401
G1 X99.988 Y58.843 E0.01357
G1 X99.711 Y59.210 E0.01441
G1 X99.356 Y59.482 E0.01404
G1 X98.943 Y59.653 E0.01401
G1 X98.500 Y59.712 E0.01401
G1 X98.127 Y59.663 E0.01181
G1 X97.786 Y59.939 F7200.000
G1 F5760
G1 X97.644 Y59.482 E-0.17843
G1 F5760
G1 X97.290 Y59.210 E-0.15478
G1 F5760
G1 X97.018 Y58.856 E-0.15477
G1 F5760
G1 X96.847 Y58.443 E-0.15478
G1 F5760
G1 X96.802 Y58.107 E-0.11725
G1 E-0.04000 F2100.00000
G1 X146.764 Y143.359 F7200.000
G1 E0.80000 F2100.00000
G1 F840
G1 X147.360 Y143.112 E0.02024
G1 X147.983 Y143.030 E0.01970
G1 X148.636 Y143.110 E0.02063
G1 X149.236 Y143.359 E0.02037
G1 X149.748 Y143.752 E0.02024
G1 X150.141 Y144.264 E0.02024
G1 X150.382 Y144.844 E0.01970
G1 X150.473 Y145.496 E0.02063
G1 X150.388 Y146.140 E0.02037
G1 X150.141 Y146.736 E0.02024
G1 X149.748 Y147.248 E0.02024
G1 X149.236 Y147.641 E0.02024
G1 X148.640 Y147.888 E0.02024
G1 X148.000 Y147.972 E0.02024
G1 X147.360 Y147.888 E0.02024
G1 X146.764 Y147.641 E0.02024
G1 X146.252 Y147.248 E0.02024
G1 X145.859 Y146.736 E0.02024
G1 X145.612 Y146.140 E0.02024
G1 X145.528 Y145.500 E0.02024
G1 X145.612 Y144.860 E0.02024
G1 X145.859 Y144.264 E0.02024
G1 X146.252 Y143.752 E0.02024
G1 X146.716 Y143.395 E0.01836
G1 X146.946 Y143.694 F7200.000
G1 F840
G1 X147.459 Y143.479 E0.01744
G1 X147.985 Y143.410 E0.01664
G1 X148.539 Y143.478 E0.01752
G1 X149.046 Y143.688 E0.01720
G1 X149.479 Y144.021 E0.01712
G1 X149.812 Y144.454 E0.01712
G1 X150.015 Y144.944 E0.01664
G1 X150.092 Y145.498 E0.01752
G1 X150.021 Y146.041 E0.01720
G1 X149.812 Y146.546 E0.01712
G1 X149.479 Y146.979 E0.01712
G1 X149.046 Y147.312 E0.01712
G1 X148.541 Y147.521 E0.01712
G1 X148.000 Y147.592 E0.01712
G1 X147.459 Y147.521 E0.01712
G1 X146.954 Y147.312 E0.01712
G1 X146.521 Y146.979 E0.01712
G1 X146.188 Y146.546 E0.01712
G1 X145.979 Y146.041 E0.01712
G1 X145.908 Y145.500 E0.01712
G1 X145.979 Y144.959 E0.01712
G1 X146.188 Y144.454 E0.01712
G1 X146.521 Y144.021 E0.01712
G1 X146.898 Y143.731 E0.01492
G1 X147.128 Y144.030 F7200.000
G1 F840
G1 X147.557 Y143.847 E0.01464
G1 X147.986 Y143.790 E0.01357
G1 X148.442 Y143.846 E0.01441
G1 X148.856 Y144.018 E0.01404
G1 X149.210 Y144.290 E0.01401
G1 X149.482 Y144.644 E0.01401
G1 X149.648 Y145.044 E0.01357
G1 X149.712 Y145.499 E0.01441
G1 X149.653 Y145.943 E0.01404
G1 X149.482 Y146.356 E0.01401
G1 X149.210 Y146.710 E0.01401
G1 X148.856 Y146.982 E0.01401
G1 X148.443 Y147.153 E0.01401
G1 X148.000 Y147.212 E0.01401
G1 X147.557 Y147.153 E0.01401
G1 X147.144 Y146.982 E0.01401
G1 X146.790 Y146.710 E0.01401
G1 X146.518 Y146.356 E0.01401
G1 X146.347 Y145.943 E0.01401
G1 X146.288 Y145.500 E0.01401
G1 X146.347 Y145.057 E0.01401
G1 X146.518 Y144.644 E0.01401
G1 X146.790 Y144.290 E0.01401
G1 X147.080 Y144.067 E0.01148
G1 X147.124 Y143.630 F7200.000
G1 F5760
G1 X147.557 Y143.847 E-0.18192
G1 F5760
G1 X147.986 Y143.790 E-0.14995
G1 F5760
G1 X148.442 Y143.846 E-0.15915
G1 F5760
G1 X148.856 Y144.018 E-0.15508
G1 F5760
G1 X149.117 Y144.218 E-0.11390
G1 E-0.04000 F2100.00000
G1 X146.769 Y141.371 F7200.000
G1 E0.80000 F2100.00000
G1 F840
G1 X146.000 Y141.472 E0.02433
G1 X145.231 Y141.371 E0.02433
G1 X144.514 Y141.074 E0.02433
G1 X143.898 Y140.602 E0.02433
G1 X143.426 Y139.986 E0.02433
G1 X143.137 Y139.289 E0.02366
G1 X143.027 Y138.504 E0.02486
G1 X143.129 Y137.731 E0.02446
G1 X143.426 Y137.014 E0.02433
G1 X143.898 Y136.398 E0.02433
G1 X144.514 Y135.926 E0.02433
G1 X145.231 Y135.629 E0.02433
G1 X145.979 Y135.530 E0.02366
G1 X146.766 Y135.627 E0.02486
G1 X147.486 Y135.926 E0.02446
G1 X148.102 Y136.398 E0.02433
G1 X148.574 Y137.014 E0.02433
G1 X148.863 Y137.711 E0.02366
G1 X148.973 Y138.496 E0.02486
G1 X148.871 Y139.269 E0.02446
G1 X148.574 Y139.986 E0.02433
G1 X148.102 Y140.602 E0.02433
G1 X147.486 Y141.074 E0.02433
G1 X146.825 Y141.348 E0.02245
G1 X146.680 Y141.000 F7200.000
G1 F840
G1 X146.000 Y141.092 E0.02153
G1 X145.329 Y141.004 E0.02122
G1 X144.704 Y140.745 E0.02122
G1 X144.167 Y140.333 E0.02122
G1 X143.755 Y139.796 E0.02122
G1 X143.504 Y139.189 E0.02059
G1 X143.408 Y138.502 E0.02174
G1 X143.496 Y137.829 E0.02130
G1 X143.755 Y137.204 E0.02122
G1 X144.167 Y136.667 E0.02122
G1 X144.704 Y136.255 E0.02122
G1 X145.329 Y135.996 E0.02122
G1 X145.980 Y135.910 E0.02059
G1 X146.669 Y135.995 E0.02174
G1 X147.296 Y136.255 E0.02130
G1 X147.833 Y136.667 E0.02122
G1 X148.245 Y137.204 E0.02122
G1 X148.496 Y137.811 E0.02059
G1 X148.592 Y138.498 E0.02174
G1 X148.504 Y139.171 E0.02130
G1 X148.245 Y139.796 E0.02122
G1 X147.833 Y140.333 E0.02122
G1 X147.296 Y140.745 E0.02122
G1 X146.736 Y140.977 E0.01901
G1 X146.592 Y140.629 F7200.000
G1 F840
G1 X146.000 Y140.712 E0.01873
G1 X145.428 Y140.636 E0.01810
G1 X144.894 Y140.415 E0.01810
G1 X144.436 Y140.064 E0.01810
G1 X144.085 Y139.606 E0.01810
G1 X143.871 Y139.089 E0.01753
G1 X143.788 Y138.501 E0.01863
G1 X143.864 Y137.928 E0.01813
G1 X144.085 Y137.394 E0.01810
G1 X144.436 Y136.936 E0.01810
G1 X144.894 Y136.585 E0.01810
G1 X145.428 Y136.364 E0.01810
G1 X145.982 Y136.291 E0.01753
G1 X146.572 Y136.363 E0.01863
G1 X147.106 Y136.585 E0.01813
G1 X147.564 Y136.936 E0.01810
G1 X147.915 Y137.394 E0.01810
G1 X148.129 Y137.911 E0.01753
G1 X148.212 Y138.499 E0.01863
G1 X148.136 Y139.072 E0.01813
G1 X147.915 Y139.606 E0.01810
G1 X147.564 Y140.064 E0.01810
G1 X147.106 Y140.415 E0.01810
G1 X146.647 Y140.606 E0.01557
G1 X146.491 Y141.016 F7200.000
G1 F5760
G1 X146.000 Y140.712 E-0.22710
G1 F5760
G1 X145.428 Y140.636 E-0.19998
G1 F5760
G1 X144.894 Y140.415 E-0.19998
G1 F5760
G1 X144.590 Y140.182 E-0.13293
G1 E-0.04000 F2100.00000
G1 X147.508 Y117.943 F7200.000
G1 E0.80000 F2100.00000
G1 F840
G1 X148.102 Y118.398 E0.02346
G1 X148.574 Y119.014 E0.02433
G1 X148.863 Y119.711 E0.02366
G1 X148.973 Y120.496 E0.02486
G1 X148.871 Y121.269 E0.02446
G1 X148.574 Y121.986 E0.02433
G1 X148.102 Y122.602 E0.02433
G1 X147.486 Y123.074 E0.02433
G1 X146.769 Y123.371 E0.02433
G1 X146.000 Y123.472 E0.02433
G1 X145.231 Y123.371 E0.02433
G1 X144.514 Y123.074 E0.02433
G1 X143.898 Y122.602 E0.02433
G1 X143.426 Y121.986 E0.02433
G1 X143.137 Y121.289 E0.02366
G1 X143.027 Y120.504 E0.02486
G1 X143.129 Y119.731 E0.02446
G1 X143.426 Y119.014 E0.02433
G1 X143.898 Y118.398 E0.02433
G1 X144.514 Y117.926 E0.02433
G1 X145.231 Y117.629 E0.02433
G1 X145.672 Y117.571 E0.01395
G1 X145.252 Y117.248 E0.01661
G1 X144.859 Y116.736 E0.02024
G1 X144.612 Y116.140 E0.02024
G1 X144.528 Y115.500 E0.02024
G1 X144.612 Y114.860 E0.02024
G1 X144.859 Y114.264 E0.02024
G1 X145.252 Y113.752 E0.02024
G1 X145.764 Y113.359 E0.02024
G1 X146.360 Y113.112 E0.02024
G1 X146.983 Y113.030 E0.01970
G1 X147.636 Y113.110 E0.02063
G1 X148.236 Y113.359 E0.02037
G1 X148.748 Y113.752 E0.02024
G1 X149.141 Y114.264 E0.02024
G1 X149.388 Y114.860 E0.02024
G1 X149.472 Y115.500 E0.02024
G1 X149.388 Y116.140 E0.02024
G1 X149.148 Y116.720 E0.01970
G1 X148.752 Y117.246 E0.02063
G1 X148.236 Y117.641 E0.02037
G1 X147.564 Y117.920 E0.02282
G1 X147.296 Y118.255 F7200.000
G1 F840
G1 X147.833 Y118.667 E0.02122
G1 X148.245 Y119.204 E0.02122
G1 X148.496 Y119.811 E0.02059
G1 X148.592 Y120.498 E0.02174
G1 X148.504 Y121.171 E0.02130
G1 X148.245 Y121.796 E0.02122
G1 X147.833 Y122.333 E0.02122
G1 X147.296 Y122.745 E0.02122
G1 X146.671 Y123.004 E0.02122
G1 X146.000 Y123.092 E0.02122
G1 X145.329 Y123.004 E0.02122
G1 X144.704 Y122.745 E0.02122
G1 X144.167 Y122.333 E0.02122
G1 X143.755 Y121.796 E0.02122
G1 X143.504 Y121.189 E0.02059
G1 X143.408 Y120.502 E0.02174
G1 X143.496 Y119.829 E0.02130
G1 X143.755 Y119.204 E0.02122
G1 X144.167 Y118.667 E0.02122
G1 X144.704 Y118.255 E0.02122
G1 X145.329 Y117.996 E0.02122
G1 X145.980 Y117.910 E0.02059
G1 X146.669 Y117.995 E0.02174
G1 X147.241 Y118.232 E0.01941
G1 X147.096 Y118.581 F7200.000
G1 F840
G1 X147.564 Y118.936 E0.01842
G1 X147.915 Y119.394 E0.01810
G1 X148.129 Y119.911 E0.01753
G1 X148.212 Y120.499 E0.01863
G1 X148.136 Y121.072 E0.01813
G1 X147.915 Y121.606 E0.01810
G1 X147.564 Y122.064 E0.01810
G1 X147.106 Y122.415 E0.01810
G1 X146.572 Y122.636 E0.01810
G1 X146.000 Y122.712 E0.01810
G1 X145.428 Y122.636 E0.01810
G1 X144.894 Y122.415 E0.01810
G1 X144.436 Y122.064 E0.01810
G1 X144.085 Y121.606 E0.01810
G1 X143.871 Y121.089 E0.01753
G1 X143.788 Y120.501 E0.01863
G1 X143.864 Y119.928 E0.01813
G1 X144.085 Y119.394 E0.01810
G1 X144.436 Y118.936 E0.01810
G1 X144.894 Y118.585 E0.01810
G1 X145.428 Y118.364 E0.01810
G1 X145.982 Y118.291 E0.01753
G1 X146.572 Y118.363 E0.01863
G1 X147.041 Y118.558 E0.01593
G1 X147.442 Y118.379 F7200.000
G1 X147.000 Y117.592 F7200.000
G1 F840
G1 X146.459 Y117.521 E0.01712
G1 X145.954 Y117.312 E0.01712
G1 X145.521 Y116.979 E0.01712
G1 X145.188 Y116.546 E0.01712
G1 X144.979 Y116.041 E0.01712
G1 X144.908 Y115.500 E0.01712
G1 X144.979 Y114.959 E0.01712
G1 X145.188 Y114.454 E0.01712
G1 X145.521 Y114.021 E0.01712
G1 X145.954 Y113.688 E0.01712
G1 X146.459 Y113.479 E0.01712
G1 X146.985 Y113.410 E0.01664
G1 X147.539 Y113.478 E0.01752
G1 X148.046 Y113.688 E0.01720
G1 X148.479 Y114.021 E0.01712
G1 X148.812 Y114.454 E0.01712
G1 X149.021 Y114.959 E0.01712
G1 X149.092 Y115.500 E0.01712
G1 X149.021 Y116.041 E0.01712
G1 X148.818 Y116.532 E0.01664
G1 X148.481 Y116.978 E0.01752
G1 X148.046 Y117.312 E0.01720
G1 X147.541 Y117.521 E0.01712
G1 X147.059 Y117.584 E0.01524
G1 X147.010 Y117.210 F7200.000
G1 F840
G1 X146.557 Y117.153 E0.01433
G1 X146.144 Y116.982 E0.01401
G1 X145.790 Y116.710 E0.01401
G1 X145.518 Y116.356 E0.01401
G1 X145.347 Y115.943 E0.01401
G1 X145.288 Y115.500 E0.01401
G1 X145.347 Y115.057 E0.01401
G1 X145.518 Y114.644 E0.01401
G1 X145.790 Y114.290 E0.01401
G1 X146.144 Y114.018 E0.01401
G1 X146.557 Y113.847 E0.01401
G1 X146.986 Y113.790 E0.01357
G1 X147.442 Y113.846 E0.01441
G1 X147.856 Y114.018 E0.01404
