; generated by Slic3r 1.37.1-prusa3d-win64 on 2017-10-27 at 02:46:04

; 

; external perimeters extrusion width = 0.45mm
; perimeters extrusion width = 0.45mm
; infill extrusion width = 0.45mm
; solid infill extrusion width = 0.45mm
; top infill extrusion width = 0.40mm
; first layer extrusion width = 0.42mm

M107
M115 U3.0.12 ; tell printer latest fw version
M83  ; extruder relative mode
M104 S215 ; set extruder temp
M140 S55 ; set bed temp
M190 S55 ; wait for bed temp
M109 S215 ; wait for extruder temp
G28 W ; home all without mesh bed level
G80 ; mesh bed leveling
G1 Y-3.0 F1000.0 ; go outside pritn area
G1 X60.0 E9.0  F1000.0 ; intro line
G1 X100.0 E12.5  F1000.0 ; intro line
; Filament gcode

G21 ; set units to millimeters
G90 ; use absolute coordinates
M83 ; use relative distances for extrusion
G1 E-0.80000 F2100.00000
G1 Z0.200 F7200.000
G1 X30.454 Y35.140 F7200.000
G1 E0.80000 F2100.00000
M204 S1000
G1 F2100
G1 X31.277 Y34.987 E0.02626
G1 X122.296 Y34.987 E2.85385
G1 X123.202 Y35.168 E0.02896
G1 X123.970 Y35.680 E0.02896
G1 X129.098 Y40.817 E0.22757
G1 X129.514 Y41.518 E0.02555
G1 X129.669 Y42.322 E0.02567
G1 X129.664 Y118.532 E2.38951
G1 X129.487 Y119.277 E0.02402
G1 X129.081 Y119.931 E0.02414
G1 X123.851 Y125.159 E0.23187
G1 X123.132 Y125.588 E0.02626
G1 X122.308 Y125.741 E0.02626
G1 X31.167 Y125.738 E2.85768
G1 X30.401 Y125.568 E0.02461
G1 X29.732 Y125.157 E0.02461
G1 X24.498 Y119.922 E0.23211
G1 X24.069 Y119.203 E0.02626
G1 X23.916 Y118.380 E0.02626
G1 X23.920 Y42.216 E2.38808
G1 X24.093 Y41.462 E0.02426
G1 X24.502 Y40.800 E0.02437
G1 X29.734 Y35.569 E0.23199
G1 X30.402 Y35.171 E0.02437
G1 F5760
G1 X31.277 Y34.987 E-0.30961
G1 F5760
G1 X32.577 Y34.987 E-0.45039
G1 E-0.04000 F2100.00000
G1 X65.590 Y74.777 F7200.000
G1 E0.80000 F2100.00000
G1 F1680
G1 X87.880 Y74.777 E0.69888
G1 X87.880 Y101.922 E0.85113
G1 X88.510 Y103.136 E0.04287
G1 X89.029 Y104.490 E0.04546
G1 X89.398 Y105.944 E0.04703
G1 X89.596 Y107.477 E0.04848
G1 X89.619 Y108.927 E0.04546
G1 X89.467 Y110.418 E0.04699
G1 X89.143 Y111.882 E0.04703
G1 X88.629 Y113.340 E0.04848
G1 X87.996 Y114.645 E0.04546
G1 X87.189 Y115.908 E0.04699
G1 X86.240 Y117.068 E0.04699
G1 X85.163 Y118.110 E0.04699
G1 X83.971 Y119.019 E0.04699
G1 X82.682 Y119.783 E0.04699
G1 X81.312 Y120.392 E0.04699
G1 X79.881 Y120.837 E0.04699
G1 X78.406 Y121.112 E0.04703
G1 X76.863 Y121.211 E0.04848
G1 X75.415 Y121.139 E0.04546
G1 X73.937 Y120.892 E0.04699
G1 X72.498 Y120.474 E0.04699
G1 X71.117 Y119.891 E0.04699
G1 X69.814 Y119.151 E0.04699
G1 X68.605 Y118.264 E0.04699
G1 X67.509 Y117.243 E0.04699
G1 X66.539 Y116.100 E0.04699
G1 X65.708 Y114.852 E0.04699
G1 X65.029 Y113.516 E0.04699
G1 X64.510 Y112.110 E0.04699
G1 X64.158 Y110.653 E0.04699
G1 X63.979 Y109.164 E0.04703
G1 X63.980 Y107.618 E0.04848
G1 X64.144 Y106.178 E0.04546
G1 X64.486 Y104.718 E0.04699
G1 X64.996 Y103.309 E0.04699
G1 X65.590 Y102.124 E0.04157
G1 X65.590 Y74.837 E0.85556
G1 X65.967 Y75.154 F7200.000
G1 F1260
G1 X87.503 Y75.154 E0.67524
G1 X87.503 Y102.015 E0.84219
G1 X88.165 Y103.291 E0.04509
G1 X88.669 Y104.604 E0.04410
G1 X89.027 Y106.014 E0.04562
G1 X89.220 Y107.504 E0.04710
G1 X89.241 Y108.911 E0.04410
G1 X89.094 Y110.358 E0.04561
G1 X88.779 Y111.778 E0.04562
G1 X88.280 Y113.195 E0.04710
G1 X87.666 Y114.460 E0.04410
G1 X86.883 Y115.686 E0.04561
G1 X85.962 Y116.812 E0.04561
G1 X84.916 Y117.824 E0.04561
G1 X83.760 Y118.706 E0.04561
G1 X82.508 Y119.448 E0.04561
G1 X81.179 Y120.038 E0.04561
G1 X79.790 Y120.470 E0.04561
G1 X78.360 Y120.737 E0.04562
G1 X76.861 Y120.833 E0.04709
G1 X75.456 Y120.764 E0.04410
G1 X74.021 Y120.524 E0.04561
G1 X72.624 Y120.118 E0.04561
G1 X71.284 Y119.552 E0.04561
G1 X70.019 Y118.834 E0.04561
G1 X68.846 Y117.973 E0.04561
G1 X67.782 Y116.982 E0.04561
G1 X66.840 Y115.873 E0.04561
G1 X66.034 Y114.662 E0.04561
G1 X65.375 Y113.365 E0.04561
G1 X64.871 Y112.001 E0.04561
G1 X64.530 Y110.586 E0.04561
G1 X64.356 Y109.142 E0.04562
G1 X64.357 Y107.640 E0.04709
G1 X64.516 Y106.242 E0.04410
G1 X64.849 Y104.826 E0.04561
G1 X65.344 Y103.458 E0.04561
G1 X65.967 Y102.213 E0.04367
G1 X65.967 Y75.214 E0.84653
G1 X65.970 Y74.754 F7200.000
G1 F5760
G1 X68.161 Y75.208 E-0.76000
G1 E-0.04000 F2100.00000
G1 X64.709 Y76.392 F7200.000
G1 E0.80000 F2100.00000
G1 F840
G1 X65.041 Y76.825 E0.01712
G1 X65.251 Y77.330 E0.01712
G1 X65.322 Y77.871 E0.01712
G1 X65.251 Y78.412 E0.01712
G1 X65.053 Y78.888 E0.01615
G1 X64.713 Y79.347 E0.01792
G1 X64.276 Y79.683 E0.01728
G1 X63.771 Y79.892 E0.01712
G1 X63.230 Y79.963 E0.01712
G1 X62.688 Y79.892 E0.01712
G1 X62.184 Y79.683 E0.01712
G1 X61.750 Y79.350 E0.01712
G1 X61.418 Y78.917 E0.01712
G1 X61.209 Y78.412 E0.01712
G1 X61.138 Y77.871 E0.01712
G1 X61.209 Y77.330 E0.01712
G1 X61.418 Y76.825 E0.01712
G1 X61.750 Y76.392 E0.01712
G1 X62.184 Y76.059 E0.01712
G1 X62.688 Y75.850 E0.01712
G1 X63.199 Y75.783 E0.01615
G1 X63.767 Y75.848 E0.01792
G1 X64.276 Y76.059 E0.01728
G1 X64.661 Y76.355 E0.01524
G1 X64.432 Y76.654 F7200.000
G1 F840
G1 X64.712 Y77.015 E0.01433
G1 X64.883 Y77.428 E0.01401
G1 X64.941 Y77.871 E0.01401
G1 X64.883 Y78.314 E0.01401
G1 X64.723 Y78.701 E0.01314
G1 X64.441 Y79.080 E0.01480
G1 X64.086 Y79.353 E0.01407
G1 X63.673 Y79.524 E0.01401
G1 X63.230 Y79.583 E0.01401
G1 X62.787 Y79.524 E0.01401
G1 X62.374 Y79.353 E0.01401
G1 X62.019 Y79.081 E0.01401
G1 X61.747 Y78.727 E0.01401
G1 X61.576 Y78.314 E0.01401
G1 X61.518 Y77.871 E0.01401
G1 X61.576 Y77.428 E0.01401
G1 X61.747 Y77.015 E0.01401
G1 X62.019 Y76.661 E0.01401
G1 X62.374 Y76.389 E0.01401
G1 X62.787 Y76.218 E0.01401
G1 X63.202 Y76.163 E0.01314
G1 X63.671 Y76.217 E0.01480
G1 X64.086 Y76.389 E0.01407
G1 X64.384 Y76.618 E0.01181
G1 X64.818 Y76.549 F7200.000
G1 F5760
G1 X64.712 Y77.015 E-0.17843
G1 F5760
G1 X64.883 Y77.428 E-0.15478
G1 F5760
G1 X64.941 Y77.871 E-0.15478
G1 F5760
G1 X64.883 Y78.314 E-0.15478
G1 F5760
G1 X64.754 Y78.627 E-0.11724
G1 E-0.04000 F2100.00000
G1 X67.261 Y73.855 F7200.000
G1 E0.80000 F2100.00000
G1 F840
G1 X66.929 Y73.422 E0.01712
G1 X66.720 Y72.918 E0.01712
G1 X66.648 Y72.376 E0.01712
G1 X66.720 Y71.835 E0.01712
G1 X66.929 Y71.330 E0.01712
G1 X67.261 Y70.897 E0.01712
G1 X67.694 Y70.564 E0.01712
G1 X68.199 Y70.355 E0.01712
G1 X68.710 Y70.288 E0.01615
G1 X69.277 Y70.353 E0.01792
G1 X69.786 Y70.564 E0.01728
G1 X70.220 Y70.897 E0.01712
G1 X70.552 Y71.330 E0.01712
G1 X70.749 Y71.806 E0.01615
G1 X70.833 Y72.371 E0.01792
G1 X70.761 Y72.918 E0.01728
G1 X70.552 Y73.422 E0.01712
G1 X70.220 Y73.855 E0.01712
G1 X69.786 Y74.188 E0.01712
G1 X69.282 Y74.397 E0.01712
G1 X68.740 Y74.468 E0.01712
G1 X68.199 Y74.397 E0.01712
G1 X67.694 Y74.188 E0.01712
G1 X67.309 Y73.892 E0.01524
G1 X67.538 Y73.593 F7200.000
G1 F840
G1 X67.258 Y73.232 E0.01433
G1 X67.087 Y72.819 E0.01401
G1 X67.029 Y72.376 E0.01401
G1 X67.087 Y71.933 E0.01401
G1 X67.258 Y71.520 E0.01401
G1 X67.530 Y71.166 E0.01401
G1 X67.884 Y70.894 E0.01401
G1 X68.297 Y70.723 E0.01401
G1 X68.713 Y70.668 E0.01314
G1 X69.182 Y70.722 E0.01480
G1 X69.596 Y70.894 E0.01407
G1 X69.951 Y71.166 E0.01401
G1 X70.223 Y71.520 E0.01401
G1 X70.383 Y71.907 E0.01314
G1 X70.452 Y72.374 E0.01480
G1 X70.394 Y72.819 E0.01407
G1 X70.223 Y73.232 E0.01401
G1 X69.951 Y73.586 E0.01401
G1 X69.596 Y73.859 E0.01401
G1 X69.183 Y74.030 E0.01401
G1 X68.740 Y74.088 E0.01401
G1 X68.297 Y74.030 E0.01401
G1 X67.884 Y73.859 E0.01401
G1 X67.586 Y73.629 E0.01181
G1 X67.152 Y73.698 F7200.000
G1 F5760
G1 X67.258 Y73.232 E-0.17843
G1 F5760
G1 X67.087 Y72.819 E-0.15478
G1 F5760
G1 X67.029 Y72.376 E-0.15478
G1 F5760
G1 X67.087 Y71.933 E-0.15478
G1 F5760
G1 X67.216 Y71.620 E-0.11725
G1 E-0.04000 F2100.00000
G1 X82.600 Y72.364 F7200.000
G1 E0.80000 F2100.00000
G1 F840
G1 X82.672 Y71.823 E0.01712
G1 X82.881 Y71.318 E0.01712
G1 X83.213 Y70.885 E0.01712
G1 X83.647 Y70.552 E0.01712
G1 X84.151 Y70.343 E0.01712
G1 X84.662 Y70.276 E0.01615
G1 X85.230 Y70.341 E0.01792
G1 X85.739 Y70.552 E0.01728
G1 X86.172 Y70.885 E0.01712
G1 X86.504 Y71.318 E0.01712
G1 X86.702 Y71.794 E0.01615
G1 X86.785 Y72.359 E0.01792
G1 X86.713 Y72.906 E0.01728
G1 X86.504 Y73.410 E0.01712
G1 X86.172 Y73.843 E0.01712
G1 X85.739 Y74.176 E0.01712
G1 X85.234 Y74.385 E0.01712
G1 X84.693 Y74.456 E0.01712
G1 X84.151 Y74.385 E0.01712
G1 X83.647 Y74.176 E0.01712
G1 X83.213 Y73.843 E0.01712
G1 X82.881 Y73.410 E0.01712
G1 X82.672 Y72.906 E0.01712
G1 X82.608 Y72.424 E0.01524
G1 X82.982 Y72.374 F7200.000
G1 F840
G1 X83.039 Y71.921 E0.01433
G1 X83.210 Y71.508 E0.01401
G1 X83.482 Y71.154 E0.01401
G1 X83.837 Y70.882 E0.01401
G1 X84.250 Y70.711 E0.01401
G1 X84.665 Y70.656 E0.01314
G1 X85.134 Y70.710 E0.01480
G1 X85.549 Y70.882 E0.01407
G1 X85.903 Y71.154 E0.01401
G1 X86.175 Y71.508 E0.01401
G1 X86.335 Y71.895 E0.01314
G1 X86.405 Y72.362 E0.01480
G1 X86.346 Y72.807 E0.01407
G1 X86.175 Y73.220 E0.01401
G1 X85.903 Y73.574 E0.01401
G1 X85.549 Y73.847 E0.01401
G1 X85.136 Y74.018 E0.01401
G1 X84.693 Y74.076 E0.01401
G1 X84.250 Y74.018 E0.01401
G1 X83.837 Y73.847 E0.01401
G1 X83.482 Y73.574 E0.01401
G1 X83.210 Y73.220 E0.01401
G1 X83.039 Y72.807 E0.01401
G1 X82.990 Y72.434 E0.01181
G1 X82.635 Y72.176 F7200.000
G1 F5760
G1 X83.039 Y71.921 E-0.17843
G1 F5760
G1 X83.210 Y71.508 E-0.15478
G1 F5760
G1 X83.482 Y71.154 E-0.15477
G1 F5760
G1 X83.837 Y70.882 E-0.15478
G1 F5760
G1 X84.149 Y70.752 E-0.11725
G1 E-0.04000 F2100.00000
G1 X88.482 Y76.813 F7200.000
G1 E0.80000 F2100.00000
G1 F840
G1 X88.815 Y76.380 E0.01712
G1 X89.248 Y76.047 E0.01712
G1 X89.753 Y75.838 E0.01712
G1 X90.263 Y75.771 E0.01615
G1 X90.831 Y75.836 E0.01792
G1 X91.340 Y76.047 E0.01728
G1 X91.773 Y76.380 E0.01712
G1 X92.106 Y76.813 E0.01712
G1 X92.315 Y77.317 E0.01712
G1 X92.386 Y77.859 E0.01712
G1 X92.315 Y78.400 E0.01712
G1 X92.106 Y78.905 E0.01712
G1 X91.773 Y79.338 E0.01712
G1 X91.340 Y79.671 E0.01712
G1 X90.835 Y79.880 E0.01712
G1 X90.294 Y79.951 E0.01712
G1 X89.753 Y79.880 E0.01712
G1 X89.248 Y79.671 E0.01712
G1 X88.815 Y79.338 E0.01712
G1 X88.482 Y78.905 E0.01712
G1 X88.285 Y78.429 E0.01615
G1 X88.201 Y77.864 E0.01792
G1 X88.273 Y77.317 E0.01728
G1 X88.459 Y76.868 E0.01524
G1 X88.808 Y77.013 F7200.000
G1 F840
G1 X89.084 Y76.649 E0.01432
G1 X89.438 Y76.376 E0.01401
G1 X89.851 Y76.205 E0.01401
G1 X90.266 Y76.151 E0.01314
G1 X90.735 Y76.205 E0.01480
G1 X91.150 Y76.376 E0.01407
G1 X91.504 Y76.649 E0.01401
G1 X91.776 Y77.003 E0.01401
G1 X91.947 Y77.416 E0.01401
G1 X92.006 Y77.859 E0.01401
G1 X91.947 Y78.302 E0.01401
G1 X91.776 Y78.715 E0.01401
G1 X91.504 Y79.069 E0.01401
G1 X91.150 Y79.341 E0.01401
G1 X90.737 Y79.512 E0.01401
G1 X90.294 Y79.571 E0.01401
G1 X89.851 Y79.512 E0.01401
G1 X89.438 Y79.341 E0.01401
G1 X89.084 Y79.069 E0.01401
G1 X88.812 Y78.715 E0.01401
G1 X88.651 Y78.328 E0.01314
G1 X88.582 Y77.861 E0.01480
G1 X88.641 Y77.416 E0.01407
G1 X88.785 Y77.068 E0.01181
G1 X88.606 Y76.667 F7200.000
G1 F5760
G1 X89.084 Y76.649 E-0.17842
G1 F5760
G1 X89.438 Y76.376 E-0.15478
G1 F5760
G1 X89.851 Y76.205 E-0.15478
G1 F5760
G1 X90.266 Y76.151 E-0.14514
G1 F5760
G1 X90.630 Y76.193 E-0.12689
G1 E-0.04000 F2100.00000
G1 X90.221 Y99.816 F7200.000
G1 E0.80000 F2100.00000
G1 F840
G1 X90.788 Y99.882 E0.01792
G1 X91.297 Y100.093 E0.01728
G1 X91.731 Y100.425 E0.01712
G1 X92.063 Y100.858 E0.01712
G1 X92.260 Y101.334 E0.01615
G1 X92.344 Y101.900 E0.01792
G1 X92.272 Y102.446 E0.01728
G1 X92.063 Y102.950 E0.01712
G1 X91.731 Y103.384 E0.01712
G1 X91.297 Y103.716 E0.01712
G1 X90.793 Y103.925 E0.01712
G1 X90.251 Y103.997 E0.01712
G1 X89.710 Y103.925 E0.01712
G1 X89.205 Y103.716 E0.01712
G1 X88.772 Y103.384 E0.01712
G1 X88.440 Y102.950 E0.01712
G1 X88.231 Y102.446 E0.01712
G1 X88.159 Y101.904 E0.01712
G1 X88.231 Y101.363 E0.01712
G1 X88.440 Y100.858 E0.01712
G1 X88.772 Y100.425 E0.01712
G1 X89.205 Y100.093 E0.01712
G1 X89.710 Y99.884 E0.01712
G1 X90.161 Y99.824 E0.01427
G1 X90.693 Y100.250 F7200.000
G1 F840
G1 X91.107 Y100.422 E0.01407
G1 X91.462 Y100.694 E0.01401
G1 X91.734 Y101.048 E0.01401
G1 X91.894 Y101.436 E0.01314
G1 X91.963 Y101.903 E0.01480
G1 X91.905 Y102.347 E0.01407
G1 X91.734 Y102.760 E0.01401
G1 X91.462 Y103.115 E0.01401
G1 X91.107 Y103.387 E0.01401
G1 X90.694 Y103.558 E0.01401
G1 X90.251 Y103.616 E0.01401
G1 X89.808 Y103.558 E0.01401
G1 X89.396 Y103.387 E0.01401
G1 X89.041 Y103.115 E0.01401
G1 X88.769 Y102.760 E0.01401
G1 X88.598 Y102.347 E0.01401
G1 X88.540 Y101.904 E0.01401
G1 X88.598 Y101.461 E0.01401
G1 X88.769 Y101.048 E0.01401
G1 X89.041 Y100.694 E0.01401
G1 X89.396 Y100.422 E0.01401
G1 X89.808 Y100.251 E0.01401
G1 X90.224 Y100.196 E0.01314
G1 X90.633 Y100.243 E0.01292
G1 X90.976 Y99.967 F7200.000
G1 F5760
G1 X91.107 Y100.422 E-0.17545
G1 F5760
G1 X91.462 Y100.694 E-0.15478
G1 F5760
G1 X91.734 Y101.048 E-0.15478
G1 F5760
G1 X91.894 Y101.436 E-0.14514
G1 F5760
G1 X91.949 Y101.807 E-0.12986
G1 E-0.04000 F2100.00000
G1 X65.384 Y101.852 F7200.000
G1 E0.80000 F2100.00000
G1 F840
G1 X65.312 Y102.398 E0.01728
G1 X65.103 Y102.903 E0.01712
G1 X64.771 Y103.336 E0.01712
G1 X64.337 Y103.669 E0.01712
G1 X63.833 Y103.878 E0.01712
G1 X63.291 Y103.949 E0.01712
G1 X62.750 Y103.878 E0.01712
G1 X62.274 Y103.680 E0.01615
G1 X61.815 Y103.340 E0.01792
G1 X61.479 Y102.903 E0.01728
G1 X61.282 Y102.427 E0.01615
G1 X61.199 Y101.862 E0.01792
G1 X61.270 Y101.315 E0.01728
G1 X61.479 Y100.811 E0.01712
G1 X61.812 Y100.377 E0.01712
G1 X62.245 Y100.045 E0.01712
G1 X62.750 Y99.836 E0.01712
G1 X63.261 Y99.769 E0.01615
G1 X63.828 Y99.834 E0.01792
G1 X64.337 Y100.045 E0.01728
G1 X64.771 Y100.377 E0.01712
G1 X65.103 Y100.811 E0.01712
G1 X65.300 Y101.287 E0.01615
G1 X65.375 Y101.793 E0.01604
G1 X65.002 Y101.848 F7200.000
G1 F840
G1 X64.945 Y102.300 E0.01428
G1 X64.774 Y102.713 E0.01401
G1 X64.502 Y103.067 E0.01401
G1 X64.147 Y103.339 E0.01401
G1 X63.734 Y103.510 E0.01401
G1 X63.291 Y103.569 E0.01401
G1 X62.848 Y103.510 E0.01401
G1 X62.461 Y103.350 E0.01314
G1 X62.082 Y103.069 E0.01480
G1 X61.809 Y102.713 E0.01407
G1 X61.648 Y102.326 E0.01314
G1 X61.579 Y101.858 E0.01480
G1 X61.638 Y101.414 E0.01407
G1 X61.809 Y101.001 E0.01401
G1 X62.081 Y100.646 E0.01401
G1 X62.435 Y100.374 E0.01401
G1 X62.848 Y100.203 E0.01401
G1 X63.264 Y100.149 E0.01314
G1 X63.733 Y100.203 E0.01480
G1 X64.147 Y100.374 E0.01407
G1 X64.502 Y100.646 E0.01401
G1 X64.774 Y101.001 E0.01401
G1 X64.934 Y101.388 E0.01314
G1 X64.993 Y101.789 E0.01270
G1 X65.349 Y102.047 F7200.000
G1 F5760
G1 X64.945 Y102.300 E-0.17789
G1 F5760
G1 X64.774 Y102.713 E-0.15478
G1 F5760
G1 X64.502 Y103.067 E-0.15477
G1 F5760
G1 X64.147 Y103.339 E-0.15478
G1 F5760
G1 X63.833 Y103.469 E-0.11779
G1 E-0.04000 F2100.00000
G1 X38.385 Y103.364 F7200.000
G1 E0.80000 F2100.00000
G1 F840
G1 X38.313 Y103.906 E0.01712
G1 X38.104 Y104.410 E0.01712
G1 X37.772 Y104.843 E0.01712
G1 X37.339 Y105.176 E0.01712
G1 X36.848 Y105.379 E0.01664
G1 X36.295 Y105.457 E0.01752
G1 X35.751 Y105.385 E0.01720
G1 X35.247 Y105.176 E0.01712
G1 X34.813 Y104.843 E0.01712
G1 X34.481 Y104.410 E0.01712
G1 X34.272 Y103.906 E0.01712
G1 X34.200 Y103.364 E0.01712
G1 X34.272 Y102.823 E0.01712
G1 X34.481 Y102.318 E0.01712
G1 X34.813 Y101.885 E0.01712
G1 X35.247 Y101.552 E0.01712
G1 X35.751 Y101.343 E0.01712
G1 X36.277 Y101.274 E0.01664
G1 X36.832 Y101.342 E0.01752
G1 X37.339 Y101.552 E0.01720
G1 X37.772 Y101.885 E0.01712
G1 X38.104 Y102.318 E0.01712
G1 X38.313 Y102.823 E0.01712
G1 X38.377 Y103.305 E0.01524
G1 X38.003 Y103.354 F7200.000
G1 F840
G1 X37.946 Y103.807 E0.01433
G1 X37.775 Y104.220 E0.01401
G1 X37.503 Y104.574 E0.01401
G1 X37.149 Y104.847 E0.01401
G1 X36.749 Y105.012 E0.01357
G1 X36.294 Y105.076 E0.01441
G1 X35.850 Y105.018 E0.01404
G1 X35.437 Y104.847 E0.01401
G1 X35.082 Y104.574 E0.01401
G1 X34.810 Y104.220 E0.01401
G1 X34.639 Y103.807 E0.01401
G1 X34.581 Y103.364 E0.01401
G1 X34.639 Y102.921 E0.01401
G1 X34.810 Y102.508 E0.01401
G1 X35.082 Y102.154 E0.01401
G1 X35.437 Y101.882 E0.01401
G1 X35.850 Y101.711 E0.01401
G1 X36.279 Y101.654 E0.01357
G1 X36.735 Y101.710 E0.01441
G1 X37.149 Y101.882 E0.01404
G1 X37.503 Y102.154 E0.01401
G1 X37.775 Y102.508 E0.01401
G1 X37.946 Y102.921 E0.01401
G1 X37.995 Y103.294 E0.01181
G1 X38.350 Y103.552 F7200.000
G1 F5760
G1 X37.946 Y103.807 E-0.17842
G1 F5760
G1 X37.775 Y104.220 E-0.15478
