; generated by Slic3r 1.37.1-prusa3d-win64 on 2017-10-20 at 19:18:24

; 

; external perimeters extrusion width = 0.45mm
; perimeters extrusion width = 0.45mm
; infill extrusion width = 0.45mm
; solid infill extrusion width = 0.45mm
; top infill extrusion width = 0.40mm
; first layer extrusion width = 0.42mm

M107
M115 U3.0.12 ; tell printer latest fw version
M83  ; extruder relative mode
M104 S215 ; set extruder temp
M140 S55 ; set bed temp
M190 S55 ; wait for bed temp
M109 S215 ; wait for extruder temp
G28 W ; home all without mesh bed level
G80 ; mesh bed leveling
G1 Y-3.0 F1000.0 ; go outside pritn area
G1 X60.0 E9.0  F1000.0 ; intro line
G1 X100.0 E12.5  F1000.0 ; intro line
; Filament gcode

G21 ; set units to millimeters
G90 ; use absolute coordinates
M83 ; use relative distances for extrusion
G1 E-0.80000 F2100.00000
G1 Z0.200 F7200.000
G1 X45.358 Y39.716 F7200.000
G1 E0.80000 F2100.00000
M204 S1000
G1 F2100
G1 X46.181 Y39.563 E0.02626
G1 X137.201 Y39.563 E2.85385
G1 X138.107 Y39.743 E0.02896
G1 X138.875 Y40.256 E0.02896
G1 X144.002 Y45.393 E0.22757
G1 X144.419 Y46.093 E0.02555
G1 X144.574 Y46.897 E0.02567
G1 X144.568 Y123.107 E2.38951
G1 X144.392 Y123.853 E0.02402
G1 X143.985 Y124.506 E0.02414
G1 X138.756 Y129.735 E0.23187
G1 X138.036 Y130.164 E0.02626
G1 X137.213 Y130.317 E0.02626
G1 X46.072 Y130.313 E2.85768
G1 X45.305 Y130.143 E0.02461
G1 X44.637 Y129.733 E0.02461
G1 X39.402 Y124.498 E0.23211
G1 X38.973 Y123.779 E0.02626
G1 X38.820 Y122.955 E0.02626
G1 X38.825 Y46.791 E2.38808
G1 X38.998 Y46.037 E0.02426
G1 X39.407 Y45.376 E0.02437
G1 X44.639 Y40.145 E0.23199
G1 X45.307 Y39.746 E0.02437
G1 F5760
G1 X46.181 Y39.563 E-0.30961
G1 F5760
G1 X47.482 Y39.563 E-0.45039
G1 E-0.04000 F2100.00000
G1 X108.748 Y44.334 F7200.000
G1 E0.80000 F2100.00000
G1 F840
G1 X108.806 Y43.890 E0.01404
G1 X108.977 Y43.477 E0.01401
G1 X109.249 Y43.122 E0.01401
G1 X109.604 Y42.850 E0.01401
G1 X110.017 Y42.679 E0.01401
G1 X110.446 Y42.623 E0.01357
G1 X110.902 Y42.679 E0.01441
G1 X111.316 Y42.850 E0.01404
G1 X111.670 Y43.122 E0.01401
G1 X111.942 Y43.477 E0.01401
G1 X112.108 Y43.877 E0.01357
G1 X112.172 Y44.332 E0.01441
G1 X112.113 Y44.776 E0.01404
G1 X111.942 Y45.189 E0.01401
G1 X111.670 Y45.543 E0.01401
G1 X111.316 Y45.815 E0.01401
G1 X110.903 Y45.986 E0.01401
G1 X110.460 Y46.044 E0.01401
G1 X110.017 Y45.986 E0.01401
G1 X109.604 Y45.815 E0.01401
G1 X109.249 Y45.543 E0.01401
G1 X108.977 Y45.189 E0.01401
G1 X108.812 Y44.789 E0.01357
G1 X108.756 Y44.393 E0.01253
G1 X108.402 Y44.134 F7200.000
G1 F5760
G1 X108.806 Y43.890 E-0.17520
G1 F5760
G1 X108.977 Y43.477 E-0.15477
G1 F5760
G1 X109.249 Y43.122 E-0.15478
G1 F5760
G1 X109.604 Y42.850 E-0.15478
G1 F5760
G1 X109.925 Y42.717 E-0.12047
G1 E-0.04000 F2100.00000
G1 X105.784 Y52.353 F7200.000
G1 E0.80000 F2100.00000
G1 F1680
G1 X105.784 Y120.527 E2.13755
G1 X66.610 Y120.527 E1.22828
G1 X66.610 Y52.353 E2.13755
G1 X105.724 Y52.353 E1.22640
G1 X105.407 Y52.730 F7200.000
G1 F1260
G1 X105.407 Y120.150 E2.11391
G1 X66.987 Y120.150 E1.20463
G1 X66.987 Y52.730 E2.11391
G1 X105.347 Y52.730 E1.20275
G1 X105.783 Y52.592 F7200.000
G1 F5760
G1 X105.349 Y54.924 E-0.76000
G1 E-0.04000 F2100.00000
G1 X53.218 Y61.398 F7200.000
G1 E0.80000 F2100.00000
G1 F840
G1 X53.289 Y61.940 E0.01712
G1 X53.218 Y62.481 E0.01712
G1 X53.009 Y62.986 E0.01712
G1 X52.677 Y63.419 E0.01712
G1 X52.243 Y63.752 E0.01712
G1 X51.739 Y63.961 E0.01712
G1 X51.197 Y64.032 E0.01712
G1 X50.656 Y63.961 E0.01712
G1 X50.151 Y63.752 E0.01712
G1 X49.718 Y63.419 E0.01712
G1 X49.385 Y62.986 E0.01712
G1 X49.176 Y62.481 E0.01712
G1 X49.105 Y61.940 E0.01712
G1 X49.176 Y61.398 E0.01712
G1 X49.385 Y60.894 E0.01712
G1 X49.718 Y60.460 E0.01712
G1 X50.151 Y60.128 E0.01712
G1 X50.656 Y59.919 E0.01712
G1 X51.182 Y59.850 E0.01664
G1 X51.736 Y59.918 E0.01752
G1 X52.243 Y60.128 E0.01720
G1 X52.677 Y60.460 E0.01712
G1 X53.009 Y60.894 E0.01712
G1 X53.195 Y61.343 E0.01524
G1 X52.847 Y61.487 F7200.000
G1 F840
G1 X52.909 Y61.940 E0.01433
G1 X52.851 Y62.383 E0.01401
G1 X52.680 Y62.796 E0.01401
G1 X52.408 Y63.150 E0.01401
G1 X52.053 Y63.422 E0.01401
G1 X51.640 Y63.593 E0.01401
G1 X51.197 Y63.651 E0.01401
G1 X50.754 Y63.593 E0.01401
G1 X50.341 Y63.422 E0.01401
G1 X49.987 Y63.150 E0.01401
G1 X49.715 Y62.796 E0.01401
G1 X49.544 Y62.383 E0.01401
G1 X49.485 Y61.940 E0.01401
G1 X49.544 Y61.497 E0.01401
G1 X49.715 Y61.084 E0.01401
G1 X49.987 Y60.729 E0.01401
G1 X50.341 Y60.457 E0.01401
G1 X50.754 Y60.286 E0.01401
G1 X51.183 Y60.230 E0.01357
G1 X51.639 Y60.286 E0.01441
G1 X52.053 Y60.457 E0.01404
G1 X52.408 Y60.729 E0.01401
G1 X52.680 Y61.084 E0.01401
G1 X52.824 Y61.432 E0.01180
G1 X53.234 Y61.589 F7200.000
G1 F5760
G1 X52.909 Y61.940 E-0.17843
G1 F5760
G1 X52.851 Y62.383 E-0.15478
G1 F5760
G1 X52.680 Y62.796 E-0.15477
G1 F5760
G1 X52.408 Y63.150 E-0.15478
G1 F5760
G1 X52.139 Y63.356 E-0.11724
G1 E-0.04000 F2100.00000
G1 X61.418 Y99.812 F7200.000
G1 E0.80000 F2100.00000
G1 F840
G1 X61.944 Y99.743 E0.01664
G1 X62.499 Y99.811 E0.01752
G1 X63.006 Y100.021 E0.01720
G1 X63.439 Y100.353 E0.01712
G1 X63.772 Y100.787 E0.01712
G1 X63.981 Y101.291 E0.01712
G1 X64.052 Y101.833 E0.01712
G1 X63.981 Y102.374 E0.01712
G1 X63.772 Y102.879 E0.01712
G1 X63.439 Y103.312 E0.01712
G1 X63.006 Y103.644 E0.01712
G1 X62.501 Y103.853 E0.01712
G1 X61.960 Y103.925 E0.01712
G1 X61.418 Y103.853 E0.01712
G1 X60.914 Y103.644 E0.01712
G1 X60.481 Y103.312 E0.01712
G1 X60.148 Y102.879 E0.01712
G1 X59.945 Y102.388 E0.01664
G1 X59.867 Y101.835 E0.01752
G1 X59.939 Y101.291 E0.01720
G1 X60.148 Y100.787 E0.01712
G1 X60.481 Y100.353 E0.01712
G1 X60.914 Y100.021 E0.01712
G1 X61.363 Y99.835 E0.01524
G1 X61.507 Y100.183 F7200.000
G1 F840
G1 X61.946 Y100.123 E0.01389
G1 X62.402 Y100.179 E0.01441
G1 X62.816 Y100.350 E0.01404
G1 X63.170 Y100.622 E0.01401
G1 X63.442 Y100.977 E0.01401
G1 X63.613 Y101.390 E0.01401
G1 X63.672 Y101.833 E0.01401
G1 X63.613 Y102.276 E0.01401
G1 X63.442 Y102.689 E0.01401
G1 X63.170 Y103.043 E0.01401
G1 X62.816 Y103.315 E0.01401
G1 X62.403 Y103.486 E0.01401
G1 X61.960 Y103.544 E0.01401
G1 X61.517 Y103.486 E0.01401
G1 X61.104 Y103.315 E0.01401
G1 X60.749 Y103.043 E0.01401
G1 X60.477 Y102.689 E0.01401
G1 X60.312 Y102.289 E0.01357
G1 X60.248 Y101.834 E0.01441
G1 X60.306 Y101.390 E0.01404
G1 X60.477 Y100.977 E0.01401
G1 X60.749 Y100.622 E0.01401
G1 X61.104 Y100.350 E0.01401
G1 X61.452 Y100.206 E0.01181
G1 X61.609 Y99.796 F7200.000
G1 F5760
G1 X61.946 Y100.123 E-0.17360
G1 F5760
G1 X62.402 Y100.179 E-0.15915
G1 F5760
G1 X62.816 Y100.350 E-0.15509
G1 F5760
G1 X63.170 Y100.622 E-0.15478
G1 F5760
G1 X63.377 Y100.891 E-0.11739
G1 E-0.04000 F2100.00000
G1 X52.677 Y111.460 F7200.000
G1 E0.80000 F2100.00000
G1 F840
G1 X53.009 Y111.894 E0.01712
G1 X53.218 Y112.398 E0.01712
G1 X53.289 Y112.940 E0.01712
G1 X53.218 Y113.481 E0.01712
G1 X53.015 Y113.971 E0.01664
G1 X52.679 Y114.418 E0.01752
G1 X52.243 Y114.752 E0.01720
G1 X51.739 Y114.961 E0.01712
G1 X51.197 Y115.032 E0.01712
G1 X50.656 Y114.961 E0.01712
G1 X50.151 Y114.752 E0.01712
G1 X49.718 Y114.419 E0.01712
G1 X49.385 Y113.986 E0.01712
G1 X49.176 Y113.481 E0.01712
G1 X49.105 Y112.940 E0.01712
G1 X49.176 Y112.398 E0.01712
G1 X49.379 Y111.908 E0.01664
G1 X49.716 Y111.462 E0.01752
G1 X50.151 Y111.128 E0.01720
G1 X50.656 Y110.919 E0.01712
G1 X51.182 Y110.850 E0.01664
G1 X51.736 Y110.918 E0.01752
G1 X52.243 Y111.128 E0.01720
G1 X52.629 Y111.424 E0.01524
G1 X52.399 Y111.723 F7200.000
G1 F840
G1 X52.680 Y112.084 E0.01433
G1 X52.851 Y112.497 E0.01401
G1 X52.909 Y112.940 E0.01401
G1 X52.851 Y113.383 E0.01401
G1 X52.685 Y113.783 E0.01357
G1 X52.408 Y114.150 E0.01441
G1 X52.053 Y114.422 E0.01404
G1 X51.640 Y114.593 E0.01401
G1 X51.197 Y114.651 E0.01401
G1 X50.754 Y114.593 E0.01401
G1 X50.341 Y114.422 E0.01401
G1 X49.987 Y114.150 E0.01401
G1 X49.715 Y113.796 E0.01401
G1 X49.544 Y113.383 E0.01401
G1 X49.485 Y112.940 E0.01401
G1 X49.544 Y112.497 E0.01401
G1 X49.709 Y112.097 E0.01357
G1 X49.986 Y111.730 E0.01441
G1 X50.341 Y111.457 E0.01404
G1 X50.754 Y111.286 E0.01401
G1 X51.183 Y111.230 E0.01357
G1 X51.639 Y111.286 E0.01441
G1 X52.053 Y111.457 E0.01404
G1 X52.352 Y111.686 E0.01181
G1 X52.785 Y111.618 F7200.000
G1 F5760
G1 X52.680 Y112.084 E-0.17843
G1 F5760
G1 X52.851 Y112.497 E-0.15477
G1 F5760
G1 X52.909 Y112.940 E-0.15478
G1 F5760
G1 X52.851 Y113.383 E-0.15478
G1 F5760
G1 X52.721 Y113.695 E-0.11724
G1 E-0.04000 F2100.00000
G1 X108.445 Y102.388 F7200.000
G1 E0.80000 F2100.00000
G1 F840
G1 X108.367 Y101.835 E0.01752
G1 X108.439 Y101.291 E0.01720
G1 X108.648 Y100.787 E0.01712
G1 X108.981 Y100.353 E0.01712
G1 X109.414 Y100.021 E0.01712
G1 X109.918 Y99.812 E0.01712
G1 X110.444 Y99.743 E0.01664
G1 X110.999 Y99.811 E0.01752
G1 X111.506 Y100.021 E0.01720
G1 X111.939 Y100.353 E0.01712
G1 X112.272 Y100.787 E0.01712
G1 X112.475 Y101.277 E0.01664
G1 X112.552 Y101.830 E0.01752
G1 X112.481 Y102.374 E0.01720
G1 X112.272 Y102.879 E0.01712
G1 X111.939 Y103.312 E0.01712
G1 X111.506 Y103.644 E0.01712
G1 X111.001 Y103.853 E0.01712
G1 X110.460 Y103.925 E0.01712
G1 X109.918 Y103.853 E0.01712
G1 X109.428 Y103.650 E0.01664
G1 X108.982 Y103.314 E0.01752
G1 X108.648 Y102.879 E0.01720
G1 X108.468 Y102.444 E0.01476
G1 X108.816 Y102.300 F7200.000
G1 F840
G1 X108.748 Y101.834 E0.01477
G1 X108.806 Y101.390 E0.01404
G1 X108.977 Y100.977 E0.01401
G1 X109.249 Y100.622 E0.01401
G1 X109.604 Y100.350 E0.01401
G1 X110.017 Y100.179 E0.01401
G1 X110.446 Y100.123 E0.01357
G1 X110.902 Y100.179 E0.01441
G1 X111.316 Y100.350 E0.01404
G1 X111.670 Y100.622 E0.01401
G1 X111.942 Y100.977 E0.01401
G1 X112.108 Y101.377 E0.01357
G1 X112.172 Y101.832 E0.01441
G1 X112.113 Y102.276 E0.01404
G1 X111.942 Y102.689 E0.01401
G1 X111.670 Y103.043 E0.01401
G1 X111.316 Y103.315 E0.01401
G1 X110.903 Y103.486 E0.01401
G1 X110.460 Y103.544 E0.01401
G1 X110.017 Y103.486 E0.01401
G1 X109.617 Y103.320 E0.01357
G1 X109.250 Y103.044 E0.01441
G1 X108.977 Y102.689 E0.01404
G1 X108.839 Y102.355 E0.01132
G1 X108.429 Y102.200 F7200.000
G1 F5760
G1 X108.748 Y101.834 E-0.18338
G1 F5760
G1 X108.806 Y101.390 E-0.15509
G1 F5760
G1 X108.977 Y100.977 E-0.15478
G1 F5760
G1 X109.249 Y100.622 E-0.15478
G1 F5760
G1 X109.506 Y100.425 E-0.11198
G1 E-0.04000 F2100.00000
G1 X124.142 Y100.596 F7200.000
G1 E0.80000 F2100.00000
G1 F840
G1 X124.205 Y100.116 E0.01516
G1 X124.389 Y99.672 E0.01508
G1 X124.682 Y99.290 E0.01508
G1 X125.063 Y98.998 E0.01508
G1 X125.508 Y98.814 E0.01508
G1 X125.971 Y98.753 E0.01466
G1 X126.459 Y98.813 E0.01541
G1 X126.906 Y98.998 E0.01516
G1 X127.287 Y99.290 E0.01508
G1 X127.580 Y99.672 E0.01508
G1 X127.759 Y100.104 E0.01466
G1 X127.827 Y100.591 E0.01541
G1 X127.764 Y101.070 E0.01516
G1 X127.580 Y101.514 E0.01508
G1 X127.287 Y101.896 E0.01508
G1 X126.906 Y102.188 E0.01508
G1 X126.461 Y102.372 E0.01508
G1 X125.984 Y102.435 E0.01508
G1 X125.508 Y102.372 E0.01508
G1 X125.063 Y102.188 E0.01508
G1 X124.682 Y101.896 E0.01508
G1 X124.389 Y101.514 E0.01508
G1 X124.210 Y101.082 E0.01466
G1 X124.150 Y100.655 E0.01353
G1 X124.524 Y100.603 F7200.000
G1 F840
G1 X124.572 Y100.215 E0.01226
G1 X124.719 Y99.862 E0.01197
G1 X124.951 Y99.559 E0.01197
G1 X125.254 Y99.327 E0.01197
G1 X125.606 Y99.181 E0.01196
G1 X125.973 Y99.133 E0.01160
G1 X126.362 Y99.181 E0.01230
G1 X126.715 Y99.327 E0.01199
G1 X127.018 Y99.559 E0.01196
G1 X127.250 Y99.862 E0.01197
G1 X127.392 Y100.204 E0.01160
G1 X127.446 Y100.592 E0.01229
G1 X127.396 Y100.971 E0.01199
G1 X127.250 Y101.324 E0.01197
G1 X127.018 Y101.627 E0.01197
G1 X126.715 Y101.859 E0.01196
G1 X126.363 Y102.005 E0.01197
G1 X125.984 Y102.055 E0.01197
G1 X125.606 Y102.005 E0.01197
G1 X125.254 Y101.859 E0.01196
G1 X124.951 Y101.627 E0.01197
G1 X124.719 Y101.324 E0.01197
G1 X124.577 Y100.982 E0.01160
G1 X124.532 Y100.662 E0.01014
G1 X124.184 Y100.409 F7200.000
G1 F5760
G1 X124.572 Y100.215 E-0.15556
G1 F5760
G1 X124.719 Y99.862 E-0.13217
G1 F5760
G1 X124.951 Y99.559 E-0.13217
G1 F5760
G1 X125.254 Y99.327 E-0.13217
G1 F5760
G1 X125.606 Y99.181 E-0.13217
G1 F5760
G1 X125.823 Y99.152 E-0.07575
G1 E-0.04000 F2100.00000
G1 X132.142 Y100.596 F7200.000
G1 E0.80000 F2100.00000
G1 F840
G1 X132.205 Y100.116 E0.01516
G1 X132.389 Y99.672 E0.01508
G1 X132.682 Y99.290 E0.01508
G1 X133.063 Y98.998 E0.01508
G1 X133.508 Y98.814 E0.01508
G1 X133.971 Y98.753 E0.01466
G1 X134.459 Y98.813 E0.01541
G1 X134.906 Y98.998 E0.01516
G1 X135.287 Y99.290 E0.01508
G1 X135.580 Y99.672 E0.01508
G1 X135.759 Y100.104 E0.01466
G1 X135.827 Y100.591 E0.01541
G1 X135.764 Y101.070 E0.01516
G1 X135.580 Y101.514 E0.01508
G1 X135.287 Y101.896 E0.01508
G1 X134.906 Y102.188 E0.01508
G1 X134.461 Y102.372 E0.01508
G1 X133.984 Y102.435 E0.01508
G1 X133.508 Y102.372 E0.01508
G1 X133.063 Y102.188 E0.01508
G1 X132.682 Y101.896 E0.01508
G1 X132.389 Y101.514 E0.01508
G1 X132.210 Y101.082 E0.01466
G1 X132.150 Y100.655 E0.01353
G1 X132.524 Y100.603 F7200.000
G1 F840
G1 X132.572 Y100.215 E0.01226
G1 X132.719 Y99.862 E0.01197
G1 X132.951 Y99.559 E0.01197
G1 X133.254 Y99.327 E0.01197
G1 X133.606 Y99.181 E0.01196
G1 X133.973 Y99.133 E0.01160
G1 X134.362 Y99.181 E0.01230
G1 X134.715 Y99.327 E0.01199
G1 X135.018 Y99.559 E0.01196
G1 X135.250 Y99.862 E0.01197
G1 X135.392 Y100.204 E0.01160
G1 X135.446 Y100.592 E0.01229
G1 X135.396 Y100.971 E0.01199
G1 X135.250 Y101.324 E0.01197
G1 X135.018 Y101.627 E0.01197
G1 X134.715 Y101.859 E0.01196
G1 X134.363 Y102.005 E0.01197
G1 X133.984 Y102.055 E0.01197
G1 X133.606 Y102.005 E0.01197
G1 X133.254 Y101.859 E0.01196
G1 X132.951 Y101.627 E0.01197
G1 X132.719 Y101.324 E0.01197
G1 X132.577 Y100.982 E0.01160
G1 X132.532 Y100.662 E0.01014
G1 X132.184 Y100.409 F7200.000
G1 F5760
G1 X132.572 Y100.215 E-0.15556
G1 F5760
G1 X132.719 Y99.862 E-0.13217
G1 F5760
G1 X132.951 Y99.559 E-0.13217
G1 F5760
G1 X133.254 Y99.327 E-0.13217
G1 F5760
G1 X133.606 Y99.181 E-0.13217
G1 F5760
G1 X133.823 Y99.152 E-0.07575
G1 E-0.04000 F2100.00000
G1 X132.182 Y110.850 F7200.000
G1 E0.80000 F2100.00000
G1 F840
G1 X132.736 Y110.918 E0.01752
G1 X133.243 Y111.128 E0.01720
G1 X133.677 Y111.460 E0.01712
G1 X134.009 Y111.894 E0.01712
G1 X134.218 Y112.398 E0.01712
G1 X134.289 Y112.940 E0.01712
G1 X134.218 Y113.481 E0.01712
G1 X134.009 Y113.986 E0.01712
G1 X133.677 Y114.419 E0.01712
G1 X133.243 Y114.752 E0.01712
G1 X132.739 Y114.961 E0.01712
G1 X132.197 Y115.032 E0.01712
G1 X131.656 Y114.961 E0.01712
G1 X131.151 Y114.752 E0.01712
G1 X130.718 Y114.419 E0.01712
G1 X130.385 Y113.986 E0.01712
G1 X130.176 Y113.481 E0.01712
G1 X130.105 Y112.940 E0.01712
G1 X130.176 Y112.398 E0.01712
G1 X130.385 Y111.894 E0.01712
G1 X130.718 Y111.460 E0.01712
G1 X131.151 Y111.128 E0.01712
G1 X131.656 Y110.919 E0.01712
G1 X132.122 Y110.857 E0.01476
G1 X132.172 Y111.231 F7200.000
G1 F840
G1 X132.639 Y111.286 E0.01477
G1 X133.053 Y111.457 E0.01404
G1 X133.408 Y111.729 E0.01401
G1 X133.680 Y112.084 E0.01401
G1 X133.851 Y112.497 E0.01401
G1 X133.909 Y112.940 E0.01401
G1 X133.851 Y113.383 E0.01401
G1 X133.680 Y113.796 E0.01401
G1 X133.408 Y114.150 E0.01401
G1 X133.053 Y114.422 E0.01401
G1 X132.640 Y114.593 E0.01401
G1 X132.197 Y114.651 E0.01401
G1 X131.754 Y114.593 E0.01401
G1 X131.341 Y114.422 E0.01401
G1 X130.987 Y114.150 E0.01401
G1 X130.715 Y113.796 E0.01401
G1 X130.544 Y113.383 E0.01401
G1 X130.485 Y112.940 E0.01401
G1 X130.544 Y112.497 E0.01401
G1 X130.715 Y112.084 E0.01401
G1 X130.987 Y111.729 E0.01401
G1 X131.341 Y111.457 E0.01401
G1 X131.754 Y111.286 E0.01401
G1 X132.112 Y111.239 E0.01132
G1 X132.368 Y110.883 F7200.000
G1 F5760
G1 X132.639 Y111.286 E-0.18338
G1 F5760
G1 X133.053 Y111.457 E-0.15508
G1 F5760
G1 X133.408 Y111.729 E-0.15478
G1 F5760
G1 X133.680 Y112.084 E-0.15478
G1 F5760
G1 X133.803 Y112.382 E-0.11198
G1 E-0.04000 F2100.00000
G1 X133.984 Y78.435 F7200.000
G1 E0.80000 F2100.00000
G1 F840
G1 X133.508 Y78.372 E0.01508
G1 X133.063 Y78.188 E0.01508
G1 X132.682 Y77.896 E0.01508
G1 X132.389 Y77.514 E0.01508
G1 X132.210 Y77.082 E0.01466
G1 X132.142 Y76.596 E0.01541
G1 X132.205 Y76.116 E0.01516
G1 X132.389 Y75.672 E0.01508
G1 X132.682 Y75.290 E0.01508
G1 X133.063 Y74.998 E0.01508
G1 X133.508 Y74.814 E0.01508
G1 X133.971 Y74.753 E0.01466
G1 X134.459 Y74.813 E0.01541
